app/luts/cinematic.cube
# Cinematic — S-curve teal/orange
LUT_3D_SIZE 5
DOMAIN_MIN 0.0 0.0 0.0
DOMAIN_MAX 1.0 1.0 1.0
0.039500 0.020000 0.059000
0.204711 0.020000 0.059000
0.538250 0.020000 0.059000
0.871789 0.020000 0.059000
1.000000 0.020000 0.059000
0.039500 0.171050 0.059000
0.204711 0.171050 0.059000
0.538250 0.171050 0.059000
0.871789 0.171050 0.059000
1.000000 0.171050 0.059000
0.039500 0.476000 0.059000
0.204711 0.476000 0.059000
0.538250 0.476000 0.059000
0.871789 0.476000 0.059000
1.000000 0.476000 0.059000
0.039500 0.780950 0.059000
0.204711 0.780950 0.059000
0.538250 0.780950 0.059000
0.871789 0.780950 0.059000
1.000000 0.780950 0.059000
0.039500 0.932000 0.059000
0.204711 0.932000 0.059000
0.538250 0.932000 0.059000
0.871789 0.932000 0.059000
1.000000 0.932000 0.059000
0.039500 0.020000 0.203756
0.204711 0.020000 0.203756
0.538250 0.020000 0.203756
0.871789 0.020000 0.203756
1.000000 0.020000 0.203756
0.039500 0.171050 0.203756
0.204711 0.171050 0.203756
0.538250 0.171050 0.203756
0.871789 0.171050 0.203756
1.000000 0.171050 0.203756
0.039500 0.476000 0.203756
0.204711 0.476000 0.203756
0.538250 0.476000 0.203756
0.871789 0.476000 0.203756
1.000000 0.476000 0.203756
0.039500 0.780950 0.203756
0.204711 0.780950 0.203756
0.538250 0.780950 0.203756
0.871789 0.780950 0.203756
1.000000 0.780950 0.203756
0.039500 0.932000 0.203756
0.204711 0.932000 0.203756
0.538250 0.932000 0.203756
0.871789 0.932000 0.203756
1.000000 0.932000 0.203756
0.039500 0.020000 0.496000
0.204711 0.020000 0.496000
0.538250 0.020000 0.496000
0.871789 0.020000 0.496000
1.000000 0.020000 0.496000
0.039500 0.171050 0.496000
0.204711 0.171050 0.496000
0.538250 0.171050 0.496000
0.871789 0.171050 0.496000
1.000000 0.171050 0.496000
0.039500 0.476000 0.496000
0.204711 0.476000 0.496000
0.538250 0.476000 0.496000
0.871789 0.476000 0.496000
1.000000 0.476000 0.496000
0.039500 0.780950 0.496000
0.204711 0.780950 0.496000
0.538250 0.780950 0.496000
0.871789 0.780950 0.496000
1.000000 0.780950 0.496000
0.039500 0.932000 0.496000
0.204711 0.932000 0.496000
0.538250 0.932000 0.496000
0.871789 0.932000 0.496000
1.000000 0.932000 0.496000
0.039500 0.020000 0.788244
0.204711 0.020000 0.788244
0.538250 0.020000 0.788244
0.871789 0.020000 0.788244
1.000000 0.020000 0.788244
0.039500 0.171050 0.788244
0.204711 0.171050 0.788244
0.538250 0.171050 0.788244
0.871789 0.171050 0.788244
1.000000 0.171050 0.788244
0.039500 0.476000 0.788244
0.204711 0.476000 0.788244
0.538250 0.476000 0.788244
0.871789 0.476000 0.788244
1.000000 0.476000 0.788244
0.039500 0.780950 0.788244
0.204711 0.780950 0.788244
0.538250 0.780950 0.788244
0.871789 0.780950 0.788244
1.000000 0.780950 0.788244
0.039500 0.932000 0.788244
0.204711 0.932000 0.788244
0.538250 0.932000 0.788244
0.871789 0.932000 0.788244
1.000000 0.932000 0.788244
0.039500 0.020000 0.933000
0.204711 0.020000 0.933000
0.538250 0.020000 0.933000
0.871789 0.020000 0.933000
1.000000 0.020000 0.933000
0.039500 0.171050 0.933000
0.204711 0.171050 0.933000
0.538250 0.171050 0.933000
0.871789 0.171050 0.933000
1.000000 0.171050 0.933000
0.039500 0.476000 0.933000
0.204711 0.476000 0.933000
0.538250 0.476000 0.933000
0.871789 0.476000 0.933000
1.000000 0.476000 0.933000
0.039500 0.780950 0.933000
0.204711 0.780950 0.933000
0.538250 0.780950 0.933000
0.871789 0.780950 0.933000
1.000000 0.780950 0.933000
0.039500 0.932000 0.933000
0.204711 0.932000 0.933000
0.538250 0.932000 0.933000
0.871789 0.932000 0.933000
1.000000 0.932000 0.933000
