app/luts/cinematic.cube
# Cinematic — S-curve teal/orange
LUT_3D_SIZE 17
DOMAIN_MIN 0.0 0.0 0.0
DOMAIN_MAX 1.0 1.0 1.0
0.039500 0.020000 0.059000
0.055817 0.020000 0.059000
0.090544 0.020000 0.059000
0.141052 0.020000 0.059000
0.204711 0.020000 0.059000
0.278890 0.020000 0.059000
0.360960 0.020000 0.059000
0.448290 0.020000 0.059000
0.538250 0.020000 0.059000
0.628210 0.020000 0.059000
0.715540 0.020000 0.059000
0.797610 0.020000 0.059000
0.871789 0.020000 0.059000
0.935448 0.020000 0.059000
0.985956 0.020000 0.059000
1.000000 0.020000 0.059000
1.000000 0.020000 0.059000
0.039500 0.034918 0.059000
0.055817 0.034918 0.059000
0.090544 0.034918 0.059000
0.141052 0.034918 0.059000
0.204711 0.034918 0.059000
0.278890 0.034918 0.059000
0.360960 0.034918 0.059000
0.448290 0.034918 0.059000
0.538250 0.034918 0.059000
0.628210 0.034918 0.059000
0.715540 0.034918 0.059000
0.797610 0.034918 0.059000
0.871789 0.034918 0.059000
0.935448 0.034918 0.059000
0.985956 0.034918 0.059000
1.000000 0.034918 0.059000
1.000000 0.034918 0.059000
0.039500 0.066669 0.059000
0.055817 0.066669 0.059000
0.090544 0.066669 0.059000
0.141052 0.066669 0.059000
0.204711 0.066669 0.059000
0.278890 0.066669 0.059000
0.360960 0.066669 0.059000
0.448290 0.066669 0.059000
0.538250 0.066669 0.059000
0.628210 0.066669 0.059000
0.715540 0.066669 0.059000
0.797610 0.066669 0.059000
0.871789 0.066669 0.059000
0.935448 0.066669 0.059000
0.985956 0.066669 0.059000
1.000000 0.066669 0.059000
1.000000 0.066669 0.059000
0.039500 0.112848 0.059000
0.055817 0.112848 0.059000
0.090544 0.112848 0.059000
0.141052 0.112848 0.059000
0.204711 0.112848 0.059000
0.278890 0.112848 0.059000
0.360960 0.112848 0.059000
0.448290 0.112848 0.059000
0.538250 0.112848 0.059000
0.628210 0.112848 0.059000
0.715540 0.112848 0.059000
0.797610 0.112848 0.059000
0.871789 0.112848 0.059000
0.935448 0.112848 0.059000
0.985956 0.112848 0.059000
1.000000 0.112848 0.059000
1.000000 0.112848 0.059000
0.039500 0.171050 0.059000
0.055817 0.171050 0.059000
0.090544 0.171050 0.059000
0.141052 0.171050 0.059000
0.204711 0.171050 0.059000
0.278890 0.171050 0.059000
0.360960 0.171050 0.059000
0.448290 0.171050 0.059000
0.538250 0.171050 0.059000
0.628210 0.171050 0.059000
0.715540 0.171050 0.059000
0.797610 0.171050 0.059000
0.871789 0.171050 0.059000
0.935448 0.171050 0.059000
0.985956 0.171050 0.059000
1.000000 0.171050 0.059000
1.000000 0.171050 0.059000
0.039500 0.238871 0.059000
0.055817 0.238871 0.059000
0.090544 0.238871 0.059000
0.141052 0.238871 0.059000
0.204711 0.238871 0.059000
0.278890 0.238871 0.059000
0.360960 0.238871 0.059000
0.448290 0.238871 0.059000
0.538250 0.238871 0.059000
0.628210 0.238871 0.059000
0.715540 0.238871 0.059000
0.797610 0.238871 0.059000
0.871789 0.238871 0.059000
0.935448 0.238871 0.059000
0.985956 0.238871 0.059000
1.000000 0.238871 0.059000
1.000000 0.238871 0.059000
0.039500 0.313906 0.059000
0.055817 0.313906 0.059000
0.090544 0.313906 0.059000
0.141052 0.313906 0.059000
0.204711 0.313906 0.059000
0.278890 0.313906 0.059000
0.360960 0.313906 0.059000
0.448290 0.313906 0.059000
0.538250 0.313906 0.059000
0.628210 0.313906 0.059000
0.715540 0.313906 0.059000
0.797610 0.313906 0.059000
0.871789 0.313906 0.059000
0.935448 0.313906 0.059000
0.985956 0.313906 0.059000
1.000000 0.313906 0.059000
1.000000 0.313906 0.059000
0.039500 0.393751 0.059000
0.055817 0.393751 0.059000
0.090544 0.393751 0.059000
0.141052 0.393751 0.059000
0.204711 0.393751 0.059000
0.278890 0.393751 0.059000
0.360960 0.393751 0.059000
0.448290 0.393751 0.059000
0.538250 0.393751 0.059000
0.628210 0.393751 0.059000
0.715540 0.393751 0.059000
0.797610 0.393751 0.059000
0.871789 0.393751 0.059000
0.935448 0.393751 0.059000
0.985956 0.393751 0.059000
1.000000 0.393751 0.059000
1.000000 0.393751 0.059000
0.039500 0.476000 0.059000
0.055817 0.476000 0.059000
0.090544 0.476000 0.059000
0.141052 0.476000 0.059000
0.204711 0.476000 0.059000
0.278890 0.476000 0.059000
0.360960 0.476000 0.059000
0.448290 0.476000 0.059000
0.538250 0.476000 0.059000
0.628210 0.476000 0.059000
0.715540 0.476000 0.059000
0.797610 0.476000 0.059000
0.871789 0.476000 0.059000
0.935448 0.476000 0.059000
0.985956 0.476000 0.059000
1.000000 0.476000 0.059000
1.000000 0.476000 0.059000
0.039500 0.558249 0.059000
0.055817 0.558249 0.059000
0.090544 0.558249 0.059000
0.141052 0.558249 0.059000
0.204711 0.558249 0.059000
0.278890 0.558249 0.059000
0.360960 0.558249 0.059000
0.448290 0.558249 0.059000
0.538250 0.558249 0.059000
0.628210 0.558249 0.059000
0.715540 0.558249 0.059000
0.797610 0.558249 0.059000
0.871789 0.558249 0.059000
0.935448 0.558249 0.059000
0.985956 0.558249 0.059000
1.000000 0.558249 0.059000
1.000000 0.558249 0.059000
0.039500 0.638094 0.059000
0.055817 0.638094 0.059000
0.090544 0.638094 0.059000
0.141052 0.638094 0.059000
0.204711 0.638094 0.059000
0.278890 0.638094 0.059000
0.360960 0.638094 0.059000
0.448290 0.638094 0.059000
0.538250 0.638094 0.059000
0.628210 0.638094 0.059000
0.715540 0.638094 0.059000
0.797610 0.638094 0.059000
0.871789 0.638094 0.059000
0.935448 0.638094 0.059000
0.985956 0.638094 0.059000
1.000000 0.638094 0.059000
1.000000 0.638094 0.059000
0.039500 0.713129 0.059000
0.055817 0.713129 0.059000
0.090544 0.713129 0.059000
0.141052 0.713129 0.059000
0.204711 0.713129 0.059000
0.278890 0.713129 0.059000
0.360960 0.713129 0.059000
0.448290 0.713129 0.059000
0.538250 0.713129 0.059000
0.628210 0.713129 0.059000
0.715540 0.713129 0.059000
0.797610 0.713129 0.059000
0.871789 0.713129 0.059000
0.935448 0.713129 0.059000
0.985956 0.713129 0.059000
1.000000 0.713129 0.059000
1.000000 0.713129 0.059000
0.039500 0.780950 0.059000
0.055817 0.780950 0.059000
0.090544 0.780950 0.059000
0.141052 0.780950 0.059000
0.204711 0.780950 0.059000
0.278890 0.780950 0.059000
0.360960 0.780950 0.059000
0.448290 0.780950 0.059000
0.538250 0.780950 0.059000
0.628210 0.780950 0.059000
0.715540 0.780950 0.059000
0.797610 0.780950 0.059000
0.871789 0.780950 0.059000
0.935448 0.780950 0.059000
0.985956 0.780950 0.059000
1.000000 0.780950 0.059000
1.000000 0.780950 0.059000
0.039500 0.839152 0.059000
0.055817 0.839152 0.059000
0.090544 0.839152 0.059000
0.141052 0.839152 0.059000
0.204711 0.839152 0.059000
0.278890 0.839152 0.059000
0.360960 0.839152 0.059000
0.448290 0.839152 0.059000
0.538250 0.839152 0.059000
0.628210 0.839152 0.059000
0.715540 0.839152 0.059000
0.797610 0.839152 0.059000
0.871789 0.839152 0.059000
0.935448 0.839152 0.059000
0.985956 0.839152 0.059000
1.000000 0.839152 0.059000
1.000000 0.839152 0.059000
0.039500 0.885331 0.059000
0.055817 0.885331 0.059000
0.090544 0.885331 0.059000
0.141052 0.885331 0.059000
0.204711 0.885331 0.059000
0.278890 0.885331 0.059000
0.360960 0.885331 0.059000
0.448290 0.885331 0.059000
0.538250 0.885331 0.059000
0.628210 0.885331 0.059000
0.715540 0.885331 0.059000
0.797610 0.885331 0.059000
0.871789 0.885331 0.059000
0.935448 0.885331 0.059000
0.985956 0.885331 0.059000
1.000000 0.885331 0.059000
1.000000 0.885331 0.059000
0.039500 0.917082 0.059000
0.055817 0.917082 0.059000
0.090544 0.917082 0.059000
0.141052 0.917082 0.059000
0.204711 0.917082 0.059000
0.278890 0.917082 0.059000
0.360960 0.917082 0.059000
0.448290 0.917082 0.059000
0.538250 0.917082 0.059000
0.628210 0.917082 0.059000
0.715540 0.917082 0.059000
0.797610 0.917082 0.059000
0.871789 0.917082 0.059000
0.935448 0.917082 0.059000
0.985956 0.917082 0.059000
1.000000 0.917082 0.059000
1.000000 0.917082 0.059000
0.039500 0.932000 0.059000
0.055817 0.932000 0.059000
0.090544 0.932000 0.059000
0.141052 0.932000 0.059000
0.204711 0.932000 0.059000
0.278890 0.932000 0.059000
0.360960 0.932000 0.059000
0.448290 0.932000 0.059000
0.538250 0.932000 0.059000
0.628210 0.932000 0.059000
0.715540 0.932000 0.059000
0.797610 0.932000 0.059000
0.871789 0.932000 0.059000
0.935448 0.932000 0.059000
0.985956 0.932000 0.059000
1.000000 0.932000 0.059000
1.000000 0.932000 0.059000
0.039500 0.020000 0.073296
0.055817 0.020000 0.073296
0.090544 0.020000 0.073296
0.141052 0.020000 0.073296
0.204711 0.020000 0.073296
0.278890 0.020000 0.073296
0.360960 0.020000 0.073296
0.448290 0.020000 0.073296
0.538250 0.020000 0.073296
0.628210 0.020000 0.073296
0.715540 0.020000 0.073296
0.797610 0.020000 0.073296
0.871789 0.020000 0.073296
0.935448 0.020000 0.073296
0.985956 0.020000 0.073296
1.000000 0.020000 0.073296
1.000000 0.020000 0.073296
0.039500 0.034918 0.073296
0.055817 0.034918 0.073296
0.090544 0.034918 0.073296
0.141052 0.034918 0.073296
0.204711 0.034918 0.073296
0.278890 0.034918 0.073296
0.360960 0.034918 0.073296
0.448290 0.034918 0.073296
0.538250 0.034918 0.073296
0.628210 0.034918 0.073296
0.715540 0.034918 0.073296
0.797610 0.034918 0.073296
0.871789 0.034918 0.073296
0.935448 0.034918 0.073296
0.985956 0.034918 0.073296
1.000000 0.034918 0.073296
1.000000 0.034918 0.073296
0.039500 0.066669 0.073296
0.055817 0.066669 0.073296
0.090544 0.066669 0.073296
0.141052 0.066669 0.073296
0.204711 0.066669 0.073296
0.278890 0.066669 0.073296
0.360960 0.066669 0.073296
0.448290 0.066669 0.073296
0.538250 0.066669 0.073296
0.628210 0.066669 0.073296
0.715540 0.066669 0.073296
0.797610 0.066669 0.073296
0.871789 0.066669 0.073296
0.935448 0.066669 0.073296
0.985956 0.066669 0.073296
1.000000 0.066669 0.073296
1.000000 0.066669 0.073296
0.039500 0.112848 0.073296
0.055817 0.112848 0.073296
0.090544 0.112848 0.073296
0.141052 0.112848 0.073296
0.204711 0.112848 0.073296
0.278890 0.112848 0.073296
0.360960 0.112848 0.073296
0.448290 0.112848 0.073296
0.538250 0.112848 0.073296
0.628210 0.112848 0.073296
0.715540 0.112848 0.073296
0.797610 0.112848 0.073296
0.871789 0.112848 0.073296
0.935448 0.112848 0.073296
0.985956 0.112848 0.073296
1.000000 0.112848 0.073296
1.000000 0.112848 0.073296
0.039500 0.171050 0.073296
0.055817 0.171050 0.073296
0.090544 0.171050 0.073296
0.141052 0.171050 0.073296
0.204711 0.171050 0.073296
0.278890 0.171050 0.073296
0.360960 0.171050 0.073296
0.448290 0.171050 0.073296
0.538250 0.171050 0.073296
0.628210 0.171050 0.073296
0.715540 0.171050 0.073296
0.797610 0.171050 0.073296
0.871789 0.171050 0.073296
0.935448 0.171050 0.073296
0.985956 0.171050 0.073296
1.000000 0.171050 0.073296
1.000000 0.171050 0.073296
0.039500 0.238871 0.073296
0.055817 0.238871 0.073296
0.090544 0.238871 0.073296
0.141052 0.238871 0.073296
0.204711 0.238871 0.073296
0.278890 0.238871 0.073296
0.360960 0.238871 0.073296
0.448290 0.238871 0.073296
0.538250 0.238871 0.073296
0.628210 0.238871 0.073296
0.715540 0.238871 0.073296
0.797610 0.238871 0.073296
0.871789 0.238871 0.073296
0.935448 0.238871 0.073296
0.985956 0.238871 0.073296
1.000000 0.238871 0.073296
1.000000 0.238871 0.073296
0.039500 0.313906 0.073296
0.055817 0.313906 0.073296
0.090544 0.313906 0.073296
0.141052 0.313906 0.073296
0.204711 0.313906 0.073296
0.278890 0.313906 0.073296
0.360960 0.313906 0.073296
0.448290 0.313906 0.073296
0.538250 0.313906 0.073296
0.628210 0.313906 0.073296
0.715540 0.313906 0.073296
0.797610 0.313906 0.073296
0.871789 0.313906 0.073296
0.935448 0.313906 0.073296
0.985956 0.313906 0.073296
1.000000 0.313906 0.073296
1.000000 0.313906 0.073296
0.039500 0.393751 0.073296
0.055817 0.393751 0.073296
0.090544 0.393751 0.073296
0.141052 0.393751 0.073296
0.204711 0.393751 0.073296
0.278890 0.393751 0.073296
0.360960 0.393751 0.073296
0.448290 0.393751 0.073296
0.538250 0.393751 0.073296
0.628210 0.393751 0.073296
0.715540 0.393751 0.073296
0.797610 0.393751 0.073296
0.871789 0.393751 0.073296
0.935448 0.393751 0.073296
0.985956 0.393751 0.073296
1.000000 0.393751 0.073296
1.000000 0.393751 0.073296
0.039500 0.476000 0.073296
0.055817 0.476000 0.073296
0.090544 0.476000 0.073296
0.141052 0.476000 0.073296
0.204711 0.476000 0.073296
0.278890 0.476000 0.073296
0.360960 0.476000 0.073296
0.448290 0.476000 0.073296
0.538250 0.476000 0.073296
0.628210 0.476000 0.073296
0.715540 0.476000 0.073296
0.797610 0.476000 0.073296
0.871789 0.476000 0.073296
0.935448 0.476000 0.073296
0.985956 0.476000 0.073296
1.000000 0.476000 0.073296
1.000000 0.476000 0.073296
0.039500 0.558249 0.073296
0.055817 0.558249 0.073296
0.090544 0.558249 0.073296
0.141052 0.558249 0.073296
0.204711 0.558249 0.073296
0.278890 0.558249 0.073296
0.360960 0.558249 0.073296
0.448290 0.558249 0.073296
0.538250 0.558249 0.073296
0.628210 0.558249 0.073296
0.715540 0.558249 0.073296
0.797610 0.558249 0.073296
0.871789 0.558249 0.073296
0.935448 0.558249 0.073296
0.985956 0.558249 0.073296
1.000000 0.558249 0.073296
1.000000 0.558249 0.073296
0.039500 0.638094 0.073296
0.055817 0.638094 0.073296
0.090544 0.638094 0.073296
0.141052 0.638094 0.073296
0.204711 0.638094 0.073296
0.278890 0.638094 0.073296
0.360960 0.638094 0.073296
0.448290 0.638094 0.073296
0.538250 0.638094 0.073296
0.628210 0.638094 0.073296
0.715540 0.638094 0.073296
0.797610 0.638094 0.073296
0.871789 0.638094 0.073296
0.935448 0.638094 0.073296
0.985956 0.638094 0.073296
1.000000 0.638094 0.073296
1.000000 0.638094 0.073296
0.039500 0.713129 0.073296
0.055817 0.713129 0.073296
0.090544 0.713129 0.073296
0.141052 0.713129 0.073296
0.204711 0.713129 0.073296
0.278890 0.713129 0.073296
0.360960 0.713129 0.073296
0.448290 0.713129 0.073296
0.538250 0.713129 0.073296
0.628210 0.713129 0.073296
0.715540 0.713129 0.073296
0.797610 0.713129 0.073296
0.871789 0.713129 0.073296
0.935448 0.713129 0.073296
0.985956 0.713129 0.073296
1.000000 0.713129 0.073296
1.000000 0.713129 0.073296
0.039500 0.780950 0.073296
0.055817 0.780950 0.073296
0.090544 0.780950 0.073296
0.141052 0.780950 0.073296
0.204711 0.780950 0.073296
0.278890 0.780950 0.073296
0.360960 0.780950 0.073296
0.448290 0.780950 0.073296
0.538250 0.780950 0.073296
0.628210 0.780950 0.073296
0.715540 0.780950 0.073296
0.797610 0.780950 0.073296
0.871789 0.780950 0.073296
0.935448 0.780950 0.073296
0.985956 0.780950 0.073296
1.000000 0.780950 0.073296
1.000000 0.780950 0.073296
0.039500 0.839152 0.073296
0.055817 0.839152 0.073296
0.090544 0.839152 0.073296
0.141052 0.839152 0.073296
0.204711 0.839152 0.073296
0.278890 0.839152 0.073296
0.360960 0.839152 0.073296
0.448290 0.839152 0.073296
0.538250 0.839152 0.073296
0.628210 0.839152 0.073296
0.715540 0.839152 0.073296
0.797610 0.839152 0.073296
0.871789 0.839152 0.073296
0.935448 0.839152 0.073296
0.985956 0.839152 0.073296
1.000000 0.839152 0.073296
1.000000 0.839152 0.073296
0.039500 0.885331 0.073296
0.055817 0.885331 0.073296
0.090544 0.885331 0.073296
0.141052 0.885331 0.073296
0.204711 0.885331 0.073296
0.278890 0.885331 0.073296
0.360960 0.885331 0.073296
0.448290 0.885331 0.073296
0.538250 0.885331 0.073296
0.628210 0.885331 0.073296
0.715540 0.885331 0.073296
0.797610 0.885331 0.073296
0.871789 0.885331 0.073296
0.935448 0.885331 0.073296
0.985956 0.885331 0.073296
1.000000 0.885331 0.073296
1.000000 0.885331 0.073296
0.039500 0.917082 0.073296
0.055817 0.917082 0.073296
0.090544 0.917082 0.073296
0.141052 0.917082 0.073296
0.204711 0.917082 0.073296
0.278890 0.917082 0.073296
0.360960 0.917082 0.073296
0.448290 0.917082 0.073296
0.538250 0.917082 0.073296
0.628210 0.917082 0.073296
0.715540 0.917082 0.073296
0.797610 0.917082 0.073296
0.871789 0.917082 0.073296
0.935448 0.917082 0.073296
0.985956 0.917082 0.073296
1.000000 0.917082 0.073296
1.000000 0.917082 0.073296
0.039500 0.932000 0.073296
0.055817 0.932000 0.073296
0.090544 0.932000 0.073296
0.141052 0.932000 0.073296
0.204711 0.932000 0.073296
0.278890 0.932000 0.073296
0.360960 0.932000 0.073296
0.448290 0.932000 0.073296
0.538250 0.932000 0.073296
0.628210 0.932000 0.073296
0.715540 0.932000 0.073296
0.797610 0.932000 0.073296
0.871789 0.932000 0.073296
0.935448 0.932000 0.073296
0.985956 0.932000 0.073296
1.000000 0.932000 0.073296
1.000000 0.932000 0.073296
0.039500 0.020000 0.103724
0.055817 0.020000 0.103724
0.090544 0.020000 0.103724
0.141052 0.020000 0.103724
0.204711 0.020000 0.103724
0.278890 0.020000 0.103724
0.360960 0.020000 0.103724
0.448290 0.020000 0.103724
0.538250 0.020000 0.103724
0.628210 0.020000 0.103724
0.715540 0.020000 0.103724
0.797610 0.020000 0.103724
0.871789 0.020000 0.103724
0.935448 0.020000 0.103724
0.985956 0.020000 0.103724
1.000000 0.020000 0.103724
1.000000 0.020000 0.103724
0.039500 0.034918 0.103724
0.055817 0.034918 0.103724
0.090544 0.034918 0.103724
0.141052 0.034918 0.103724
0.204711 0.034918 0.103724
0.278890 0.034918 0.103724
0.360960 0.034918 0.103724
0.448290 0.034918 0.103724
0.538250 0.034918 0.103724
0.628210 0.034918 0.103724
0.715540 0.034918 0.103724
0.797610 0.034918 0.103724
0.871789 0.034918 0.103724
0.935448 0.034918 0.103724
0.985956 0.034918 0.103724
1.000000 0.034918 0.103724
1.000000 0.034918 0.103724
0.039500 0.066669 0.103724
0.055817 0.066669 0.103724
0.090544 0.066669 0.103724
0.141052 0.066669 0.103724
0.204711 0.066669 0.103724
0.278890 0.066669 0.103724
0.360960 0.066669 0.103724
0.448290 0.066669 0.103724
0.538250 0.066669 0.103724
0.628210 0.066669 0.103724
0.715540 0.066669 0.103724
0.797610 0.066669 0.103724
0.871789 0.066669 0.103724
0.935448 0.066669 0.103724
0.985956 0.066669 0.103724
1.000000 0.066669 0.103724
1.000000 0.066669 0.103724
0.039500 0.112848 0.103724
0.055817 0.112848 0.103724
0.090544 0.112848 0.103724
0.141052 0.112848 0.103724
0.204711 0.112848 0.103724
0.278890 0.112848 0.103724
0.360960 0.112848 0.103724
0.448290 0.112848 0.103724
0.538250 0.112848 0.103724
0.628210 0.112848 0.103724
0.715540 0.112848 0.103724
0.797610 0.112848 0.103724
0.871789 0.112848 0.103724
0.935448 0.112848 0.103724
0.985956 0.112848 0.103724
1.000000 0.112848 0.103724
1.000000 0.112848 0.103724
0.039500 0.171050 0.103724
0.055817 0.171050 0.103724
0.090544 0.171050 0.103724
0.141052 0.171050 0.103724
0.204711 0.171050 0.103724
0.278890 0.171050 0.103724
0.360960 0.171050 0.103724
0.448290 0.171050 0.103724
0.538250 0.171050 0.103724
0.628210 0.171050 0.103724
0.715540 0.171050 0.103724
0.797610 0.171050 0.103724
0.871789 0.171050 0.103724
0.935448 0.171050 0.103724
0.985956 0.171050 0.103724
1.000000 0.171050 0.103724
1.000000 0.171050 0.103724
0.039500 0.238871 0.103724
0.055817 0.238871 0.103724
0.090544 0.238871 0.103724
0.141052 0.238871 0.103724
0.204711 0.238871 0.103724
0.278890 0.238871 0.103724
0.360960 0.238871 0.103724
0.448290 0.238871 0.103724
0.538250 0.238871 0.103724
0.628210 0.238871 0.103724
0.715540 0.238871 0.103724
0.797610 0.238871 0.103724
0.871789 0.238871 0.103724
0.935448 0.238871 0.103724
0.985956 0.238871 0.103724
1.000000 0.238871 0.103724
1.000000 0.238871 0.103724
0.039500 0.313906 0.103724
0.055817 0.313906 0.103724
0.090544 0.313906 0.103724
0.141052 0.313906 0.103724
0.204711 0.313906 0.103724
0.278890 0.313906 0.103724
0.360960 0.313906 0.103724
0.448290 0.313906 0.103724
0.538250 0.313906 0.103724
0.628210 0.313906 0.103724
0.715540 0.313906 0.103724
0.797610 0.313906 0.103724
0.871789 0.313906 0.103724
0.935448 0.313906 0.103724
0.985956 0.313906 0.103724
1.000000 0.313906 0.103724
1.000000 0.313906 0.103724
0.039500 0.393751 0.103724
0.055817 0.393751 0.103724
0.090544 0.393751 0.103724
0.141052 0.393751 0.103724
0.204711 0.393751 0.103724
0.278890 0.393751 0.103724
0.360960 0.393751 0.103724
0.448290 0.393751 0.103724
0.538250 0.393751 0.103724
0.628210 0.393751 0.103724
0.715540 0.393751 0.103724
0.797610 0.393751 0.103724
0.871789 0.393751 0.103724
0.935448 0.393751 0.103724
0.985956 0.393751 0.103724
1.000000 0.393751 0.103724
1.000000 0.393751 0.103724
0.039500 0.476000 0.103724
0.055817 0.476000 0.103724
0.090544 0.476000 0.103724
0.141052 0.476000 0.103724
0.204711 0.476000 0.103724
0.278890 0.476000 0.103724
0.360960 0.476000 0.103724
0.448290 0.476000 0.103724
0.538250 0.476000 0.103724
0.628210 0.476000 0.103724
0.715540 0.476000 0.103724
0.797610 0.476000 0.103724
0.871789 0.476000 0.103724
0.935448 0.476000 0.103724
0.985956 0.476000 0.103724
1.000000 0.476000 0.103724
1.000000 0.476000 0.103724
0.039500 0.558249 0.103724
0.055817 0.558249 0.103724
0.090544 0.558249 0.103724
0.141052 0.558249 0.103724
0.204711 0.558249 0.103724
0.278890 0.558249 0.103724
0.360960 0.558249 0.103724
0.448290 0.558249 0.103724
0.538250 0.558249 0.103724
0.628210 0.558249 0.103724
0.715540 0.558249 0.103724
0.797610 0.558249 0.103724
0.871789 0.558249 0.103724
0.935448 0.558249 0.103724
0.985956 0.558249 0.103724
1.000000 0.558249 0.103724
1.000000 0.558249 0.103724
0.039500 0.638094 0.103724
0.055817 0.638094 0.103724
0.090544 0.638094 0.103724
0.141052 0.638094 0.103724
0.204711 0.638094 0.103724
0.278890 0.638094 0.103724
0.360960 0.638094 0.103724
0.448290 0.638094 0.103724
0.538250 0.638094 0.103724
0.628210 0.638094 0.103724
0.715540 0.638094 0.103724
0.797610 0.638094 0.103724
0.871789 0.638094 0.103724
0.935448 0.638094 0.103724
0.985956 0.638094 0.103724
1.000000 0.638094 0.103724
1.000000 0.638094 0.103724
0.039500 0.713129 0.103724
0.055817 0.713129 0.103724
0.090544 0.713129 0.103724
0.141052 0.713129 0.103724
0.204711 0.713129 0.103724
0.278890 0.713129 0.103724
0.360960 0.713129 0.103724
0.448290 0.713129 0.103724
0.538250 0.713129 0.103724
0.628210 0.713129 0.103724
0.715540 0.713129 0.103724
0.797610 0.713129 0.103724
0.871789 0.713129 0.103724
0.935448 0.713129 0.103724
0.985956 0.713129 0.103724
1.000000 0.713129 0.103724
1.000000 0.713129 0.103724
0.039500 0.780950 0.103724
0.055817 0.780950 0.103724
0.090544 0.780950 0.103724
0.141052 0.780950 0.103724
0.204711 0.780950 0.103724
0.278890 0.780950 0.103724
0.360960 0.780950 0.103724
0.448290 0.780950 0.103724
0.538250 0.780950 0.103724
0.628210 0.780950 0.103724
0.715540 0.780950 0.103724
0.797610 0.780950 0.103724
0.871789 0.780950 0.103724
0.935448 0.780950 0.103724
0.985956 0.780950 0.103724
1.000000 0.780950 0.103724
1.000000 0.780950 0.103724
0.039500 0.839152 0.103724
0.055817 0.839152 0.103724
0.090544 0.839152 0.103724
0.141052 0.839152 0.103724
0.204711 0.839152 0.103724
0.278890 0.839152 0.103724
0.360960 0.839152 0.103724
0.448290 0.839152 0.103724
0.538250 0.839152 0.103724
0.628210 0.839152 0.103724
0.715540 0.839152 0.103724
0.797610 0.839152 0.103724
0.871789 0.839152 0.103724
0.935448 0.839152 0.103724
0.985956 0.839152 0.103724
1.000000 0.839152 0.103724
1.000000 0.839152 0.103724
0.039500 0.885331 0.103724
0.055817 0.885331 0.103724
0.090544 0.885331 0.103724
0.141052 0.885331 0.103724
0.204711 0.885331 0.103724
0.278890 0.885331 0.103724
0.360960 0.885331 0.103724
0.448290 0.885331 0.103724
0.538250 0.885331 0.103724
0.628210 0.885331 0.103724
0.715540 0.885331 0.103724
0.797610 0.885331 0.103724
0.871789 0.885331 0.103724
0.935448 0.885331 0.103724
0.985956 0.885331 0.103724
1.000000 0.885331 0.103724
1.000000 0.885331 0.103724
0.039500 0.917082 0.103724
0.055817 0.917082 0.103724
0.090544 0.917082 0.103724
0.141052 0.917082 0.103724
0.204711 0.917082 0.103724
0.278890 0.917082 0.103724
0.360960 0.917082 0.103724
0.448290 0.917082 0.103724
0.538250 0.917082 0.103724
0.628210 0.917082 0.103724
0.715540 0.917082 0.103724
0.797610 0.917082 0.103724
0.871789 0.917082 0.103724
0.935448 0.917082 0.103724
0.985956 0.917082 0.103724
1.000000 0.917082 0.103724
1.000000 0.917082 0.103724
0.039500 0.932000 0.103724
0.055817 0.932000 0.103724
0.090544 0.932000 0.103724
0.141052 0.932000 0.103724
0.204711 0.932000 0.103724
0.278890 0.932000 0.103724
0.360960 0.932000 0.103724
0.448290 0.932000 0.103724
0.538250 0.932000 0.103724
0.628210 0.932000 0.103724
0.715540 0.932000 0.103724
0.797610 0.932000 0.103724
0.871789 0.932000 0.103724
0.935448 0.932000 0.103724
0.985956 0.932000 0.103724
1.000000 0.932000 0.103724
1.000000 0.932000 0.103724
0.039500 0.020000 0.147979
0.055817 0.020000 0.147979
0.090544 0.020000 0.147979
0.141052 0.020000 0.147979
0.204711 0.020000 0.147979
0.278890 0.020000 0.147979
0.360960 0.020000 0.147979
0.448290 0.020000 0.147979
0.538250 0.020000 0.147979
0.628210 0.020000 0.147979
0.715540 0.020000 0.147979
0.797610 0.020000 0.147979
0.871789 0.020000 0.147979
0.935448 0.020000 0.147979
0.985956 0.020000 0.147979
1.000000 0.020000 0.147979
1.000000 0.020000 0.147979
0.039500 0.034918 0.147979
