app/luts/cinematic.cube
# Cinematic — S-curve teal/orange
LUT_3D_SIZE 9
DOMAIN_MIN 0.0 0.0 0.0
DOMAIN_MAX 1.0 1.0 1.0
0.039500 0.020000 0.059000
0.090544 0.020000 0.059000
0.204711 0.020000 0.059000
0.360960 0.020000 0.059000
0.538250 0.020000 0.059000
0.715540 0.020000 0.059000
0.871789 0.020000 0.059000
0.985956 0.020000 0.059000
1.000000 0.020000 0.059000
0.039500 0.066669 0.059000
0.090544 0.066669 0.059000
0.204711 0.066669 0.059000
0.360960 0.066669 0.059000
0.538250 0.066669 0.059000
0.715540 0.066669 0.059000
0.871789 0.066669 0.059000
0.985956 0.066669 0.059000
1.000000 0.066669 0.059000
0.039500 0.171050 0.059000
0.090544 0.171050 0.059000
0.204711 0.171050 0.059000
0.360960 0.171050 0.059000
0.538250 0.171050 0.059000
0.715540 0.171050 0.059000
0.871789 0.171050 0.059000
0.985956 0.171050 0.059000
1.000000 0.171050 0.059000
0.039500 0.313906 0.059000
0.090544 0.313906 0.059000
0.204711 0.313906 0.059000
0.360960 0.313906 0.059000
0.538250 0.313906 0.059000
0.715540 0.313906 0.059000
0.871789 0.313906 0.059000
0.985956 0.313906 0.059000
1.000000 0.313906 0.059000
0.039500 0.476000 0.059000
0.090544 0.476000 0.059000
0.204711 0.476000 0.059000
0.360960 0.476000 0.059000
0.538250 0.476000 0.059000
0.715540 0.476000 0.059000
0.871789 0.476000 0.059000
0.985956 0.476000 0.059000
1.000000 0.476000 0.059000
0.039500 0.638094 0.059000
0.090544 0.638094 0.059000
0.204711 0.638094 0.059000
0.360960 0.638094 0.059000
0.538250 0.638094 0.059000
0.715540 0.638094 0.059000
0.871789 0.638094 0.059000
0.985956 0.638094 0.059000
1.000000 0.638094 0.059000
0.039500 0.780950 0.059000
0.090544 0.780950 0.059000
0.204711 0.780950 0.059000
0.360960 0.780950 0.059000
0.538250 0.780950 0.059000
0.715540 0.780950 0.059000
0.871789 0.780950 0.059000
0.985956 0.780950 0.059000
1.000000 0.780950 0.059000
0.039500 0.885331 0.059000
0.090544 0.885331 0.059000
0.204711 0.885331 0.059000
0.360960 0.885331 0.059000
0.538250 0.885331 0.059000
0.715540 0.885331 0.059000
0.871789 0.885331 0.059000
0.985956 0.885331 0.059000
1.000000 0.885331 0.059000
0.039500 0.932000 0.059000
0.090544 0.932000 0.059000
0.204711 0.932000 0.059000
0.360960 0.932000 0.059000
0.538250 0.932000 0.059000
0.715540 0.932000 0.059000
0.871789 0.932000 0.059000
0.985956 0.932000 0.059000
1.000000 0.932000 0.059000
0.039500 0.020000 0.103724
0.090544 0.020000 0.103724
0.204711 0.020000 0.103724
0.360960 0.020000 0.103724
0.538250 0.020000 0.103724
0.715540 0.020000 0.103724
0.871789 0.020000 0.103724
0.985956 0.020000 0.103724
1.000000 0.020000 0.103724
0.039500 0.066669 0.103724
0.090544 0.066669 0.103724
0.204711 0.066669 0.103724
0.360960 0.066669 0.103724
0.538250 0.066669 0.103724
0.715540 0.066669 0.103724
0.871789 0.066669 0.103724
0.985956 0.066669 0.103724
1.000000 0.066669 0.103724
0.039500 0.171050 0.103724
0.090544 0.171050 0.103724
0.204711 0.171050 0.103724
0.360960 0.171050 0.103724
0.538250 0.171050 0.103724
0.715540 0.171050 0.103724
0.871789 0.171050 0.103724
0.985956 0.171050 0.103724
1.000000 0.171050 0.103724
0.039500 0.313906 0.103724
0.090544 0.313906 0.103724
0.204711 0.313906 0.103724
0.360960 0.313906 0.103724
0.538250 0.313906 0.103724
0.715540 0.313906 0.103724
0.871789 0.313906 0.103724
0.985956 0.313906 0.103724
1.000000 0.313906 0.103724
0.039500 0.476000 0.103724
0.090544 0.476000 0.103724
0.204711 0.476000 0.103724
0.360960 0.476000 0.103724
0.538250 0.476000 0.103724
0.715540 0.476000 0.103724
0.871789 0.476000 0.103724
0.985956 0.476000 0.103724
1.000000 0.476000 0.103724
0.039500 0.638094 0.103724
0.090544 0.638094 0.103724
0.204711 0.638094 0.103724
0.360960 0.638094 0.103724
0.538250 0.638094 0.103724
0.715540 0.638094 0.103724
0.871789 0.638094 0.103724
0.985956 0.638094 0.103724
1.000000 0.638094 0.103724
0.039500 0.780950 0.103724
0.090544 0.780950 0.103724
0.204711 0.780950 0.103724
0.360960 0.780950 0.103724
0.538250 0.780950 0.103724
0.715540 0.780950 0.103724
0.871789 0.780950 0.103724
0.985956 0.780950 0.103724
1.000000 0.780950 0.103724
0.039500 0.885331 0.103724
0.090544 0.885331 0.103724
0.204711 0.885331 0.103724
0.360960 0.885331 0.103724
0.538250 0.885331 0.103724
0.715540 0.885331 0.103724
0.871789 0.885331 0.103724
0.985956 0.885331 0.103724
1.000000 0.885331 0.103724
0.039500 0.932000 0.103724
0.090544 0.932000 0.103724
0.204711 0.932000 0.103724
0.360960 0.932000 0.103724
0.538250 0.932000 0.103724
0.715540 0.932000 0.103724
0.871789 0.932000 0.103724
0.985956 0.932000 0.103724
1.000000 0.932000 0.103724
0.039500 0.020000 0.203756
0.090544 0.020000 0.203756
0.204711 0.020000 0.203756
0.360960 0.020000 0.203756
0.538250 0.020000 0.203756
0.715540 0.020000 0.203756
0.871789 0.020000 0.203756
0.985956 0.020000 0.203756
1.000000 0.020000 0.203756
0.039500 0.066669 0.203756
0.090544 0.066669 0.203756
0.204711 0.066669 0.203756
0.360960 0.066669 0.203756
0.538250 0.066669 0.203756
0.715540 0.066669 0.203756
0.871789 0.066669 0.203756
0.985956 0.066669 0.203756
1.000000 0.066669 0.203756
0.039500 0.171050 0.203756
0.090544 0.171050 0.203756
0.204711 0.171050 0.203756
0.360960 0.171050 0.203756
0.538250 0.171050 0.203756
0.715540 0.171050 0.203756
0.871789 0.171050 0.203756
0.985956 0.171050 0.203756
1.000000 0.171050 0.203756
0.039500 0.313906 0.203756
0.090544 0.313906 0.203756
0.204711 0.313906 0.203756
0.360960 0.313906 0.203756
0.538250 0.313906 0.203756
0.715540 0.313906 0.203756
0.871789 0.313906 0.203756
0.985956 0.313906 0.203756
1.000000 0.313906 0.203756
0.039500 0.476000 0.203756
0.090544 0.476000 0.203756
0.204711 0.476000 0.203756
0.360960 0.476000 0.203756
0.538250 0.476000 0.203756
0.715540 0.476000 0.203756
0.871789 0.476000 0.203756
0.985956 0.476000 0.203756
1.000000 0.476000 0.203756
0.039500 0.638094 0.203756
0.090544 0.638094 0.203756
0.204711 0.638094 0.203756
0.360960 0.638094 0.203756
0.538250 0.638094 0.203756
0.715540 0.638094 0.203756
0.871789 0.638094 0.203756
0.985956 0.638094 0.203756
1.000000 0.638094 0.203756
0.039500 0.780950 0.203756
0.090544 0.780950 0.203756
0.204711 0.780950 0.203756
0.360960 0.780950 0.203756
0.538250 0.780950 0.203756
0.715540 0.780950 0.203756
0.871789 0.780950 0.203756
0.985956 0.780950 0.203756
1.000000 0.780950 0.203756
0.039500 0.885331 0.203756
0.090544 0.885331 0.203756
0.204711 0.885331 0.203756
0.360960 0.885331 0.203756
0.538250 0.885331 0.203756
0.715540 0.885331 0.203756
0.871789 0.885331 0.203756
0.985956 0.885331 0.203756
1.000000 0.885331 0.203756
0.039500 0.932000 0.203756
0.090544 0.932000 0.203756
0.204711 0.932000 0.203756
0.360960 0.932000 0.203756
0.538250 0.932000 0.203756
0.715540 0.932000 0.203756
0.871789 0.932000 0.203756
0.985956 0.932000 0.203756
1.000000 0.932000 0.203756
0.039500 0.020000 0.340660
0.090544 0.020000 0.340660
0.204711 0.020000 0.340660
0.360960 0.020000 0.340660
0.538250 0.020000 0.340660
0.715540 0.020000 0.340660
0.871789 0.020000 0.340660
0.985956 0.020000 0.340660
1.000000 0.020000 0.340660
0.039500 0.066669 0.340660
0.090544 0.066669 0.340660
0.204711 0.066669 0.340660
0.360960 0.066669 0.340660
0.538250 0.066669 0.340660
0.715540 0.066669 0.340660
0.871789 0.066669 0.340660
0.985956 0.066669 0.340660
1.000000 0.066669 0.340660
0.039500 0.171050 0.340660
0.090544 0.171050 0.340660
0.204711 0.171050 0.340660
0.360960 0.171050 0.340660
0.538250 0.171050 0.340660
0.715540 0.171050 0.340660
0.871789 0.171050 0.340660
0.985956 0.171050 0.340660
1.000000 0.171050 0.340660
0.039500 0.313906 0.340660
0.090544 0.313906 0.340660
0.204711 0.313906 0.340660
0.360960 0.313906 0.340660
0.538250 0.313906 0.340660
0.715540 0.313906 0.340660
0.871789 0.313906 0.340660
0.985956 0.313906 0.340660
1.000000 0.313906 0.340660
0.039500 0.476000 0.340660
0.090544 0.476000 0.340660
0.204711 0.476000 0.340660
0.360960 0.476000 0.340660
0.538250 0.476000 0.340660
0.715540 0.476000 0.340660
0.871789 0.476000 0.340660
0.985956 0.476000 0.340660
1.000000 0.476000 0.340660
0.039500 0.638094 0.340660
0.090544 0.638094 0.340660
0.204711 0.638094 0.340660
0.360960 0.638094 0.340660
0.538250 0.638094 0.340660
0.715540 0.638094 0.340660
0.871789 0.638094 0.340660
0.985956 0.638094 0.340660
1.000000 0.638094 0.340660
0.039500 0.780950 0.340660
0.090544 0.780950 0.340660
0.204711 0.780950 0.340660
0.360960 0.780950 0.340660
0.538250 0.780950 0.340660
0.715540 0.780950 0.340660
0.871789 0.780950 0.340660
0.985956 0.780950 0.340660
1.000000 0.780950 0.340660
0.039500 0.885331 0.340660
0.090544 0.885331 0.340660
0.204711 0.885331 0.340660
0.360960 0.885331 0.340660
0.538250 0.885331 0.340660
0.715540 0.885331 0.340660
0.871789 0.885331 0.340660
0.985956 0.885331 0.340660
1.000000 0.885331 0.340660
0.039500 0.932000 0.340660
0.090544 0.932000 0.340660
0.204711 0.932000 0.340660
0.360960 0.932000 0.340660
0.538250 0.932000 0.340660
0.715540 0.932000 0.340660
0.871789 0.932000 0.340660
0.985956 0.932000 0.340660
1.000000 0.932000 0.340660
0.039500 0.020000 0.496000
0.090544 0.020000 0.496000
0.204711 0.020000 0.496000
0.360960 0.020000 0.496000
0.538250 0.020000 0.496000
0.715540 0.020000 0.496000
0.871789 0.020000 0.496000
0.985956 0.020000 0.496000
1.000000 0.020000 0.496000
0.039500 0.066669 0.496000
0.090544 0.066669 0.496000
0.204711 0.066669 0.496000
0.360960 0.066669 0.496000
0.538250 0.066669 0.496000
0.715540 0.066669 0.496000
0.871789 0.066669 0.496000
0.985956 0.066669 0.496000
1.000000 0.066669 0.496000
0.039500 0.171050 0.496000
0.090544 0.171050 0.496000
0.204711 0.171050 0.496000
0.360960 0.171050 0.496000
0.538250 0.171050 0.496000
0.715540 0.171050 0.496000
0.871789 0.171050 0.496000
0.985956 0.171050 0.496000
1.000000 0.171050 0.496000
0.039500 0.313906 0.496000
0.090544 0.313906 0.496000
0.204711 0.313906 0.496000
0.360960 0.313906 0.496000
0.538250 0.313906 0.496000
0.715540 0.313906 0.496000
0.871789 0.313906 0.496000
0.985956 0.313906 0.496000
1.000000 0.313906 0.496000
0.039500 0.476000 0.496000
0.090544 0.476000 0.496000
0.204711 0.476000 0.496000
0.360960 0.476000 0.496000
0.538250 0.476000 0.496000
0.715540 0.476000 0.496000
0.871789 0.476000 0.496000
0.985956 0.476000 0.496000
1.000000 0.476000 0.496000
0.039500 0.638094 0.496000
0.090544 0.638094 0.496000
0.204711 0.638094 0.496000
0.360960 0.638094 0.496000
0.538250 0.638094 0.496000
0.715540 0.638094 0.496000
0.871789 0.638094 0.496000
0.985956 0.638094 0.496000
1.000000 0.638094 0.496000
0.039500 0.780950 0.496000
0.090544 0.780950 0.496000
0.204711 0.780950 0.496000
0.360960 0.780950 0.496000
0.538250 0.780950 0.496000
0.715540 0.780950 0.496000
0.871789 0.780950 0.496000
0.985956 0.780950 0.496000
1.000000 0.780950 0.496000
0.039500 0.885331 0.496000
0.090544 0.885331 0.496000
0.204711 0.885331 0.496000
0.360960 0.885331 0.496000
0.538250 0.885331 0.496000
0.715540 0.885331 0.496000
0.871789 0.885331 0.496000
0.985956 0.885331 0.496000
1.000000 0.885331 0.496000
0.039500 0.932000 0.496000
0.090544 0.932000 0.496000
0.204711 0.932000 0.496000
0.360960 0.932000 0.496000
0.538250 0.932000 0.496000
0.715540 0.932000 0.496000
0.871789 0.932000 0.496000
0.985956 0.932000 0.496000
1.000000 0.932000 0.496000
0.039500 0.020000 0.651340
0.090544 0.020000 0.651340
0.204711 0.020000 0.651340
0.360960 0.020000 0.651340
0.538250 0.020000 0.651340
0.715540 0.020000 0.651340
0.871789 0.020000 0.651340
0.985956 0.020000 0.651340
1.000000 0.020000 0.651340
0.039500 0.066669 0.651340
0.090544 0.066669 0.651340
0.204711 0.066669 0.651340
0.360960 0.066669 0.651340
0.538250 0.066669 0.651340
0.715540 0.066669 0.651340
0.871789 0.066669 0.651340
0.985956 0.066669 0.651340
1.000000 0.066669 0.651340
0.039500 0.171050 0.651340
0.090544 0.171050 0.651340
0.204711 0.171050 0.651340
0.360960 0.171050 0.651340
0.538250 0.171050 0.651340
0.715540 0.171050 0.651340
0.871789 0.171050 0.651340
0.985956 0.171050 0.651340
1.000000 0.171050 0.651340
0.039500 0.313906 0.651340
0.090544 0.313906 0.651340
0.204711 0.313906 0.651340
0.360960 0.313906 0.651340
0.538250 0.313906 0.651340
0.715540 0.313906 0.651340
0.871789 0.313906 0.651340
0.985956 0.313906 0.651340
1.000000 0.313906 0.651340
0.039500 0.476000 0.651340
0.090544 0.476000 0.651340
0.204711 0.476000 0.651340
0.360960 0.476000 0.651340
0.538250 0.476000 0.651340
0.715540 0.476000 0.651340
0.871789 0.476000 0.651340
0.985956 0.476000 0.651340
1.000000 0.476000 0.651340
0.039500 0.638094 0.651340
0.090544 0.638094 0.651340
0.204711 0.638094 0.651340
0.360960 0.638094 0.651340
0.538250 0.638094 0.651340
0.715540 0.638094 0.651340
0.871789 0.638094 0.651340
0.985956 0.638094 0.651340
1.000000 0.638094 0.651340
0.039500 0.780950 0.651340
0.090544 0.780950 0.651340
0.204711 0.780950 0.651340
0.360960 0.780950 0.651340
0.538250 0.780950 0.651340
0.715540 0.780950 0.651340
0.871789 0.780950 0.651340
0.985956 0.780950 0.651340
1.000000 0.780950 0.651340
0.039500 0.885331 0.651340
0.090544 0.885331 0.651340
0.204711 0.885331 0.651340
0.360960 0.885331 0.651340
0.538250 0.885331 0.651340
0.715540 0.885331 0.651340
0.871789 0.885331 0.651340
0.985956 0.885331 0.651340
1.000000 0.885331 0.651340
0.039500 0.932000 0.651340
0.090544 0.932000 0.651340
0.204711 0.932000 0.651340
0.360960 0.932000 0.651340
0.538250 0.932000 0.651340
0.715540 0.932000 0.651340
0.871789 0.932000 0.651340
0.985956 0.932000 0.651340
1.000000 0.932000 0.651340
0.039500 0.020000 0.788244
0.090544 0.020000 0.788244
0.204711 0.020000 0.788244
0.360960 0.020000 0.788244
0.538250 0.020000 0.788244
0.715540 0.020000 0.788244
0.871789 0.020000 0.788244
0.985956 0.020000 0.788244
1.000000 0.020000 0.788244
0.039500 0.066669 0.788244
0.090544 0.066669 0.788244
0.204711 0.066669 0.788244
0.360960 0.066669 0.788244
0.538250 0.066669 0.788244
0.715540 0.066669 0.788244
0.871789 0.066669 0.788244
0.985956 0.066669 0.788244
1.000000 0.066669 0.788244
0.039500 0.171050 0.788244
0.090544 0.171050 0.788244
0.204711 0.171050 0.788244
0.360960 0.171050 0.788244
0.538250 0.171050 0.788244
0.715540 0.171050 0.788244
0.871789 0.171050 0.788244
0.985956 0.171050 0.788244
1.000000 0.171050 0.788244
0.039500 0.313906 0.788244
0.090544 0.313906 0.788244
0.204711 0.313906 0.788244
0.360960 0.313906 0.788244
0.538250 0.313906 0.788244
0.715540 0.313906 0.788244
0.871789 0.313906 0.788244
0.985956 0.313906 0.788244
1.000000 0.313906 0.788244
0.039500 0.476000 0.788244
0.090544 0.476000 0.788244
0.204711 0.476000 0.788244
0.360960 0.476000 0.788244
0.538250 0.476000 0.788244
0.715540 0.476000 0.788244
0.871789 0.476000 0.788244
0.985956 0.476000 0.788244
1.000000 0.476000 0.788244
0.039500 0.638094 0.788244
0.090544 0.638094 0.788244
0.204711 0.638094 0.788244
0.360960 0.638094 0.788244
0.538250 0.638094 0.788244
0.715540 0.638094 0.788244
0.871789 0.638094 0.788244
0.985956 0.638094 0.788244
1.000000 0.638094 0.788244
0.039500 0.780950 0.788244
0.090544 0.780950 0.788244
0.204711 0.780950 0.788244
0.360960 0.780950 0.788244
0.538250 0.780950 0.788244
0.715540 0.780950 0.788244
0.871789 0.780950 0.788244
0.985956 0.780950 0.788244
1.000000 0.780950 0.788244
0.039500 0.885331 0.788244
0.090544 0.885331 0.788244
0.204711 0.885331 0.788244
0.360960 0.885331 0.788244
0.538250 0.885331 0.788244
0.715540 0.885331 0.788244
0.871789 0.885331 0.788244
0.985956 0.885331 0.788244
1.000000 0.885331 0.788244
0.039500 0.932000 0.788244
0.090544 0.932000 0.788244
0.204711 0.932000 0.788244
0.360960 0.932000 0.788244
0.538250 0.932000 0.788244
0.715540 0.932000 0.788244
0.871789 0.932000 0.788244
0.985956 0.932000 0.788244
1.000000 0.932000 0.788244
0.039500 0.020000 0.888276
0.090544 0.020000 0.888276
0.204711 0.020000 0.888276
0.360960 0.020000 0.888276
0.538250 0.020000 0.888276
0.715540 0.020000 0.888276
0.871789 0.020000 0.888276
0.985956 0.020000 0.888276
1.000000 0.020000 0.888276
0.039500 0.066669 0.888276
0.090544 0.066669 0.888276
0.204711 0.066669 0.888276
0.360960 0.066669 0.888276
0.538250 0.066669 0.888276
0.715540 0.066669 0.888276
0.871789 0.066669 0.888276
0.985956 0.066669 0.888276
1.000000 0.066669 0.888276
0.039500 0.171050 0.888276
0.090544 0.171050 0.888276
0.204711 0.171050 0.888276
0.360960 0.171050 0.888276
0.538250 0.171050 0.888276
0.715540 0.171050 0.888276
0.871789 0.171050 0.888276
0.985956 0.171050 0.888276
1.000000 0.171050 0.888276
0.039500 0.313906 0.888276
0.090544 0.313906 0.888276
0.204711 0.313906 0.888276
0.360960 0.313906 0.888276
0.538250 0.313906 0.888276
0.715540 0.313906 0.888276
0.871789 0.313906 0.888276
0.985956 0.313906 0.888276
1.000000 0.313906 0.888276
0.039500 0.476000 0.888276
0.090544 0.476000 0.888276
0.204711 0.476000 0.888276
0.360960 0.476000 0.888276
0.538250 0.476000 0.888276
0.715540 0.476000 0.888276
0.871789 0.476000 0.888276
0.985956 0.476000 0.888276
1.000000 0.476000 0.888276
0.039500 0.638094 0.888276
0.090544 0.638094 0.888276
0.204711 0.638094 0.888276
0.360960 0.638094 0.888276
0.538250 0.638094 0.888276
0.715540 0.638094 0.888276
0.871789 0.638094 0.888276
0.985956 0.638094 0.888276
1.000000 0.638094 0.888276
0.039500 0.780950 0.888276
0.090544 0.780950 0.888276
0.204711 0.780950 0.888276
0.360960 0.780950 0.888276
0.538250 0.780950 0.888276
0.715540 0.780950 0.888276
0.871789 0.780950 0.888276
0.985956 0.780950 0.888276
1.000000 0.780950 0.888276
0.039500 0.885331 0.888276
0.090544 0.885331 0.888276
0.204711 0.885331 0.888276
0.360960 0.885331 0.888276
0.538250 0.885331 0.888276
0.715540 0.885331 0.888276
0.871789 0.885331 0.888276
0.985956 0.885331 0.888276
1.000000 0.885331 0.888276
0.039500 0.932000 0.888276
0.090544 0.932000 0.888276
0.204711 0.932000 0.888276
0.360960 0.932000 0.888276
0.538250 0.932000 0.888276
0.715540 0.932000 0.888276
0.871789 0.932000 0.888276
0.985956 0.932000 0.888276
1.000000 0.932000 0.888276
0.039500 0.020000 0.933000
0.090544 0.020000 0.933000
0.204711 0.020000 0.933000
0.360960 0.020000 0.933000
0.538250 0.020000 0.933000
0.715540 0.020000 0.933000
0.871789 0.020000 0.933000
0.985956 0.020000 0.933000
1.000000 0.020000 0.933000
0.039500 0.066669 0.933000
0.090544 0.066669 0.933000
0.204711 0.066669 0.933000
0.360960 0.066669 0.933000
0.538250 0.066669 0.933000
0.715540 0.066669 0.933000
0.871789 0.066669 0.933000
0.985956 0.066669 0.933000
1.000000 0.066669 0.933000
0.039500 0.171050 0.933000
0.090544 0.171050 0.933000
0.204711 0.171050 0.933000
0.360960 0.171050 0.933000
0.538250 0.171050 0.933000
0.715540 0.171050 0.933000
0.871789 0.171050 0.933000
0.985956 0.171050 0.933000
1.000000 0.171050 0.933000
0.039500 0.313906 0.933000
0.090544 0.313906 0.933000
0.204711 0.313906 0.933000
0.360960 0.313906 0.933000
0.538250 0.313906 0.933000
0.715540 0.313906 0.933000
0.871789 0.313906 0.933000
0.985956 0.313906 0.933000
1.000000 0.313906 0.933000
0.039500 0.476000 0.933000
0.090544 0.476000 0.933000
0.204711 0.476000 0.933000
0.360960 0.476000 0.933000
0.538250 0.476000 0.933000
0.715540 0.476000 0.933000
0.871789 0.476000 0.933000
0.985956 0.476000 0.933000
1.000000 0.476000 0.933000
0.039500 0.638094 0.933000
0.090544 0.638094 0.933000
0.204711 0.638094 0.933000
0.360960 0.638094 0.933000
0.538250 0.638094 0.933000
0.715540 0.638094 0.933000
0.871789 0.638094 0.933000
0.985956 0.638094 0.933000
1.000000 0.638094 0.933000
0.039500 0.780950 0.933000
0.090544 0.780950 0.933000
0.204711 0.780950 0.933000
0.360960 0.780950 0.933000
0.538250 0.780950 0.933000
0.715540 0.780950 0.933000
0.871789 0.780950 0.933000
0.985956 0.780950 0.933000
1.000000 0.780950 0.933000
0.039500 0.885331 0.933000
0.090544 0.885331 0.933000
0.204711 0.885331 0.933000
0.360960 0.885331 0.933000
0.538250 0.885331 0.933000
0.715540 0.885331 0.933000
0.871789 0.885331 0.933000
0.985956 0.885331 0.933000
1.000000 0.885331 0.933000
0.039500 0.932000 0.933000
0.090544 0.932000 0.933000
0.204711 0.932000 0.933000
0.360960 0.932000 0.933000
0.538250 0.932000 0.933000
0.715540 0.932000 0.933000
0.871789 0.932000 0.933000
0.985956 0.932000 0.933000
1.000000 0.932000 0.933000
