app/luts/cool.cube
# Cool — blue hour tone
LUT_3D_SIZE 9
DOMAIN_MIN 0.0 0.0 0.0
DOMAIN_MAX 1.0 1.0 1.0
0.000000 0.000000 0.030000
0.102500 0.000000 0.030000
0.215000 0.000000 0.030000
0.327500 0.000000 0.030000
0.440000 0.000000 0.030000
0.552500 0.000000 0.030000
0.665000 0.000000 0.030000
0.777500 0.000000 0.030000
0.890000 0.000000 0.030000
0.000000 0.121250 0.030000
0.102500 0.121250 0.030000
0.215000 0.121250 0.030000
0.327500 0.121250 0.030000
0.440000 0.121250 0.030000
0.552500 0.121250 0.030000
0.665000 0.121250 0.030000
0.777500 0.121250 0.030000
0.890000 0.121250 0.030000
0.000000 0.242500 0.030000
0.102500 0.242500 0.030000
0.215000 0.242500 0.030000
0.327500 0.242500 0.030000
0.440000 0.242500 0.030000
0.552500 0.242500 0.030000
0.665000 0.242500 0.030000
0.777500 0.242500 0.030000
0.890000 0.242500 0.030000
0.000000 0.363750 0.030000
0.102500 0.363750 0.030000
0.215000 0.363750 0.030000
0.327500 0.363750 0.030000
0.440000 0.363750 0.030000
0.552500 0.363750 0.030000
0.665000 0.363750 0.030000
0.777500 0.363750 0.030000
0.890000 0.363750 0.030000
0.000000 0.485000 0.030000
0.102500 0.485000 0.030000
0.215000 0.485000 0.030000
0.327500 0.485000 0.030000
0.440000 0.485000 0.030000
0.552500 0.485000 0.030000
0.665000 0.485000 0.030000
0.777500 0.485000 0.030000
0.890000 0.485000 0.030000
0.000000 0.606250 0.030000
0.102500 0.606250 0.030000
0.215000 0.606250 0.030000
0.327500 0.606250 0.030000
0.440000 0.606250 0.030000
0.552500 0.606250 0.030000
0.665000 0.606250 0.030000
0.777500 0.606250 0.030000
0.890000 0.606250 0.030000
0.000000 0.727500 0.030000
0.102500 0.727500 0.030000
0.215000 0.727500 0.030000
0.327500 0.727500 0.030000
0.440000 0.727500 0.030000
0.552500 0.727500 0.030000
0.665000 0.727500 0.030000
0.777500 0.727500 0.030000
0.890000 0.727500 0.030000
0.000000 0.848750 0.030000
0.102500 0.848750 0.030000
0.215000 0.848750 0.030000
0.327500 0.848750 0.030000
0.440000 0.848750 0.030000
0.552500 0.848750 0.030000
0.665000 0.848750 0.030000
0.777500 0.848750 0.030000
0.890000 0.848750 0.030000
0.000000 0.970000 0.030000
0.102500 0.970000 0.030000
0.215000 0.970000 0.030000
0.327500 0.970000 0.030000
0.440000 0.970000 0.030000
0.552500 0.970000 0.030000
0.665000 0.970000 0.030000
0.777500 0.970000 0.030000
0.890000 0.970000 0.030000
0.000000 0.000000 0.167500
0.102500 0.000000 0.167500
0.215000 0.000000 0.167500
0.327500 0.000000 0.167500
0.440000 0.000000 0.167500
0.552500 0.000000 0.167500
0.665000 0.000000 0.167500
0.777500 0.000000 0.167500
0.890000 0.000000 0.167500
0.000000 0.121250 0.167500
0.102500 0.121250 0.167500
0.215000 0.121250 0.167500
0.327500 0.121250 0.167500
0.440000 0.121250 0.167500
0.552500 0.121250 0.167500
0.665000 0.121250 0.167500
0.777500 0.121250 0.167500
0.890000 0.121250 0.167500
0.000000 0.242500 0.167500
0.102500 0.242500 0.167500
0.215000 0.242500 0.167500
0.327500 0.242500 0.167500
0.440000 0.242500 0.167500
0.552500 0.242500 0.167500
0.665000 0.242500 0.167500
0.777500 0.242500 0.167500
0.890000 0.242500 0.167500
0.000000 0.363750 0.167500
0.102500 0.363750 0.167500
0.215000 0.363750 0.167500
0.327500 0.363750 0.167500
0.440000 0.363750 0.167500
0.552500 0.363750 0.167500
0.665000 0.363750 0.167500
0.777500 0.363750 0.167500
0.890000 0.363750 0.167500
0.000000 0.485000 0.167500
0.102500 0.485000 0.167500
0.215000 0.485000 0.167500
0.327500 0.485000 0.167500
0.440000 0.485000 0.167500
0.552500 0.485000 0.167500
0.665000 0.485000 0.167500
0.777500 0.485000 0.167500
0.890000 0.485000 0.167500
0.000000 0.606250 0.167500
0.102500 0.606250 0.167500
0.215000 0.606250 0.167500
0.327500 0.606250 0.167500
0.440000 0.606250 0.167500
0.552500 0.606250 0.167500
0.665000 0.606250 0.167500
0.777500 0.606250 0.167500
0.890000 0.606250 0.167500
0.000000 0.727500 0.167500
0.102500 0.727500 0.167500
0.215000 0.727500 0.167500
0.327500 0.727500 0.167500
0.440000 0.727500 0.167500
0.552500 0.727500 0.167500
0.665000 0.727500 0.167500
0.777500 0.727500 0.167500
0.890000 0.727500 0.167500
0.000000 0.848750 0.167500
0.102500 0.848750 0.167500
0.215000 0.848750 0.167500
0.327500 0.848750 0.167500
0.440000 0.848750 0.167500
0.552500 0.848750 0.167500
0.665000 0.848750 0.167500
0.777500 0.848750 0.167500
0.890000 0.848750 0.167500
0.000000 0.970000 0.167500
0.102500 0.970000 0.167500
0.215000 0.970000 0.167500
0.327500 0.970000 0.167500
0.440000 0.970000 0.167500
0.552500 0.970000 0.167500
0.665000 0.970000 0.167500
0.777500 0.970000 0.167500
0.890000 0.970000 0.167500
0.000000 0.000000 0.305000
0.102500 0.000000 0.305000
0.215000 0.000000 0.305000
0.327500 0.000000 0.305000
0.440000 0.000000 0.305000
0.552500 0.000000 0.305000
0.665000 0.000000 0.305000
0.777500 0.000000 0.305000
0.890000 0.000000 0.305000
0.000000 0.121250 0.305000
0.102500 0.121250 0.305000
0.215000 0.121250 0.305000
0.327500 0.121250 0.305000
0.440000 0.121250 0.305000
0.552500 0.121250 0.305000
0.665000 0.121250 0.305000
0.777500 0.121250 0.305000
0.890000 0.121250 0.305000
0.000000 0.242500 0.305000
0.102500 0.242500 0.305000
0.215000 0.242500 0.305000
0.327500 0.242500 0.305000
0.440000 0.242500 0.305000
0.552500 0.242500 0.305000
0.665000 0.242500 0.305000
0.777500 0.242500 0.305000
0.890000 0.242500 0.305000
0.000000 0.363750 0.305000
0.102500 0.363750 0.305000
0.215000 0.363750 0.305000
0.327500 0.363750 0.305000
0.440000 0.363750 0.305000
0.552500 0.363750 0.305000
0.665000 0.363750 0.305000
0.777500 0.363750 0.305000
0.890000 0.363750 0.305000
0.000000 0.485000 0.305000
0.102500 0.485000 0.305000
0.215000 0.485000 0.305000
0.327500 0.485000 0.305000
0.440000 0.485000 0.305000
0.552500 0.485000 0.305000
0.665000 0.485000 0.305000
0.777500 0.485000 0.305000
0.890000 0.485000 0.305000
0.000000 0.606250 0.305000
0.102500 0.606250 0.305000
0.215000 0.606250 0.305000
0.327500 0.606250 0.305000
0.440000 0.606250 0.305000
0.552500 0.606250 0.305000
0.665000 0.606250 0.305000
0.777500 0.606250 0.305000
0.890000 0.606250 0.305000
0.000000 0.727500 0.305000
0.102500 0.727500 0.305000
0.215000 0.727500 0.305000
0.327500 0.727500 0.305000
0.440000 0.727500 0.305000
0.552500 0.727500 0.305000
0.665000 0.727500 0.305000
0.777500 0.727500 0.305000
0.890000 0.727500 0.305000
0.000000 0.848750 0.305000
0.102500 0.848750 0.305000
0.215000 0.848750 0.305000
0.327500 0.848750 0.305000
0.440000 0.848750 0.305000
0.552500 0.848750 0.305000
0.665000 0.848750 0.305000
0.777500 0.848750 0.305000
0.890000 0.848750 0.305000
0.000000 0.970000 0.305000
0.102500 0.970000 0.305000
0.215000 0.970000 0.305000
0.327500 0.970000 0.305000
0.440000 0.970000 0.305000
0.552500 0.970000 0.305000
0.665000 0.970000 0.305000
0.777500 0.970000 0.305000
0.890000 0.970000 0.305000
0.000000 0.000000 0.442500
0.102500 0.000000 0.442500
0.215000 0.000000 0.442500
0.327500 0.000000 0.442500
0.440000 0.000000 0.442500
0.552500 0.000000 0.442500
0.665000 0.000000 0.442500
0.777500 0.000000 0.442500
0.890000 0.000000 0.442500
0.000000 0.121250 0.442500
0.102500 0.121250 0.442500
0.215000 0.121250 0.442500
0.327500 0.121250 0.442500
0.440000 0.121250 0.442500
0.552500 0.121250 0.442500
0.665000 0.121250 0.442500
0.777500 0.121250 0.442500
0.890000 0.121250 0.442500
0.000000 0.242500 0.442500
0.102500 0.242500 0.442500
0.215000 0.242500 0.442500
0.327500 0.242500 0.442500
0.440000 0.242500 0.442500
0.552500 0.242500 0.442500
0.665000 0.242500 0.442500
0.777500 0.242500 0.442500
0.890000 0.242500 0.442500
0.000000 0.363750 0.442500
0.102500 0.363750 0.442500
0.215000 0.363750 0.442500
0.327500 0.363750 0.442500
0.440000 0.363750 0.442500
0.552500 0.363750 0.442500
0.665000 0.363750 0.442500
0.777500 0.363750 0.442500
0.890000 0.363750 0.442500
0.000000 0.485000 0.442500
0.102500 0.485000 0.442500
0.215000 0.485000 0.442500
0.327500 0.485000 0.442500
0.440000 0.485000 0.442500
0.552500 0.485000 0.442500
0.665000 0.485000 0.442500
0.777500 0.485000 0.442500
0.890000 0.485000 0.442500
0.000000 0.606250 0.442500
0.102500 0.606250 0.442500
0.215000 0.606250 0.442500
0.327500 0.606250 0.442500
0.440000 0.606250 0.442500
0.552500 0.606250 0.442500
0.665000 0.606250 0.442500
0.777500 0.606250 0.442500
0.890000 0.606250 0.442500
0.000000 0.727500 0.442500
0.102500 0.727500 0.442500
0.215000 0.727500 0.442500
0.327500 0.727500 0.442500
0.440000 0.727500 0.442500
0.552500 0.727500 0.442500
0.665000 0.727500 0.442500
0.777500 0.727500 0.442500
0.890000 0.727500 0.442500
0.000000 0.848750 0.442500
0.102500 0.848750 0.442500
0.215000 0.848750 0.442500
0.327500 0.848750 0.442500
0.440000 0.848750 0.442500
0.552500 0.848750 0.442500
0.665000 0.848750 0.442500
0.777500 0.848750 0.442500
0.890000 0.848750 0.442500
0.000000 0.970000 0.442500
0.102500 0.970000 0.442500
0.215000 0.970000 0.442500
0.327500 0.970000 0.442500
0.440000 0.970000 0.442500
0.552500 0.970000 0.442500
0.665000 0.970000 0.442500
0.777500 0.970000 0.442500
0.890000 0.970000 0.442500
0.000000 0.000000 0.580000
0.102500 0.000000 0.580000
0.215000 0.000000 0.580000
0.327500 0.000000 0.580000
0.440000 0.000000 0.580000
0.552500 0.000000 0.580000
0.665000 0.000000 0.580000
0.777500 0.000000 0.580000
0.890000 0.000000 0.580000
0.000000 0.121250 0.580000
0.102500 0.121250 0.580000
0.215000 0.121250 0.580000
0.327500 0.121250 0.580000
0.440000 0.121250 0.580000
0.552500 0.121250 0.580000
0.665000 0.121250 0.580000
0.777500 0.121250 0.580000
0.890000 0.121250 0.580000
0.000000 0.242500 0.580000
0.102500 0.242500 0.580000
0.215000 0.242500 0.580000
0.327500 0.242500 0.580000
0.440000 0.242500 0.580000
0.552500 0.242500 0.580000
0.665000 0.242500 0.580000
0.777500 0.242500 0.580000
0.890000 0.242500 0.580000
0.000000 0.363750 0.580000
0.102500 0.363750 0.580000
0.215000 0.363750 0.580000
0.327500 0.363750 0.580000
0.440000 0.363750 0.580000
0.552500 0.363750 0.580000
0.665000 0.363750 0.580000
0.777500 0.363750 0.580000
0.890000 0.363750 0.580000
0.000000 0.485000 0.580000
0.102500 0.485000 0.580000
0.215000 0.485000 0.580000
0.327500 0.485000 0.580000
0.440000 0.485000 0.580000
0.552500 0.485000 0.580000
0.665000 0.485000 0.580000
0.777500 0.485000 0.580000
0.890000 0.485000 0.580000
0.000000 0.606250 0.580000
0.102500 0.606250 0.580000
0.215000 0.606250 0.580000
0.327500 0.606250 0.580000
0.440000 0.606250 0.580000
0.552500 0.606250 0.580000
0.665000 0.606250 0.580000
0.777500 0.606250 0.580000
0.890000 0.606250 0.580000
0.000000 0.727500 0.580000
0.102500 0.727500 0.580000
0.215000 0.727500 0.580000
0.327500 0.727500 0.580000
0.440000 0.727500 0.580000
0.552500 0.727500 0.580000
0.665000 0.727500 0.580000
0.777500 0.727500 0.580000
0.890000 0.727500 0.580000
0.000000 0.848750 0.580000
0.102500 0.848750 0.580000
0.215000 0.848750 0.580000
0.327500 0.848750 0.580000
0.440000 0.848750 0.580000
0.552500 0.848750 0.580000
0.665000 0.848750 0.580000
0.777500 0.848750 0.580000
0.890000 0.848750 0.580000
0.000000 0.970000 0.580000
0.102500 0.970000 0.580000
0.215000 0.970000 0.580000
0.327500 0.970000 0.580000
0.440000 0.970000 0.580000
0.552500 0.970000 0.580000
0.665000 0.970000 0.580000
0.777500 0.970000 0.580000
0.890000 0.970000 0.580000
0.000000 0.000000 0.717500
0.102500 0.000000 0.717500
0.215000 0.000000 0.717500
0.327500 0.000000 0.717500
0.440000 0.000000 0.717500
0.552500 0.000000 0.717500
0.665000 0.000000 0.717500
0.777500 0.000000 0.717500
0.890000 0.000000 0.717500
0.000000 0.121250 0.717500
0.102500 0.121250 0.717500
0.215000 0.121250 0.717500
0.327500 0.121250 0.717500
0.440000 0.121250 0.717500
0.552500 0.121250 0.717500
0.665000 0.121250 0.717500
0.777500 0.121250 0.717500
0.890000 0.121250 0.717500
0.000000 0.242500 0.717500
0.102500 0.242500 0.717500
0.215000 0.242500 0.717500
0.327500 0.242500 0.717500
0.440000 0.242500 0.717500
0.552500 0.242500 0.717500
0.665000 0.242500 0.717500
0.777500 0.242500 0.717500
0.890000 0.242500 0.717500
0.000000 0.363750 0.717500
0.102500 0.363750 0.717500
0.215000 0.363750 0.717500
0.327500 0.363750 0.717500
0.440000 0.363750 0.717500
0.552500 0.363750 0.717500
0.665000 0.363750 0.717500
0.777500 0.363750 0.717500
0.890000 0.363750 0.717500
0.000000 0.485000 0.717500
0.102500 0.485000 0.717500
0.215000 0.485000 0.717500
0.327500 0.485000 0.717500
0.440000 0.485000 0.717500
0.552500 0.485000 0.717500
0.665000 0.485000 0.717500
0.777500 0.485000 0.717500
0.890000 0.485000 0.717500
0.000000 0.606250 0.717500
0.102500 0.606250 0.717500
0.215000 0.606250 0.717500
0.327500 0.606250 0.717500
0.440000 0.606250 0.717500
0.552500 0.606250 0.717500
0.665000 0.606250 0.717500
0.777500 0.606250 0.717500
0.890000 0.606250 0.717500
0.000000 0.727500 0.717500
0.102500 0.727500 0.717500
0.215000 0.727500 0.717500
0.327500 0.727500 0.717500
0.440000 0.727500 0.717500
0.552500 0.727500 0.717500
0.665000 0.727500 0.717500
0.777500 0.727500 0.717500
0.890000 0.727500 0.717500
0.000000 0.848750 0.717500
0.102500 0.848750 0.717500
0.215000 0.848750 0.717500
0.327500 0.848750 0.717500
0.440000 0.848750 0.717500
0.552500 0.848750 0.717500
0.665000 0.848750 0.717500
0.777500 0.848750 0.717500
0.890000 0.848750 0.717500
0.000000 0.970000 0.717500
0.102500 0.970000 0.717500
0.215000 0.970000 0.717500
0.327500 0.970000 0.717500
0.440000 0.970000 0.717500
0.552500 0.970000 0.717500
0.665000 0.970000 0.717500
0.777500 0.970000 0.717500
0.890000 0.970000 0.717500
0.000000 0.000000 0.855000
0.102500 0.000000 0.855000
0.215000 0.000000 0.855000
0.327500 0.000000 0.855000
0.440000 0.000000 0.855000
0.552500 0.000000 0.855000
0.665000 0.000000 0.855000
0.777500 0.000000 0.855000
0.890000 0.000000 0.855000
0.000000 0.121250 0.855000
0.102500 0.121250 0.855000
0.215000 0.121250 0.855000
0.327500 0.121250 0.855000
0.440000 0.121250 0.855000
0.552500 0.121250 0.855000
0.665000 0.121250 0.855000
0.777500 0.121250 0.855000
0.890000 0.121250 0.855000
0.000000 0.242500 0.855000
0.102500 0.242500 0.855000
0.215000 0.242500 0.855000
0.327500 0.242500 0.855000
0.440000 0.242500 0.855000
0.552500 0.242500 0.855000
0.665000 0.242500 0.855000
0.777500 0.242500 0.855000
0.890000 0.242500 0.855000
0.000000 0.363750 0.855000
0.102500 0.363750 0.855000
0.215000 0.363750 0.855000
0.327500 0.363750 0.855000
0.440000 0.363750 0.855000
0.552500 0.363750 0.855000
0.665000 0.363750 0.855000
0.777500 0.363750 0.855000
0.890000 0.363750 0.855000
0.000000 0.485000 0.855000
0.102500 0.485000 0.855000
0.215000 0.485000 0.855000
0.327500 0.485000 0.855000
0.440000 0.485000 0.855000
0.552500 0.485000 0.855000
0.665000 0.485000 0.855000
0.777500 0.485000 0.855000
0.890000 0.485000 0.855000
0.000000 0.606250 0.855000
0.102500 0.606250 0.855000
0.215000 0.606250 0.855000
0.327500 0.606250 0.855000
0.440000 0.606250 0.855000
0.552500 0.606250 0.855000
0.665000 0.606250 0.855000
0.777500 0.606250 0.855000
0.890000 0.606250 0.855000
0.000000 0.727500 0.855000
0.102500 0.727500 0.855000
0.215000 0.727500 0.855000
0.327500 0.727500 0.855000
0.440000 0.727500 0.855000
0.552500 0.727500 0.855000
0.665000 0.727500 0.855000
0.777500 0.727500 0.855000
0.890000 0.727500 0.855000
0.000000 0.848750 0.855000
0.102500 0.848750 0.855000
0.215000 0.848750 0.855000
0.327500 0.848750 0.855000
0.440000 0.848750 0.855000
0.552500 0.848750 0.855000
0.665000 0.848750 0.855000
0.777500 0.848750 0.855000
0.890000 0.848750 0.855000
0.000000 0.970000 0.855000
0.102500 0.970000 0.855000
0.215000 0.970000 0.855000
0.327500 0.970000 0.855000
0.440000 0.970000 0.855000
0.552500 0.970000 0.855000
0.665000 0.970000 0.855000
0.777500 0.970000 0.855000
0.890000 0.970000 0.855000
0.000000 0.000000 0.992500
0.102500 0.000000 0.992500
0.215000 0.000000 0.992500
0.327500 0.000000 0.992500
0.440000 0.000000 0.992500
0.552500 0.000000 0.992500
0.665000 0.000000 0.992500
0.777500 0.000000 0.992500
0.890000 0.000000 0.992500
0.000000 0.121250 0.992500
0.102500 0.121250 0.992500
0.215000 0.121250 0.992500
0.327500 0.121250 0.992500
0.440000 0.121250 0.992500
0.552500 0.121250 0.992500
0.665000 0.121250 0.992500
0.777500 0.121250 0.992500
0.890000 0.121250 0.992500
0.000000 0.242500 0.992500
0.102500 0.242500 0.992500
0.215000 0.242500 0.992500
0.327500 0.242500 0.992500
0.440000 0.242500 0.992500
0.552500 0.242500 0.992500
0.665000 0.242500 0.992500
0.777500 0.242500 0.992500
0.890000 0.242500 0.992500
0.000000 0.363750 0.992500
0.102500 0.363750 0.992500
0.215000 0.363750 0.992500
0.327500 0.363750 0.992500
0.440000 0.363750 0.992500
0.552500 0.363750 0.992500
0.665000 0.363750 0.992500
0.777500 0.363750 0.992500
0.890000 0.363750 0.992500
0.000000 0.485000 0.992500
0.102500 0.485000 0.992500
0.215000 0.485000 0.992500
0.327500 0.485000 0.992500
0.440000 0.485000 0.992500
0.552500 0.485000 0.992500
0.665000 0.485000 0.992500
0.777500 0.485000 0.992500
0.890000 0.485000 0.992500
0.000000 0.606250 0.992500
0.102500 0.606250 0.992500
0.215000 0.606250 0.992500
0.327500 0.606250 0.992500
0.440000 0.606250 0.992500
0.552500 0.606250 0.992500
0.665000 0.606250 0.992500
0.777500 0.606250 0.992500
0.890000 0.606250 0.992500
0.000000 0.727500 0.992500
0.102500 0.727500 0.992500
0.215000 0.727500 0.992500
0.327500 0.727500 0.992500
0.440000 0.727500 0.992500
0.552500 0.727500 0.992500
0.665000 0.727500 0.992500
0.777500 0.727500 0.992500
0.890000 0.727500 0.992500
0.000000 0.848750 0.992500
0.102500 0.848750 0.992500
0.215000 0.848750 0.992500
0.327500 0.848750 0.992500
0.440000 0.848750 0.992500
0.552500 0.848750 0.992500
0.665000 0.848750 0.992500
0.777500 0.848750 0.992500
0.890000 0.848750 0.992500
0.000000 0.970000 0.992500
0.102500 0.970000 0.992500
0.215000 0.970000 0.992500
0.327500 0.970000 0.992500
0.440000 0.970000 0.992500
0.552500 0.970000 0.992500
0.665000 0.970000 0.992500
0.777500 0.970000 0.992500
0.890000 0.970000 0.992500
0.000000 0.000000 1.000000
0.102500 0.000000 1.000000
0.215000 0.000000 1.000000
0.327500 0.000000 1.000000
0.440000 0.000000 1.000000
0.552500 0.000000 1.000000
0.665000 0.000000 1.000000
0.777500 0.000000 1.000000
0.890000 0.000000 1.000000
0.000000 0.121250 1.000000
0.102500 0.121250 1.000000
0.215000 0.121250 1.000000
0.327500 0.121250 1.000000
0.440000 0.121250 1.000000
0.552500 0.121250 1.000000
0.665000 0.121250 1.000000
0.777500 0.121250 1.000000
0.890000 0.121250 1.000000
0.000000 0.242500 1.000000
0.102500 0.242500 1.000000
0.215000 0.242500 1.000000
0.327500 0.242500 1.000000
0.440000 0.242500 1.000000
0.552500 0.242500 1.000000
0.665000 0.242500 1.000000
0.777500 0.242500 1.000000
0.890000 0.242500 1.000000
0.000000 0.363750 1.000000
0.102500 0.363750 1.000000
0.215000 0.363750 1.000000
0.327500 0.363750 1.000000
0.440000 0.363750 1.000000
0.552500 0.363750 1.000000
0.665000 0.363750 1.000000
0.777500 0.363750 1.000000
0.890000 0.363750 1.000000
0.000000 0.485000 1.000000
0.102500 0.485000 1.000000
0.215000 0.485000 1.000000
0.327500 0.485000 1.000000
0.440000 0.485000 1.000000
0.552500 0.485000 1.000000
0.665000 0.485000 1.000000
0.777500 0.485000 1.000000
0.890000 0.485000 1.000000
0.000000 0.606250 1.000000
0.102500 0.606250 1.000000
0.215000 0.606250 1.000000
0.327500 0.606250 1.000000
0.440000 0.606250 1.000000
0.552500 0.606250 1.000000
0.665000 0.606250 1.000000
0.777500 0.606250 1.000000
0.890000 0.606250 1.000000
0.000000 0.727500 1.000000
0.102500 0.727500 1.000000
0.215000 0.727500 1.000000
0.327500 0.727500 1.000000
0.440000 0.727500 1.000000
0.552500 0.727500 1.000000
0.665000 0.727500 1.000000
0.777500 0.727500 1.000000
0.890000 0.727500 1.000000
0.000000 0.848750 1.000000
0.102500 0.848750 1.000000
0.215000 0.848750 1.000000
0.327500 0.848750 1.000000
0.440000 0.848750 1.000000
0.552500 0.848750 1.000000
0.665000 0.848750 1.000000
0.777500 0.848750 1.000000
0.890000 0.848750 1.000000
0.000000 0.970000 1.000000
0.102500 0.970000 1.000000
0.215000 0.970000 1.000000
0.327500 0.970000 1.000000
0.440000 0.970000 1.000000
0.552500 0.970000 1.000000
0.665000 0.970000 1.000000
0.777500 0.970000 1.000000
0.890000 0.970000 1.000000
