app/luts/cool.cube
# Cool — blue hour tone
LUT_3D_SIZE 17
DOMAIN_MIN 0.0 0.0 0.0
DOMAIN_MAX 1.0 1.0 1.0
0.000000 0.000000 0.030000
0.046250 0.000000 0.030000
0.102500 0.000000 0.030000
0.158750 0.000000 0.030000
0.215000 0.000000 0.030000
0.271250 0.000000 0.030000
0.327500 0.000000 0.030000
0.383750 0.000000 0.030000
0.440000 0.000000 0.030000
0.496250 0.000000 0.030000
0.552500 0.000000 0.030000
0.608750 0.000000 0.030000
0.665000 0.000000 0.030000
0.721250 0.000000 0.030000
0.777500 0.000000 0.030000
0.833750 0.000000 0.030000
0.890000 0.000000 0.030000
0.000000 0.060625 0.030000
0.046250 0.060625 0.030000
0.102500 0.060625 0.030000
0.158750 0.060625 0.030000
0.215000 0.060625 0.030000
0.271250 0.060625 0.030000
0.327500 0.060625 0.030000
0.383750 0.060625 0.030000
0.440000 0.060625 0.030000
0.496250 0.060625 0.030000
0.552500 0.060625 0.030000
0.608750 0.060625 0.030000
0.665000 0.060625 0.030000
0.721250 0.060625 0.030000
0.777500 0.060625 0.030000
0.833750 0.060625 0.030000
0.890000 0.060625 0.030000
0.000000 0.121250 0.030000
0.046250 0.121250 0.030000
0.102500 0.121250 0.030000
0.158750 0.121250 0.030000
0.215000 0.121250 0.030000
0.271250 0.121250 0.030000
0.327500 0.121250 0.030000
0.383750 0.121250 0.030000
0.440000 0.121250 0.030000
0.496250 0.121250 0.030000
0.552500 0.121250 0.030000
0.608750 0.121250 0.030000
0.665000 0.121250 0.030000
0.721250 0.121250 0.030000
0.777500 0.121250 0.030000
0.833750 0.121250 0.030000
0.890000 0.121250 0.030000
0.000000 0.181875 0.030000
0.046250 0.181875 0.030000
0.102500 0.181875 0.030000
0.158750 0.181875 0.030000
0.215000 0.181875 0.030000
0.271250 0.181875 0.030000
0.327500 0.181875 0.030000
0.383750 0.181875 0.030000
0.440000 0.181875 0.030000
0.496250 0.181875 0.030000
0.552500 0.181875 0.030000
0.608750 0.181875 0.030000
0.665000 0.181875 0.030000
0.721250 0.181875 0.030000
0.777500 0.181875 0.030000
0.833750 0.181875 0.030000
0.890000 0.181875 0.030000
0.000000 0.242500 0.030000
0.046250 0.242500 0.030000
0.102500 0.242500 0.030000
0.158750 0.242500 0.030000
0.215000 0.242500 0.030000
0.271250 0.242500 0.030000
0.327500 0.242500 0.030000
0.383750 0.242500 0.030000
0.440000 0.242500 0.030000
0.496250 0.242500 0.030000
0.552500 0.242500 0.030000
0.608750 0.242500 0.030000
0.665000 0.242500 0.030000
0.721250 0.242500 0.030000
0.777500 0.242500 0.030000
0.833750 0.242500 0.030000
0.890000 0.242500 0.030000
0.000000 0.303125 0.030000
0.046250 0.303125 0.030000
0.102500 0.303125 0.030000
0.158750 0.303125 0.030000
0.215000 0.303125 0.030000
0.271250 0.303125 0.030000
0.327500 0.303125 0.030000
0.383750 0.303125 0.030000
0.440000 0.303125 0.030000
0.496250 0.303125 0.030000
0.552500 0.303125 0.030000
0.608750 0.303125 0.030000
0.665000 0.303125 0.030000
0.721250 0.303125 0.030000
0.777500 0.303125 0.030000
0.833750 0.303125 0.030000
0.890000 0.303125 0.030000
0.000000 0.363750 0.030000
0.046250 0.363750 0.030000
0.102500 0.363750 0.030000
0.158750 0.363750 0.030000
0.215000 0.363750 0.030000
0.271250 0.363750 0.030000
0.327500 0.363750 0.030000
0.383750 0.363750 0.030000
0.440000 0.363750 0.030000
0.496250 0.363750 0.030000
0.552500 0.363750 0.030000
0.608750 0.363750 0.030000
0.665000 0.363750 0.030000
0.721250 0.363750 0.030000
0.777500 0.363750 0.030000
0.833750 0.363750 0.030000
0.890000 0.363750 0.030000
0.000000 0.424375 0.030000
0.046250 0.424375 0.030000
0.102500 0.424375 0.030000
0.158750 0.424375 0.030000
0.215000 0.424375 0.030000
0.271250 0.424375 0.030000
0.327500 0.424375 0.030000
0.383750 0.424375 0.030000
0.440000 0.424375 0.030000
0.496250 0.424375 0.030000
0.552500 0.424375 0.030000
0.608750 0.424375 0.030000
0.665000 0.424375 0.030000
0.721250 0.424375 0.030000
0.777500 0.424375 0.030000
0.833750 0.424375 0.030000
0.890000 0.424375 0.030000
0.000000 0.485000 0.030000
0.046250 0.485000 0.030000
0.102500 0.485000 0.030000
0.158750 0.485000 0.030000
0.215000 0.485000 0.030000
0.271250 0.485000 0.030000
0.327500 0.485000 0.030000
0.383750 0.485000 0.030000
0.440000 0.485000 0.030000
0.496250 0.485000 0.030000
0.552500 0.485000 0.030000
0.608750 0.485000 0.030000
0.665000 0.485000 0.030000
0.721250 0.485000 0.030000
0.777500 0.485000 0.030000
0.833750 0.485000 0.030000
0.890000 0.485000 0.030000
0.000000 0.545625 0.030000
0.046250 0.545625 0.030000
0.102500 0.545625 0.030000
0.158750 0.545625 0.030000
0.215000 0.545625 0.030000
0.271250 0.545625 0.030000
0.327500 0.545625 0.030000
0.383750 0.545625 0.030000
0.440000 0.545625 0.030000
0.496250 0.545625 0.030000
0.552500 0.545625 0.030000
0.608750 0.545625 0.030000
0.665000 0.545625 0.030000
0.721250 0.545625 0.030000
0.777500 0.545625 0.030000
0.833750 0.545625 0.030000
0.890000 0.545625 0.030000
0.000000 0.606250 0.030000
0.046250 0.606250 0.030000
0.102500 0.606250 0.030000
0.158750 0.606250 0.030000
0.215000 0.606250 0.030000
0.271250 0.606250 0.030000
0.327500 0.606250 0.030000
0.383750 0.606250 0.030000
0.440000 0.606250 0.030000
0.496250 0.606250 0.030000
0.552500 0.606250 0.030000
0.608750 0.606250 0.030000
0.665000 0.606250 0.030000
0.721250 0.606250 0.030000
0.777500 0.606250 0.030000
0.833750 0.606250 0.030000
0.890000 0.606250 0.030000
0.000000 0.666875 0.030000
0.046250 0.666875 0.030000
0.102500 0.666875 0.030000
0.158750 0.666875 0.030000
0.215000 0.666875 0.030000
0.271250 0.666875 0.030000
0.327500 0.666875 0.030000
0.383750 0.666875 0.030000
0.440000 0.666875 0.030000
0.496250 0.666875 0.030000
0.552500 0.666875 0.030000
0.608750 0.666875 0.030000
0.665000 0.666875 0.030000
0.721250 0.666875 0.030000
0.777500 0.666875 0.030000
0.833750 0.666875 0.030000
0.890000 0.666875 0.030000
0.000000 0.727500 0.030000
0.046250 0.727500 0.030000
0.102500 0.727500 0.030000
0.158750 0.727500 0.030000
0.215000 0.727500 0.030000
0.271250 0.727500 0.030000
0.327500 0.727500 0.030000
0.383750 0.727500 0.030000
0.440000 0.727500 0.030000
0.496250 0.727500 0.030000
0.552500 0.727500 0.030000
0.608750 0.727500 0.030000
0.665000 0.727500 0.030000
0.721250 0.727500 0.030000
0.777500 0.727500 0.030000
0.833750 0.727500 0.030000
0.890000 0.727500 0.030000
0.000000 0.788125 0.030000
0.046250 0.788125 0.030000
0.102500 0.788125 0.030000
0.158750 0.788125 0.030000
0.215000 0.788125 0.030000
0.271250 0.788125 0.030000
0.327500 0.788125 0.030000
0.383750 0.788125 0.030000
0.440000 0.788125 0.030000
0.496250 0.788125 0.030000
0.552500 0.788125 0.030000
0.608750 0.788125 0.030000
0.665000 0.788125 0.030000
0.721250 0.788125 0.030000
0.777500 0.788125 0.030000
0.833750 0.788125 0.030000
0.890000 0.788125 0.030000
0.000000 0.848750 0.030000
0.046250 0.848750 0.030000
0.102500 0.848750 0.030000
0.158750 0.848750 0.030000
0.215000 0.848750 0.030000
0.271250 0.848750 0.030000
0.327500 0.848750 0.030000
0.383750 0.848750 0.030000
0.440000 0.848750 0.030000
0.496250 0.848750 0.030000
0.552500 0.848750 0.030000
0.608750 0.848750 0.030000
0.665000 0.848750 0.030000
0.721250 0.848750 0.030000
0.777500 0.848750 0.030000
0.833750 0.848750 0.030000
0.890000 0.848750 0.030000
0.000000 0.909375 0.030000
0.046250 0.909375 0.030000
0.102500 0.909375 0.030000
0.158750 0.909375 0.030000
0.215000 0.909375 0.030000
0.271250 0.909375 0.030000
0.327500 0.909375 0.030000
0.383750 0.909375 0.030000
0.440000 0.909375 0.030000
0.496250 0.909375 0.030000
0.552500 0.909375 0.030000
0.608750 0.909375 0.030000
0.665000 0.909375 0.030000
0.721250 0.909375 0.030000
0.777500 0.909375 0.030000
0.833750 0.909375 0.030000
0.890000 0.909375 0.030000
0.000000 0.970000 0.030000
0.046250 0.970000 0.030000
0.102500 0.970000 0.030000
0.158750 0.970000 0.030000
0.215000 0.970000 0.030000
0.271250 0.970000 0.030000
0.327500 0.970000 0.030000
0.383750 0.970000 0.030000
0.440000 0.970000 0.030000
0.496250 0.970000 0.030000
0.552500 0.970000 0.030000
0.608750 0.970000 0.030000
0.665000 0.970000 0.030000
0.721250 0.970000 0.030000
0.777500 0.970000 0.030000
0.833750 0.970000 0.030000
0.890000 0.970000 0.030000
0.000000 0.000000 0.098750
0.046250 0.000000 0.098750
0.102500 0.000000 0.098750
0.158750 0.000000 0.098750
0.215000 0.000000 0.098750
0.271250 0.000000 0.098750
0.327500 0.000000 0.098750
0.383750 0.000000 0.098750
0.440000 0.000000 0.098750
0.496250 0.000000 0.098750
0.552500 0.000000 0.098750
0.608750 0.000000 0.098750
0.665000 0.000000 0.098750
0.721250 0.000000 0.098750
0.777500 0.000000 0.098750
0.833750 0.000000 0.098750
0.890000 0.000000 0.098750
0.000000 0.060625 0.098750
0.046250 0.060625 0.098750
0.102500 0.060625 0.098750
0.158750 0.060625 0.098750
0.215000 0.060625 0.098750
0.271250 0.060625 0.098750
0.327500 0.060625 0.098750
0.383750 0.060625 0.098750
0.440000 0.060625 0.098750
0.496250 0.060625 0.098750
0.552500 0.060625 0.098750
0.608750 0.060625 0.098750
0.665000 0.060625 0.098750
0.721250 0.060625 0.098750
0.777500 0.060625 0.098750
0.833750 0.060625 0.098750
0.890000 0.060625 0.098750
0.000000 0.121250 0.098750
0.046250 0.121250 0.098750
0.102500 0.121250 0.098750
0.158750 0.121250 0.098750
0.215000 0.121250 0.098750
0.271250 0.121250 0.098750
0.327500 0.121250 0.098750
0.383750 0.121250 0.098750
0.440000 0.121250 0.098750
0.496250 0.121250 0.098750
0.552500 0.121250 0.098750
0.608750 0.121250 0.098750
0.665000 0.121250 0.098750
0.721250 0.121250 0.098750
0.777500 0.121250 0.098750
0.833750 0.121250 0.098750
0.890000 0.121250 0.098750
0.000000 0.181875 0.098750
0.046250 0.181875 0.098750
0.102500 0.181875 0.098750
0.158750 0.181875 0.098750
0.215000 0.181875 0.098750
0.271250 0.181875 0.098750
0.327500 0.181875 0.098750
0.383750 0.181875 0.098750
0.440000 0.181875 0.098750
0.496250 0.181875 0.098750
0.552500 0.181875 0.098750
0.608750 0.181875 0.098750
0.665000 0.181875 0.098750
0.721250 0.181875 0.098750
0.777500 0.181875 0.098750
0.833750 0.181875 0.098750
0.890000 0.181875 0.098750
0.000000 0.242500 0.098750
0.046250 0.242500 0.098750
0.102500 0.242500 0.098750
0.158750 0.242500 0.098750
0.215000 0.242500 0.098750
0.271250 0.242500 0.098750
0.327500 0.242500 0.098750
0.383750 0.242500 0.098750
0.440000 0.242500 0.098750
0.496250 0.242500 0.098750
0.552500 0.242500 0.098750
0.608750 0.242500 0.098750
0.665000 0.242500 0.098750
0.721250 0.242500 0.098750
0.777500 0.242500 0.098750
0.833750 0.242500 0.098750
0.890000 0.242500 0.098750
0.000000 0.303125 0.098750
0.046250 0.303125 0.098750
0.102500 0.303125 0.098750
0.158750 0.303125 0.098750
0.215000 0.303125 0.098750
0.271250 0.303125 0.098750
0.327500 0.303125 0.098750
0.383750 0.303125 0.098750
0.440000 0.303125 0.098750
0.496250 0.303125 0.098750
0.552500 0.303125 0.098750
0.608750 0.303125 0.098750
0.665000 0.303125 0.098750
0.721250 0.303125 0.098750
0.777500 0.303125 0.098750
0.833750 0.303125 0.098750
0.890000 0.303125 0.098750
0.000000 0.363750 0.098750
0.046250 0.363750 0.098750
0.102500 0.363750 0.098750
0.158750 0.363750 0.098750
0.215000 0.363750 0.098750
0.271250 0.363750 0.098750
0.327500 0.363750 0.098750
0.383750 0.363750 0.098750
0.440000 0.363750 0.098750
0.496250 0.363750 0.098750
0.552500 0.363750 0.098750
0.608750 0.363750 0.098750
0.665000 0.363750 0.098750
0.721250 0.363750 0.098750
0.777500 0.363750 0.098750
0.833750 0.363750 0.098750
0.890000 0.363750 0.098750
0.000000 0.424375 0.098750
0.046250 0.424375 0.098750
0.102500 0.424375 0.098750
0.158750 0.424375 0.098750
0.215000 0.424375 0.098750
0.271250 0.424375 0.098750
0.327500 0.424375 0.098750
0.383750 0.424375 0.098750
0.440000 0.424375 0.098750
0.496250 0.424375 0.098750
0.552500 0.424375 0.098750
0.608750 0.424375 0.098750
0.665000 0.424375 0.098750
0.721250 0.424375 0.098750
0.777500 0.424375 0.098750
0.833750 0.424375 0.098750
0.890000 0.424375 0.098750
0.000000 0.485000 0.098750
0.046250 0.485000 0.098750
0.102500 0.485000 0.098750
0.158750 0.485000 0.098750
0.215000 0.485000 0.098750
0.271250 0.485000 0.098750
0.327500 0.485000 0.098750
0.383750 0.485000 0.098750
0.440000 0.485000 0.098750
0.496250 0.485000 0.098750
0.552500 0.485000 0.098750
0.608750 0.485000 0.098750
0.665000 0.485000 0.098750
0.721250 0.485000 0.098750
0.777500 0.485000 0.098750
0.833750 0.485000 0.098750
0.890000 0.485000 0.098750
0.000000 0.545625 0.098750
0.046250 0.545625 0.098750
0.102500 0.545625 0.098750
0.158750 0.545625 0.098750
0.215000 0.545625 0.098750
0.271250 0.545625 0.098750
0.327500 0.545625 0.098750
0.383750 0.545625 0.098750
0.440000 0.545625 0.098750
0.496250 0.545625 0.098750
0.552500 0.545625 0.098750
0.608750 0.545625 0.098750
0.665000 0.545625 0.098750
0.721250 0.545625 0.098750
0.777500 0.545625 0.098750
0.833750 0.545625 0.098750
0.890000 0.545625 0.098750
0.000000 0.606250 0.098750
0.046250 0.606250 0.098750
0.102500 0.606250 0.098750
0.158750 0.606250 0.098750
0.215000 0.606250 0.098750
0.271250 0.606250 0.098750
0.327500 0.606250 0.098750
0.383750 0.606250 0.098750
0.440000 0.606250 0.098750
0.496250 0.606250 0.098750
0.552500 0.606250 0.098750
0.608750 0.606250 0.098750
0.665000 0.606250 0.098750
0.721250 0.606250 0.098750
0.777500 0.606250 0.098750
0.833750 0.606250 0.098750
0.890000 0.606250 0.098750
0.000000 0.666875 0.098750
0.046250 0.666875 0.098750
0.102500 0.666875 0.098750
0.158750 0.666875 0.098750
0.215000 0.666875 0.098750
0.271250 0.666875 0.098750
0.327500 0.666875 0.098750
0.383750 0.666875 0.098750
0.440000 0.666875 0.098750
0.496250 0.666875 0.098750
0.552500 0.666875 0.098750
0.608750 0.666875 0.098750
0.665000 0.666875 0.098750
0.721250 0.666875 0.098750
0.777500 0.666875 0.098750
0.833750 0.666875 0.098750
0.890000 0.666875 0.098750
0.000000 0.727500 0.098750
0.046250 0.727500 0.098750
0.102500 0.727500 0.098750
0.158750 0.727500 0.098750
0.215000 0.727500 0.098750
0.271250 0.727500 0.098750
0.327500 0.727500 0.098750
0.383750 0.727500 0.098750
0.440000 0.727500 0.098750
0.496250 0.727500 0.098750
0.552500 0.727500 0.098750
0.608750 0.727500 0.098750
0.665000 0.727500 0.098750
0.721250 0.727500 0.098750
0.777500 0.727500 0.098750
0.833750 0.727500 0.098750
0.890000 0.727500 0.098750
0.000000 0.788125 0.098750
0.046250 0.788125 0.098750
0.102500 0.788125 0.098750
0.158750 0.788125 0.098750
0.215000 0.788125 0.098750
0.271250 0.788125 0.098750
0.327500 0.788125 0.098750
0.383750 0.788125 0.098750
0.440000 0.788125 0.098750
0.496250 0.788125 0.098750
0.552500 0.788125 0.098750
0.608750 0.788125 0.098750
0.665000 0.788125 0.098750
0.721250 0.788125 0.098750
0.777500 0.788125 0.098750
0.833750 0.788125 0.098750
0.890000 0.788125 0.098750
0.000000 0.848750 0.098750
0.046250 0.848750 0.098750
0.102500 0.848750 0.098750
0.158750 0.848750 0.098750
0.215000 0.848750 0.098750
0.271250 0.848750 0.098750
0.327500 0.848750 0.098750
0.383750 0.848750 0.098750
0.440000 0.848750 0.098750
0.496250 0.848750 0.098750
0.552500 0.848750 0.098750
0.608750 0.848750 0.098750
0.665000 0.848750 0.098750
0.721250 0.848750 0.098750
0.777500 0.848750 0.098750
0.833750 0.848750 0.098750
0.890000 0.848750 0.098750
0.000000 0.909375 0.098750
0.046250 0.909375 0.098750
0.102500 0.909375 0.098750
0.158750 0.909375 0.098750
0.215000 0.909375 0.098750
0.271250 0.909375 0.098750
0.327500 0.909375 0.098750
0.383750 0.909375 0.098750
0.440000 0.909375 0.098750
0.496250 0.909375 0.098750
0.552500 0.909375 0.098750
0.608750 0.909375 0.098750
0.665000 0.909375 0.098750
0.721250 0.909375 0.098750
0.777500 0.909375 0.098750
0.833750 0.909375 0.098750
0.890000 0.909375 0.098750
0.000000 0.970000 0.098750
0.046250 0.970000 0.098750
0.102500 0.970000 0.098750
0.158750 0.970000 0.098750
0.215000 0.970000 0.098750
0.271250 0.970000 0.098750
0.327500 0.970000 0.098750
0.383750 0.970000 0.098750
0.440000 0.970000 0.098750
0.496250 0.970000 0.098750
0.552500 0.970000 0.098750
0.608750 0.970000 0.098750
0.665000 0.970000 0.098750
0.721250 0.970000 0.098750
0.777500 0.970000 0.098750
0.833750 0.970000 0.098750
0.890000 0.970000 0.098750
0.000000 0.000000 0.167500
0.046250 0.000000 0.167500
0.102500 0.000000 0.167500
0.158750 0.000000 0.167500
0.215000 0.000000 0.167500
0.271250 0.000000 0.167500
0.327500 0.000000 0.167500
0.383750 0.000000 0.167500
0.440000 0.000000 0.167500
0.496250 0.000000 0.167500
0.552500 0.000000 0.167500
0.608750 0.000000 0.167500
0.665000 0.000000 0.167500
0.721250 0.000000 0.167500
0.777500 0.000000 0.167500
0.833750 0.000000 0.167500
0.890000 0.000000 0.167500
0.000000 0.060625 0.167500
0.046250 0.060625 0.167500
0.102500 0.060625 0.167500
0.158750 0.060625 0.167500
0.215000 0.060625 0.167500
0.271250 0.060625 0.167500
0.327500 0.060625 0.167500
0.383750 0.060625 0.167500
0.440000 0.060625 0.167500
0.496250 0.060625 0.167500
0.552500 0.060625 0.167500
0.608750 0.060625 0.167500
0.665000 0.060625 0.167500
0.721250 0.060625 0.167500
0.777500 0.060625 0.167500
0.833750 0.060625 0.167500
0.890000 0.060625 0.167500
0.000000 0.121250 0.167500
0.046250 0.121250 0.167500
0.102500 0.121250 0.167500
0.158750 0.121250 0.167500
0.215000 0.121250 0.167500
0.271250 0.121250 0.167500
0.327500 0.121250 0.167500
0.383750 0.121250 0.167500
0.440000 0.121250 0.167500
0.496250 0.121250 0.167500
0.552500 0.121250 0.167500
0.608750 0.121250 0.167500
0.665000 0.121250 0.167500
0.721250 0.121250 0.167500
0.777500 0.121250 0.167500
0.833750 0.121250 0.167500
0.890000 0.121250 0.167500
0.000000 0.181875 0.167500
0.046250 0.181875 0.167500
0.102500 0.181875 0.167500
0.158750 0.181875 0.167500
0.215000 0.181875 0.167500
0.271250 0.181875 0.167500
0.327500 0.181875 0.167500
0.383750 0.181875 0.167500
0.440000 0.181875 0.167500
0.496250 0.181875 0.167500
0.552500 0.181875 0.167500
0.608750 0.181875 0.167500
0.665000 0.181875 0.167500
0.721250 0.181875 0.167500
0.777500 0.181875 0.167500
0.833750 0.181875 0.167500
0.890000 0.181875 0.167500
0.000000 0.242500 0.167500
0.046250 0.242500 0.167500
0.102500 0.242500 0.167500
0.158750 0.242500 0.167500
0.215000 0.242500 0.167500
0.271250 0.242500 0.167500
0.327500 0.242500 0.167500
0.383750 0.242500 0.167500
0.440000 0.242500 0.167500
0.496250 0.242500 0.167500
0.552500 0.242500 0.167500
0.608750 0.242500 0.167500
0.665000 0.242500 0.167500
0.721250 0.242500 0.167500
0.777500 0.242500 0.167500
0.833750 0.242500 0.167500
0.890000 0.242500 0.167500
0.000000 0.303125 0.167500
0.046250 0.303125 0.167500
0.102500 0.303125 0.167500
0.158750 0.303125 0.167500
0.215000 0.303125 0.167500
0.271250 0.303125 0.167500
0.327500 0.303125 0.167500
0.383750 0.303125 0.167500
0.440000 0.303125 0.167500
0.496250 0.303125 0.167500
0.552500 0.303125 0.167500
0.608750 0.303125 0.167500
0.665000 0.303125 0.167500
0.721250 0.303125 0.167500
0.777500 0.303125 0.167500
0.833750 0.303125 0.167500
0.890000 0.303125 0.167500
0.000000 0.363750 0.167500
0.046250 0.363750 0.167500
0.102500 0.363750 0.167500
0.158750 0.363750 0.167500
0.215000 0.363750 0.167500
0.271250 0.363750 0.167500
0.327500 0.363750 0.167500
0.383750 0.363750 0.167500
0.440000 0.363750 0.167500
0.496250 0.363750 0.167500
0.552500 0.363750 0.167500
0.608750 0.363750 0.167500
0.665000 0.363750 0.167500
0.721250 0.363750 0.167500
0.777500 0.363750 0.167500
0.833750 0.363750 0.167500
0.890000 0.363750 0.167500
0.000000 0.424375 0.167500
0.046250 0.424375 0.167500
0.102500 0.424375 0.167500
0.158750 0.424375 0.167500
0.215000 0.424375 0.167500
0.271250 0.424375 0.167500
0.327500 0.424375 0.167500
0.383750 0.424375 0.167500
0.440000 0.424375 0.167500
0.496250 0.424375 0.167500
0.552500 0.424375 0.167500
0.608750 0.424375 0.167500
0.665000 0.424375 0.167500
0.721250 0.424375 0.167500
0.777500 0.424375 0.167500
0.833750 0.424375 0.167500
0.890000 0.424375 0.167500
0.000000 0.485000 0.167500
0.046250 0.485000 0.167500
0.102500 0.485000 0.167500
0.158750 0.485000 0.167500
0.215000 0.485000 0.167500
0.271250 0.485000 0.167500
0.327500 0.485000 0.167500
0.383750 0.485000 0.167500
0.440000 0.485000 0.167500
0.496250 0.485000 0.167500
0.552500 0.485000 0.167500
0.608750 0.485000 0.167500
0.665000 0.485000 0.167500
0.721250 0.485000 0.167500
0.777500 0.485000 0.167500
0.833750 0.485000 0.167500
0.890000 0.485000 0.167500
0.000000 0.545625 0.167500
0.046250 0.545625 0.167500
0.102500 0.545625 0.167500
0.158750 0.545625 0.167500
0.215000 0.545625 0.167500
0.271250 0.545625 0.167500
0.327500 0.545625 0.167500
0.383750 0.545625 0.167500
0.440000 0.545625 0.167500
0.496250 0.545625 0.167500
0.552500 0.545625 0.167500
0.608750 0.545625 0.167500
0.665000 0.545625 0.167500
0.721250 0.545625 0.167500
0.777500 0.545625 0.167500
0.833750 0.545625 0.167500
0.890000 0.545625 0.167500
0.000000 0.606250 0.167500
0.046250 0.606250 0.167500
0.102500 0.606250 0.167500
0.158750 0.606250 0.167500
0.215000 0.606250 0.167500
0.271250 0.606250 0.167500
0.327500 0.606250 0.167500
0.383750 0.606250 0.167500
0.440000 0.606250 0.167500
0.496250 0.606250 0.167500
0.552500 0.606250 0.167500
0.608750 0.606250 0.167500
0.665000 0.606250 0.167500
0.721250 0.606250 0.167500
0.777500 0.606250 0.167500
0.833750 0.606250 0.167500
0.890000 0.606250 0.167500
0.000000 0.666875 0.167500
0.046250 0.666875 0.167500
0.102500 0.666875 0.167500
0.158750 0.666875 0.167500
0.215000 0.666875 0.167500
0.271250 0.666875 0.167500
0.327500 0.666875 0.167500
0.383750 0.666875 0.167500
0.440000 0.666875 0.167500
0.496250 0.666875 0.167500
0.552500 0.666875 0.167500
0.608750 0.666875 0.167500
0.665000 0.666875 0.167500
0.721250 0.666875 0.167500
0.777500 0.666875 0.167500
0.833750 0.666875 0.167500
0.890000 0.666875 0.167500
0.000000 0.727500 0.167500
0.046250 0.727500 0.167500
0.102500 0.727500 0.167500
0.158750 0.727500 0.167500
0.215000 0.727500 0.167500
0.271250 0.727500 0.167500
0.327500 0.727500 0.167500
0.383750 0.727500 0.167500
0.440000 0.727500 0.167500
0.496250 0.727500 0.167500
0.552500 0.727500 0.167500
0.608750 0.727500 0.167500
0.665000 0.727500 0.167500
0.721250 0.727500 0.167500
0.777500 0.727500 0.167500
0.833750 0.727500 0.167500
0.890000 0.727500 0.167500
0.000000 0.788125 0.167500
0.046250 0.788125 0.167500
0.102500 0.788125 0.167500
0.158750 0.788125 0.167500
0.215000 0.788125 0.167500
0.271250 0.788125 0.167500
0.327500 0.788125 0.167500
0.383750 0.788125 0.167500
0.440000 0.788125 0.167500
0.496250 0.788125 0.167500
0.552500 0.788125 0.167500
0.608750 0.788125 0.167500
0.665000 0.788125 0.167500
0.721250 0.788125 0.167500
0.777500 0.788125 0.167500
0.833750 0.788125 0.167500
0.890000 0.788125 0.167500
0.000000 0.848750 0.167500
0.046250 0.848750 0.167500
0.102500 0.848750 0.167500
0.158750 0.848750 0.167500
0.215000 0.848750 0.167500
0.271250 0.848750 0.167500
0.327500 0.848750 0.167500
0.383750 0.848750 0.167500
0.440000 0.848750 0.167500
0.496250 0.848750 0.167500
0.552500 0.848750 0.167500
0.608750 0.848750 0.167500
0.665000 0.848750 0.167500
0.721250 0.848750 0.167500
0.777500 0.848750 0.167500
0.833750 0.848750 0.167500
0.890000 0.848750 0.167500
0.000000 0.909375 0.167500
0.046250 0.909375 0.167500
0.102500 0.909375 0.167500
0.158750 0.909375 0.167500
0.215000 0.909375 0.167500
0.271250 0.909375 0.167500
0.327500 0.909375 0.167500
0.383750 0.909375 0.167500
0.440000 0.909375 0.167500
0.496250 0.909375 0.167500
0.552500 0.909375 0.167500
0.608750 0.909375 0.167500
0.665000 0.909375 0.167500
0.721250 0.909375 0.167500
0.777500 0.909375 0.167500
0.833750 0.909375 0.167500
0.890000 0.909375 0.167500
0.000000 0.970000 0.167500
0.046250 0.970000 0.167500
0.102500 0.970000 0.167500
0.158750 0.970000 0.167500
0.215000 0.970000 0.167500
0.271250 0.970000 0.167500
0.327500 0.970000 0.167500
0.383750 0.970000 0.167500
0.440000 0.970000 0.167500
0.496250 0.970000 0.167500
0.552500 0.970000 0.167500
0.608750 0.970000 0.167500
0.665000 0.970000 0.167500
0.721250 0.970000 0.167500
0.777500 0.970000 0.167500
0.833750 0.970000 0.167500
0.890000 0.970000 0.167500
0.000000 0.000000 0.236250
0.046250 0.000000 0.236250
0.102500 0.000000 0.236250
0.158750 0.000000 0.236250
0.215000 0.000000 0.236250
0.271250 0.000000 0.236250
0.327500 0.000000 0.236250
0.383750 0.000000 0.236250
0.440000 0.000000 0.236250
0.496250 0.000000 0.236250
0.552500 0.000000 0.236250
0.608750 0.000000 0.236250
0.665000 0.000000 0.236250
0.721250 0.000000 0.236250
0.777500 0.000000 0.236250
0.833750 0.000000 0.236250
0.890000 0.000000 0.236250
0.000000 0.060625 0.236250
