app/luts/cool.cube
# Cool — blue hour tone
LUT_3D_SIZE 5
DOMAIN_MIN 0.0 0.0 0.0
DOMAIN_MAX 1.0 1.0 1.0
0.000000 0.000000 0.030000
0.215000 0.000000 0.030000
0.440000 0.000000 0.030000
0.665000 0.000000 0.030000
0.890000 0.000000 0.030000
0.000000 0.242500 0.030000
0.215000 0.242500 0.030000
0.440000 0.242500 0.030000
0.665000 0.242500 0.030000
0.890000 0.242500 0.030000
0.000000 0.485000 0.030000
0.215000 0.485000 0.030000
0.440000 0.485000 0.030000
0.665000 0.485000 0.030000
0.890000 0.485000 0.030000
0.000000 0.727500 0.030000
0.215000 0.727500 0.030000
0.440000 0.727500 0.030000
0.665000 0.727500 0.030000
0.890000 0.727500 0.030000
0.000000 0.970000 0.030000
0.215000 0.970000 0.030000
0.440000 0.970000 0.030000
0.665000 0.970000 0.030000
0.890000 0.970000 0.030000
0.000000 0.000000 0.305000
0.215000 0.000000 0.305000
0.440000 0.000000 0.305000
0.665000 0.000000 0.305000
0.890000 0.000000 0.305000
0.000000 0.242500 0.305000
0.215000 0.242500 0.305000
0.440000 0.242500 0.305000
0.665000 0.242500 0.305000
0.890000 0.242500 0.305000
0.000000 0.485000 0.305000
0.215000 0.485000 0.305000
0.440000 0.485000 0.305000
0.665000 0.485000 0.305000
0.890000 0.485000 0.305000
0.000000 0.727500 0.305000
0.215000 0.727500 0.305000
0.440000 0.727500 0.305000
0.665000 0.727500 0.305000
0.890000 0.727500 0.305000
0.000000 0.970000 0.305000
0.215000 0.970000 0.305000
0.440000 0.970000 0.305000
0.665000 0.970000 0.305000
0.890000 0.970000 0.305000
0.000000 0.000000 0.580000
0.215000 0.000000 0.580000
0.440000 0.000000 0.580000
0.665000 0.000000 0.580000
0.890000 0.000000 0.580000
0.000000 0.242500 0.580000
0.215000 0.242500 0.580000
0.440000 0.242500 0.580000
0.665000 0.242500 0.580000
0.890000 0.242500 0.580000
0.000000 0.485000 0.580000
0.215000 0.485000 0.580000
0.440000 0.485000 0.580000
0.665000 0.485000 0.580000
0.890000 0.485000 0.580000
0.000000 0.727500 0.580000
0.215000 0.727500 0.580000
0.440000 0.727500 0.580000
0.665000 0.727500 0.580000
0.890000 0.727500 0.580000
0.000000 0.970000 0.580000
0.215000 0.970000 0.580000
0.440000 0.970000 0.580000
0.665000 0.970000 0.580000
0.890000 0.970000 0.580000
0.000000 0.000000 0.855000
0.215000 0.000000 0.855000
0.440000 0.000000 0.855000
0.665000 0.000000 0.855000
0.890000 0.000000 0.855000
0.000000 0.242500 0.855000
0.215000 0.242500 0.855000
0.440000 0.242500 0.855000
0.665000 0.242500 0.855000
0.890000 0.242500 0.855000
0.000000 0.485000 0.855000
0.215000 0.485000 0.855000
0.440000 0.485000 0.855000
0.665000 0.485000 0.855000
0.890000 0.485000 0.855000
0.000000 0.727500 0.855000
0.215000 0.727500 0.855000
0.440000 0.727500 0.855000
0.665000 0.727500 0.855000
0.890000 0.727500 0.855000
0.000000 0.970000 0.855000
0.215000 0.970000 0.855000
0.440000 0.970000 0.855000
0.665000 0.970000 0.855000
0.890000 0.970000 0.855000
0.000000 0.000000 1.000000
0.215000 0.000000 1.000000
0.440000 0.000000 1.000000
0.665000 0.000000 1.000000
0.890000 0.000000 1.000000
0.000000 0.242500 1.000000
0.215000 0.242500 1.000000
0.440000 0.242500 1.000000
0.665000 0.242500 1.000000
0.890000 0.242500 1.000000
0.000000 0.485000 1.000000
0.215000 0.485000 1.000000
0.440000 0.485000 1.000000
0.665000 0.485000 1.000000
0.890000 0.485000 1.000000
0.000000 0.727500 1.000000
0.215000 0.727500 1.000000
0.440000 0.727500 1.000000
0.665000 0.727500 1.000000
0.890000 0.727500 1.000000
0.000000 0.970000 1.000000
0.215000 0.970000 1.000000
0.440000 0.970000 1.000000
0.665000 0.970000 1.000000
0.890000 0.970000 1.000000
