app/luts/neutral.cube
# neutral LUT — Protect Timelapse
LUT_3D_SIZE 9
DOMAIN_MIN 0.0 0.0 0.0
DOMAIN_MAX 1.0 1.0 1.0
0.000000 0.000000 0.000000
0.158254 0.000000 0.000000
0.293173 0.000000 0.000000
0.413204 0.000000 0.000000
0.526790 0.000000 0.000000
0.642379 0.000000 0.000000
0.768415 0.000000 0.000000
0.913344 0.000000 0.000000
1.000000 0.000000 0.000000
0.000000 0.152746 0.000000
0.150405 0.150405 0.000000
0.286366 0.148059 0.000000
0.406982 0.145707 0.000000
0.520701 0.143348 0.000000
0.635967 0.140984 0.000000
0.761226 0.138613 0.000000
0.904922 0.136236 0.000000
1.000000 0.133852 0.000000
0.000000 0.283593 0.000000
0.142488 0.281555 0.000000
0.279514 0.279514 0.000000
0.400741 0.277468 0.000000
0.514616 0.275419 0.000000
0.629584 0.273365 0.000000
0.754089 0.271307 0.000000
0.896579 0.269245 0.000000
1.000000 0.267179 0.000000
0.000000 0.400065 0.000000
0.134501 0.398205 0.000000
0.272616 0.396343 0.000000
0.394479 0.394479 0.000000
0.508535 0.392613 0.000000
0.623228 0.390745 0.000000
0.747005 0.388875 0.000000
0.888312 0.387003 0.000000
1.000000 0.385129 0.000000
0.000000 0.509684 0.000000
0.126442 0.507877 0.000000
0.265672 0.506069 0.000000
0.388194 0.504262 0.000000
0.502455 0.502455 0.000000
0.616899 0.500648 0.000000
0.739972 0.498841 0.000000
0.880120 0.497033 0.000000
1.000000 0.495226 0.000000
0.000000 0.619974 0.000000
0.118310 0.618094 0.000000
0.258678 0.616216 0.000000
0.381885 0.614340 0.000000
0.496376 0.612466 0.000000
0.610595 0.610595 0.000000
0.732989 0.608726 0.000000
0.872002 0.606858 0.000000
1.000000 0.604993 0.000000
0.000000 0.738457 0.000000
0.110104 0.736379 0.000000
0.251636 0.734305 0.000000
0.375551 0.732236 0.000000
0.490296 0.730171 0.000000
0.604314 0.728110 0.000000
0.726053 0.726053 0.000000
0.863957 0.724000 0.000000
1.000000 0.721952 0.000000
0.000000 0.872656 0.000000
0.101822 0.870255 0.000000
0.244542 0.867860 0.000000
0.369190 0.865472 0.000000
0.484213 0.863091 0.000000
0.598056 0.860715 0.000000
0.719164 0.858346 0.000000
0.855983 0.855983 0.000000
1.000000 0.853626 0.000000
0.000000 1.000000 0.000000
0.093464 1.000000 0.000000
0.237395 1.000000 0.000000
0.362802 1.000000 0.000000
0.478128 1.000000 0.000000
0.591819 1.000000 0.000000
0.712321 1.000000 0.000000
0.848079 1.000000 0.000000
1.000000 1.000000 0.000000
0.000000 0.000000 0.159787
0.157465 0.000000 0.157465
0.292488 0.000000 0.155137
0.412576 0.000000 0.152803
0.526175 0.000000 0.150463
0.641730 0.000000 0.148117
0.767687 0.000000 0.145765
0.912490 0.000000 0.143406
1.000000 0.000000 0.141042
0.000000 0.151952 0.151952
0.149609 0.149609 0.149609
0.285676 0.147261 0.147261
0.406353 0.144907 0.144907
0.520087 0.142546 0.142546
0.635321 0.140179 0.140179
0.760503 0.137806 0.137806
0.904077 0.135427 0.135427
1.000000 0.133041 0.133041
0.000000 0.282901 0.144048
0.141685 0.280863 0.141685
0.278820 0.278820 0.139316
0.400110 0.276773 0.136941
0.514002 0.274722 0.134559
0.628941 0.272667 0.132171
0.753372 0.270607 0.129777
0.895741 0.268544 0.127376
1.000000 0.266476 0.124969
0.000000 0.399433 0.136074
0.133690 0.397573 0.133690
0.271917 0.395710 0.131300
0.393846 0.393846 0.128904
0.507921 0.391979 0.126501
0.622588 0.390111 0.124091
0.746293 0.388240 0.121675
0.887481 0.386367 0.119253
1.000000 0.384492 0.116824
0.000000 0.509070 0.128029
0.125624 0.507263 0.125624
0.264968 0.505455 0.123212
0.387558 0.503648 0.120794
0.501841 0.501841 0.118369
0.616262 0.500034 0.115938
0.739265 0.498227 0.113500
0.879297 0.496420 0.111055
1.000000 0.494613 0.108604
0.000000 0.619335 0.119912
0.117485 0.617456 0.117485
0.257970 0.615578 0.115051
0.381247 0.613703 0.112611
0.495762 0.611831 0.110164
0.609960 0.609960 0.107710
0.732286 0.608091 0.105249
0.871187 0.606225 0.102782
1.000000 0.604360 0.100308
0.000000 0.737750 0.111720
0.109271 0.735674 0.109271
0.250922 0.733602 0.106815
0.374910 0.731534 0.104352
0.489682 0.729470 0.101882
0.603682 0.727411 0.099406
0.725356 0.725356 0.096923
0.863149 0.723304 0.094433
1.000000 0.721257 0.091936
0.000000 0.871840 0.103454
0.100982 0.869441 0.100982
0.243823 0.867049 0.098503
0.368547 0.864663 0.096017
0.483599 0.862283 0.093525
0.597426 0.859910 0.091025
0.718471 0.857543 0.088519
0.855182 0.855182 0.086005
1.000000 0.852827 0.083485
0.000000 1.000000 0.095110
0.092615 1.000000 0.092615
0.236671 1.000000 0.090113
0.362155 1.000000 0.087604
0.477513 1.000000 0.085089
0.591191 1.000000 0.082566
0.711633 1.000000 0.080036
0.847285 1.000000 0.077499
1.000000 1.000000 0.074954
0.000000 0.000000 0.295834
0.156675 0.000000 0.293820
0.291802 0.000000 0.291802
0.411949 0.000000 0.289781
0.525560 0.000000 0.287755
0.641082 0.000000 0.285726
0.766959 0.000000 0.283692
0.911637 0.000000 0.281655
1.000000 0.000000 0.279614
0.000000 0.151157 0.289044
0.148813 0.148813 0.287017
0.284986 0.146462 0.284986
0.405724 0.144106 0.282951
0.519472 0.141743 0.280912
0.634676 0.139374 0.278870
0.759780 0.136999 0.276823
0.903232 0.134617 0.274772
1.000000 0.132230 0.272717
0.000000 0.282209 0.282209
0.140881 0.280169 0.280169
0.278125 0.278125 0.278125
0.399479 0.276077 0.276077
0.513388 0.274024 0.274024
0.628298 0.271968 0.271968
0.752655 0.269907 0.269907
0.894904 0.267842 0.267842
1.000000 0.265773 0.265773
0.000000 0.398802 0.275330
0.132879 0.396940 0.273276
0.271218 0.395077 0.271218
0.393212 0.393212 0.269156
0.507307 0.391345 0.267089
0.621948 0.389476 0.265019
0.745581 0.387604 0.262943
0.886652 0.385731 0.260864
1.000000 0.383855 0.258780
0.000000 0.508456 0.268404
0.124806 0.506649 0.266336
0.264264 0.504842 0.264264
0.386922 0.503035 0.262187
0.501227 0.501227 0.260106
0.615624 0.499420 0.258021
0.738558 0.497613 0.255931
0.878475 0.495806 0.253837
1.000000 0.493999 0.251738
0.000000 0.618696 0.261430
0.116659 0.616818 0.259347
0.257261 0.614941 0.257261
0.380608 0.613067 0.255169
0.495148 0.611195 0.253073
0.609325 0.609325 0.250973
0.731584 0.607457 0.248868
0.870372 0.605591 0.246759
1.000000 0.603727 0.244645
0.000000 0.737045 0.254407
0.108438 0.734970 0.252309
0.250207 0.732899 0.250207
0.374269 0.730833 0.248101
0.489068 0.728770 0.245990
0.603049 0.726712 0.243874
0.724658 0.724658 0.241754
0.862341 0.722609 0.239629
1.000000 0.720563 0.237500
0.000000 0.871024 0.247333
0.100141 0.868628 0.245220
0.243103 0.866238 0.243103
0.367903 0.863854 0.240981
0.482985 0.861477 0.238855
0.596795 0.859105 0.236723
0.717779 0.856740 0.234587
0.854382 0.854382 0.232446
1.000000 0.852029 0.230301
0.000000 1.000000 0.240208
0.091767 1.000000 0.238079
0.235946 1.000000 0.235946
0.361508 1.000000 0.233808
0.476899 1.000000 0.231666
0.590562 1.000000 0.229518
0.710945 1.000000 0.227366
0.846492 1.000000 0.225209
1.000000 1.000000 0.223047
0.000000 0.000000 0.416858
0.155884 0.000000 0.415014
0.291116 0.000000 0.413169
0.411322 0.000000 0.411322
0.524946 0.000000 0.409473
0.640434 0.000000 0.407622
0.766232 0.000000 0.405769
0.910785 0.000000 0.403915
1.000000 0.000000 0.402059
0.000000 0.150361 0.410649
0.148015 0.148015 0.408799
0.284295 0.145663 0.406948
0.405095 0.143304 0.405095
0.518858 0.140939 0.403240
0.634031 0.138568 0.401383
0.759059 0.136191 0.399524
0.902387 0.133807 0.397664
1.000000 0.131417 0.395801
0.000000 0.281517 0.404419
0.140077 0.279475 0.402564
0.277430 0.277430 0.400706
0.398847 0.275380 0.398847
0.512774 0.273326 0.396986
0.627656 0.271268 0.395123
0.751939 0.269206 0.393258
0.894067 0.267140 0.391390
1.000000 0.265069 0.389521
0.000000 0.398170 0.398170
0.132068 0.396308 0.396308
0.270518 0.394444 0.394444
0.392578 0.392578 0.392578
0.506693 0.390710 0.390710
0.621309 0.388840 0.388840
0.744870 0.386968 0.386968
0.885823 0.385094 0.385094
1.000000 0.383218 0.383218
0.000000 0.507843 0.391898
0.123987 0.506035 0.390030
0.263559 0.504228 0.388159
0.386286 0.502421 0.386286
0.500614 0.500614 0.384411
0.614987 0.498807 0.382534
0.737852 0.496999 0.380654
0.877654 0.495192 0.378773
1.000000 0.493385 0.376889
0.000000 0.618058 0.385604
0.115832 0.616180 0.383728
0.256551 0.614305 0.381850
0.379970 0.612431 0.379970
0.494534 0.610560 0.378087
0.608690 0.608690 0.376202
0.730883 0.606823 0.374315
0.869558 0.604958 0.372426
1.000000 0.603095 0.370534
0.000000 0.736340 0.379285
0.107604 0.734266 0.377401
0.249493 0.732197 0.375516
0.373628 0.730132 0.373628
0.488454 0.728071 0.371737
0.602417 0.726014 0.369844
0.723962 0.723962 0.367949
0.861535 0.721914 0.366051
1.000000 0.719869 0.364151
0.000000 0.870210 0.372940
0.099299 0.867815 0.371048
0.242383 0.865427 0.369155
0.367259 0.863046 0.367259
0.482371 0.860671 0.365360
0.596165 0.858302 0.363459
0.717087 0.855939 0.361555
0.853582 0.853582 0.359649
1.000000 0.851232 0.357740
0.000000 1.000000 0.366568
0.090917 1.000000 0.364668
0.235221 1.000000 0.362766
0.360861 1.000000 0.360861
0.476284 1.000000 0.358954
0.589934 1.000000 0.357044
0.710257 1.000000 0.355131
0.845699 1.000000 0.353216
1.000000 1.000000 0.351298
0.000000 0.000000 0.531576
0.155093 0.000000 0.529764
0.290430 0.000000 0.527952
0.410694 0.000000 0.526141
0.524331 0.000000 0.524331
0.639786 0.000000 0.522521
0.765505 0.000000 0.520711
0.909934 0.000000 0.518902
1.000000 0.000000 0.517093
0.000000 0.149565 0.525482
0.147217 0.147217 0.523672
0.283604 0.144862 0.521862
0.404465 0.142502 0.520053
0.518244 0.140135 0.518244
0.633386 0.137761 0.516435
0.758338 0.135382 0.514626
0.901544 0.132996 0.512818
1.000000 0.130604 0.511011
0.000000 0.280824 0.519394
0.139271 0.278781 0.517585
0.276734 0.276734 0.515776
0.398215 0.274683 0.513968
0.512160 0.272628 0.512160
0.627014 0.270569 0.510352
0.751223 0.268505 0.508545
0.893231 0.266437 0.506737
1.000000 0.264365 0.504930
0.000000 0.397538 0.513310
0.131255 0.395675 0.511502
0.269818 0.393811 0.509694
0.391944 0.391944 0.507887
0.506079 0.390075 0.506079
0.620669 0.388205 0.504272
0.744159 0.386332 0.502465
0.884995 0.384457 0.500658
1.000000 0.382580 0.498851
0.000000 0.507229 0.507229
0.123167 0.505421 0.505421
0.262854 0.503614 0.503614
0.385650 0.501807 0.501807
0.500000 0.500000 0.500000
0.614350 0.498193 0.498193
0.737146 0.496386 0.496386
0.876833 0.494579 0.494579
1.000000 0.492771 0.492771
0.000000 0.617420 0.501149
0.115005 0.615543 0.499342
0.255841 0.613668 0.497535
0.379331 0.611795 0.495728
0.493921 0.609925 0.493921
0.608056 0.608056 0.492113
0.730182 0.606189 0.490306
0.868745 0.604325 0.488498
1.000000 0.602462 0.486690
0.000000 0.735635 0.495070
0.106769 0.733563 0.493263
0.248777 0.731495 0.491455
0.372986 0.729431 0.489648
0.487840 0.727372 0.487840
0.601785 0.725317 0.486032
0.723266 0.723266 0.484224
0.860729 0.721219 0.482415
1.000000 0.719176 0.480606
0.000000 0.869396 0.488989
0.098456 0.867004 0.487182
0.241662 0.864618 0.485374
0.366614 0.862239 0.483565
0.481756 0.859865 0.481756
0.595535 0.857498 0.479947
0.716396 0.855138 0.478138
0.852783 0.852783 0.476328
1.000000 0.850435 0.474518
0.000000 1.000000 0.482907
0.090066 1.000000 0.481098
0.234495 1.000000 0.479289
0.360214 1.000000 0.477479
0.475669 1.000000 0.475669
0.589306 1.000000 0.473859
0.709570 1.000000 0.472048
0.844907 1.000000 0.470236
1.000000 1.000000 0.468424
0.000000 0.000000 0.648702
0.154301 0.000000 0.646784
0.289743 0.000000 0.644869
0.410066 0.000000 0.642956
0.523716 0.000000 0.641046
0.639139 0.000000 0.639139
0.764779 0.000000 0.637234
0.909083 0.000000 0.635332
1.000000 0.000000 0.633432
0.000000 0.148768 0.642260
0.146418 0.146418 0.640351
0.282913 0.144061 0.638445
0.403835 0.141698 0.636541
0.517629 0.139329 0.634640
0.632741 0.136954 0.632741
0.757617 0.134573 0.630845
0.900701 0.132185 0.628952
1.000000 0.129790 0.627060
0.000000 0.280131 0.635849
0.138465 0.278086 0.633949
0.276038 0.276038 0.632051
0.397583 0.273986 0.630156
0.511546 0.271929 0.628263
0.626372 0.269868 0.626372
0.750507 0.267803 0.624484
0.892396 0.265734 0.622599
1.000000 0.263660 0.620715
0.000000 0.396905 0.629466
0.130442 0.395042 0.627574
0.269117 0.393177 0.625685
0.391310 0.391310 0.623798
0.505466 0.389440 0.621913
0.620030 0.387569 0.620030
0.743449 0.385695 0.618150
0.884168 0.383820 0.616272
1.000000 0.381942 0.614396
0.000000 0.506615 0.623111
0.122346 0.504808 0.621227
0.262148 0.503001 0.619346
0.385013 0.501193 0.617466
0.499386 0.499386 0.615589
0.613714 0.497579 0.613714
0.736441 0.495772 0.611841
0.876013 0.493965 0.609970
1.000000 0.492157 0.608102
0.000000 0.616782 0.616782
0.114177 0.614906 0.614906
0.255130 0.613032 0.613032
0.378691 0.611160 0.611160
0.493307 0.609290 0.609290
0.607422 0.607422 0.607422
0.729482 0.605556 0.605556
0.867932 0.603692 0.603692
1.000000 0.601830 0.601830
0.000000 0.734931 0.610479
0.105933 0.732860 0.608610
0.248061 0.730794 0.606742
0.372344 0.728732 0.604877
0.487226 0.726674 0.603014
0.601153 0.724620 0.601153
0.722570 0.722570 0.599294
0.859923 0.720525 0.597436
1.000000 0.718483 0.595581
0.000000 0.868583 0.604199
0.097613 0.866193 0.602336
0.240941 0.863809 0.600476
0.365969 0.861432 0.598617
0.481142 0.859061 0.596760
0.594905 0.856696 0.594905
0.715705 0.854337 0.593052
0.851985 0.851985 0.591201
1.000000 0.849639 0.589351
0.000000 1.000000 0.597941
0.089215 1.000000 0.596085
0.233768 1.000000 0.594231
0.359566 1.000000 0.592378
0.475054 1.000000 0.590527
0.588678 1.000000 0.588678
0.708884 1.000000 0.586831
0.844116 1.000000 0.584986
1.000000 1.000000 0.583142
0.000000 0.000000 0.776953
0.153508 0.000000 0.774791
0.289055 0.000000 0.772634
0.409438 0.000000 0.770482
0.523101 0.000000 0.768334
0.638492 0.000000 0.766192
0.764054 0.000000 0.764054
0.908233 0.000000 0.761921
1.000000 0.000000 0.759792
0.000000 0.147971 0.769699
0.145618 0.145618 0.767554
0.282221 0.143260 0.765413
0.403205 0.140895 0.763277
0.517015 0.138523 0.761145
0.632097 0.136146 0.759019
0.756897 0.133762 0.756897
0.899859 0.131372 0.754780
1.000000 0.128976 0.752667
0.000000 0.279437 0.762500
0.137659 0.277391 0.760371
0.275342 0.275342 0.758246
0.396951 0.273288 0.756126
0.510932 0.271230 0.754010
0.625731 0.269167 0.751899
0.749793 0.267101 0.749793
0.891562 0.265030 0.747691
1.000000 0.262955 0.745593
0.000000 0.396273 0.755355
0.129628 0.394409 0.753241
0.268416 0.392543 0.751132
0.390675 0.390675 0.749027
0.504852 0.388805 0.746927
0.619392 0.386933 0.744831
0.742739 0.385059 0.742739
0.883341 0.383182 0.740653
1.000000 0.381304 0.738570
0.000000 0.506001 0.748262
0.121525 0.504194 0.746163
0.261442 0.502387 0.744069
0.384376 0.500580 0.741979
0.498773 0.498773 0.739894
0.613078 0.496965 0.737813
0.735736 0.495158 0.735736
0.875194 0.493351 0.733664
1.000000 0.491544 0.731596
0.000000 0.616145 0.741220
0.113348 0.614269 0.739136
0.254419 0.612396 0.737057
0.378052 0.610524 0.734981
0.492693 0.608655 0.732911
0.606788 0.606788 0.730844
0.728782 0.604923 0.728782
0.867121 0.603060 0.726724
1.000000 0.601198 0.724670
0.000000 0.734227 0.734227
0.105096 0.732158 0.732158
0.247345 0.730093 0.730093
0.371702 0.728032 0.728032
0.486612 0.725976 0.725976
0.600521 0.723923 0.723923
0.721875 0.721875 0.721875
0.859119 0.719831 0.719831
1.000000 0.717791 0.717791
0.000000 0.867770 0.727283
0.096768 0.865383 0.725228
0.240220 0.863001 0.723177
0.365324 0.860626 0.721130
0.480528 0.858257 0.719088
0.594276 0.855894 0.717049
0.715014 0.853538 0.715014
0.851187 0.851187 0.712983
1.000000 0.848843 0.710956
0.000000 1.000000 0.720386
0.088363 1.000000 0.718345
0.233041 1.000000 0.716308
0.358918 1.000000 0.714274
0.474440 1.000000 0.712245
0.588051 1.000000 0.710219
0.708198 1.000000 0.708198
0.843325 1.000000 0.706180
1.000000 1.000000 0.704166
0.000000 0.000000 0.925046
0.152715 0.000000 0.922501
0.288367 0.000000 0.919964
0.408809 0.000000 0.917434
0.522487 0.000000 0.914911
0.637845 0.000000 0.912396
0.763329 0.000000 0.909887
0.907385 0.000000 0.907385
1.000000 0.000000 0.904890
0.000000 0.147173 0.916515
0.144818 0.144818 0.913995
0.281529 0.142457 0.911481
0.402574 0.140090 0.908975
0.516401 0.137717 0.906475
0.631453 0.135337 0.903983
0.756177 0.132951 0.901497
0.899018 0.130559 0.899018
1.000000 0.128160 0.896546
0.000000 0.278743 0.908064
0.136851 0.276696 0.905567
0.274644 0.274644 0.903077
0.396318 0.272589 0.900594
0.510318 0.270530 0.898118
0.625090 0.268466 0.895648
0.749078 0.266398 0.893185
0.890729 0.264326 0.890729
1.000000 0.262250 0.888280
0.000000 0.395640 0.899692
0.128813 0.393775 0.897218
0.267714 0.391909 0.894751
0.390040 0.390040 0.892290
0.504238 0.388169 0.889836
0.618753 0.386297 0.887389
0.742030 0.384422 0.884949
0.882515 0.382544 0.882515
1.000000 0.380665 0.880088
0.000000 0.505387 0.891396
0.120703 0.503580 0.888945
0.260735 0.501773 0.886500
0.383738 0.499966 0.884062
0.498159 0.498159 0.881631
0.612442 0.496352 0.879206
0.735032 0.494545 0.876788
0.874376 0.492737 0.874376
1.000000 0.490930 0.871971
0.000000 0.615508 0.883176
0.112519 0.613633 0.880747
0.253707 0.611760 0.878325
0.377412 0.609889 0.875909
0.492079 0.608021 0.873499
0.606154 0.606154 0.871096
0.728083 0.604290 0.868700
0.866310 0.602427 0.866310
1.000000 0.600567 0.863926
0.000000 0.733524 0.875031
0.104259 0.731456 0.872624
0.246628 0.729393 0.870223
0.371059 0.727333 0.867829
0.485998 0.725278 0.865441
0.599890 0.723227 0.863059
0.721180 0.721180 0.860684
0.858315 0.719137 0.858315
1.000000 0.717099 0.855952
0.000000 0.866959 0.866959
0.095923 0.864573 0.864573
0.239497 0.862194 0.862194
0.364679 0.859821 0.859821
0.479913 0.857454 0.857454
0.593647 0.855093 0.855093
0.714324 0.852739 0.852739
0.850391 0.850391 0.850391
1.000000 0.848048 0.848048
0.000000 1.000000 0.858958
0.087510 1.000000 0.856594
0.232313 1.000000 0.854235
0.358270 1.000000 0.851883
0.473825 1.000000 0.849537
0.587424 1.000000 0.847197
0.707512 1.000000 0.844863
0.842535 1.000000 0.842535
1.000000 1.000000 0.840213
0.000000 0.000000 1.000000
0.151921 0.000000 1.000000
0.287679 0.000000 1.000000
0.408181 0.000000 1.000000
0.521872 0.000000 1.000000
0.637198 0.000000 1.000000
0.762605 0.000000 1.000000
0.906536 0.000000 1.000000
1.000000 0.000000 1.000000
0.000000 0.146374 1.000000
0.144017 0.144017 1.000000
0.280836 0.141654 1.000000
0.401944 0.139285 1.000000
0.515787 0.136909 1.000000
0.630810 0.134528 1.000000
0.755458 0.132140 1.000000
0.898178 0.129745 1.000000
1.000000 0.127344 1.000000
0.000000 0.278048 1.000000
0.136043 0.276000 1.000000
0.273947 0.273947 1.000000
0.395686 0.271890 1.000000
0.509704 0.269829 1.000000
0.624449 0.267764 1.000000
0.748364 0.265695 1.000000
0.889896 0.263621 1.000000
1.000000 0.261543 1.000000
0.000000 0.395007 1.000000
0.127998 0.393142 1.000000
0.267011 0.391274 1.000000
0.389405 0.389405 1.000000
0.503624 0.387534 1.000000
0.618115 0.385660 1.000000
0.741322 0.383784 1.000000
0.881690 0.381906 1.000000
1.000000 0.380026 1.000000
0.000000 0.504774 1.000000
0.119880 0.502967 1.000000
0.260028 0.501159 1.000000
0.383101 0.499352 1.000000
0.497545 0.497545 1.000000
0.611806 0.495738 1.000000
0.734328 0.493931 1.000000
0.873558 0.492123 1.000000
1.000000 0.490316 1.000000
0.000000 0.614871 1.000000
0.111688 0.612997 1.000000
0.252995 0.611125 1.000000
0.376772 0.609255 1.000000
0.491465 0.607387 1.000000
0.605521 0.605521 1.000000
0.727384 0.603657 1.000000
0.865499 0.601795 1.000000
1.000000 0.599935 1.000000
0.000000 0.732821 1.000000
0.103421 0.730755 1.000000
0.245911 0.728693 1.000000
0.370416 0.726635 1.000000
0.485384 0.724581 1.000000
0.599259 0.722532 1.000000
0.720486 0.720486 1.000000
0.857512 0.718445 1.000000
1.000000 0.716407 1.000000
0.000000 0.866148 1.000000
0.095078 0.863764 1.000000
0.238774 0.861387 1.000000
0.364033 0.859016 1.000000
0.479299 0.856652 1.000000
0.593018 0.854293 1.000000
0.713634 0.851941 1.000000
0.849595 0.849595 1.000000
1.000000 0.847254 1.000000
0.000000 1.000000 1.000000
0.086656 1.000000 1.000000
0.231585 1.000000 1.000000
0.357621 1.000000 1.000000
0.473210 1.000000 1.000000
0.586796 1.000000 1.000000
0.706827 1.000000 1.000000
0.841746 1.000000 1.000000
1.000000 1.000000 1.000000
