app/luts/neutral.cube
# neutral LUT — Protect Timelapse
LUT_3D_SIZE 17
DOMAIN_MIN 0.0 0.0 0.0
DOMAIN_MAX 1.0 1.0 1.0
0.000000 0.000000 0.000000
0.082572 0.000000 0.000000
0.158254 0.000000 0.000000
0.228102 0.000000 0.000000
0.293173 0.000000 0.000000
0.354522 0.000000 0.000000
0.413204 0.000000 0.000000
0.470275 0.000000 0.000000
0.526790 0.000000 0.000000
0.583807 0.000000 0.000000
0.642379 0.000000 0.000000
0.703563 0.000000 0.000000
0.768415 0.000000 0.000000
0.837990 0.000000 0.000000
0.913344 0.000000 0.000000
0.995532 0.000000 0.000000
1.000000 0.000000 0.000000
0.000000 0.079580 0.000000
0.078312 0.078312 0.000000
0.154338 0.077042 0.000000
0.224474 0.075770 0.000000
0.289775 0.074496 0.000000
0.351297 0.073221 0.000000
0.410095 0.071944 0.000000
0.467226 0.070665 0.000000
0.523745 0.069384 0.000000
0.580708 0.068101 0.000000
0.639169 0.066817 0.000000
0.700186 0.065531 0.000000
0.764814 0.064242 0.000000
0.834107 0.062953 0.000000
0.909123 0.061661 0.000000
0.990917 0.060367 0.000000
1.000000 0.059072 0.000000
0.000000 0.152746 0.000000
0.074032 0.151576 0.000000
0.150405 0.150405 0.000000
0.220831 0.149233 0.000000
0.286366 0.148059 0.000000
0.348064 0.146884 0.000000
0.406982 0.145707 0.000000
0.464176 0.144528 0.000000
0.520701 0.143348 0.000000
0.577613 0.142167 0.000000
0.635967 0.140984 0.000000
0.696819 0.139799 0.000000
0.761226 0.138613 0.000000
0.830241 0.137425 0.000000
0.904922 0.136236 0.000000
0.986324 0.135045 0.000000
1.000000 0.133852 0.000000
0.000000 0.220436 0.000000
0.069732 0.219350 0.000000
0.146456 0.218263 0.000000
0.217175 0.217175 0.000000
0.282945 0.216085 0.000000
0.344824 0.214994 0.000000
0.403865 0.213902 0.000000
0.461124 0.212808 0.000000
0.517658 0.211713 0.000000
0.574522 0.210617 0.000000
0.632772 0.209520 0.000000
0.693463 0.208421 0.000000
0.757651 0.207321 0.000000
0.826392 0.206220 0.000000
0.900741 0.205117 0.000000
0.981754 0.204013 0.000000
1.000000 0.202908 0.000000
0.000000 0.283593 0.000000
0.065412 0.282575 0.000000
0.142488 0.281555 0.000000
0.213504 0.280535 0.000000
0.279514 0.279514 0.000000
0.341575 0.278492 0.000000
0.400741 0.277468 0.000000
0.458070 0.276444 0.000000
0.514616 0.275419 0.000000
0.571436 0.274392 0.000000
0.629584 0.273365 0.000000
0.690117 0.272337 0.000000
0.754089 0.271307 0.000000
0.822558 0.270277 0.000000
0.896579 0.269245 0.000000
0.977206 0.268212 0.000000
1.000000 0.267179 0.000000
0.000000 0.343156 0.000000
0.061071 0.342189 0.000000
0.138503 0.341223 0.000000
0.209818 0.340255 0.000000
0.276071 0.339286 0.000000
0.338317 0.338317 0.000000
0.397613 0.337347 0.000000
0.455014 0.336377 0.000000
0.511575 0.335405 0.000000
0.568353 0.334433 0.000000
0.626403 0.333460 0.000000
0.686780 0.332486 0.000000
0.750541 0.331512 0.000000
0.818741 0.330537 0.000000
0.892436 0.329560 0.000000
0.972681 0.328584 0.000000
1.000000 0.327606 0.000000
0.000000 0.400065 0.000000
0.056709 0.399135 0.000000
0.134501 0.398205 0.000000
0.206118 0.397274 0.000000
0.272616 0.396343 0.000000
0.335051 0.395411 0.000000
0.394479 0.394479 0.000000
0.451955 0.393546 0.000000
0.508535 0.392613 0.000000
0.565274 0.391680 0.000000
0.623228 0.390745 0.000000
0.683454 0.389811 0.000000
0.747005 0.388875 0.000000
0.814940 0.387940 0.000000
0.888312 0.387003 0.000000
0.968177 0.386067 0.000000
1.000000 0.385129 0.000000
0.000000 0.455261 0.000000
0.052326 0.454352 0.000000
0.130480 0.453443 0.000000
0.202403 0.452533 0.000000
0.269150 0.451624 0.000000
0.331777 0.450714 0.000000
0.391340 0.449804 0.000000
0.448894 0.448894 0.000000
0.505495 0.447983 0.000000
0.562198 0.447072 0.000000
0.620060 0.446161 0.000000
0.680137 0.445250 0.000000
0.743483 0.444338 0.000000
0.811154 0.443426 0.000000
0.884207 0.442514 0.000000
0.963696 0.441602 0.000000
1.000000 0.440689 0.000000
0.000000 0.509684 0.000000
0.047922 0.508780 0.000000
0.126442 0.507877 0.000000
0.198673 0.506973 0.000000
0.265672 0.506069 0.000000
0.328493 0.505166 0.000000
0.388194 0.504262 0.000000
0.445829 0.503358 0.000000
0.502455 0.502455 0.000000
0.559126 0.501551 0.000000
0.616899 0.500648 0.000000
0.676829 0.499744 0.000000
0.739972 0.498841 0.000000
0.807384 0.497937 0.000000
0.880120 0.497033 0.000000
0.959236 0.496130 0.000000
1.000000 0.495226 0.000000
0.000000 0.564275 0.000000
0.043497 0.563361 0.000000
0.122385 0.562447 0.000000
0.194928 0.561533 0.000000
0.262181 0.560620 0.000000
0.325201 0.559707 0.000000
0.385043 0.558794 0.000000
0.442762 0.557881 0.000000
0.499415 0.556969 0.000000
0.556057 0.556057 0.000000
0.613744 0.555145 0.000000
0.673531 0.554234 0.000000
0.736474 0.553323 0.000000
0.803629 0.552412 0.000000
0.876052 0.551501 0.000000
0.954798 0.550591 0.000000
1.000000 0.549681 0.000000
0.000000 0.619974 0.000000
0.039050 0.619033 0.000000
0.118310 0.618094 0.000000
0.191167 0.617154 0.000000
0.258678 0.616216 0.000000
0.321899 0.615277 0.000000
0.381885 0.614340 0.000000
0.439692 0.613403 0.000000
0.496376 0.612466 0.000000
0.552991 0.611530 0.000000
0.610595 0.610595 0.000000
0.670242 0.609660 0.000000
0.732989 0.608726 0.000000
0.799890 0.607792 0.000000
0.872002 0.606858 0.000000
0.950381 0.605925 0.000000
1.000000 0.604993 0.000000
0.000000 0.677721 0.000000
0.034582 0.676739 0.000000
0.114216 0.675757 0.000000
0.187391 0.674777 0.000000
0.255163 0.673797 0.000000
0.318588 0.672818 0.000000
0.378721 0.671840 0.000000
0.436619 0.670863 0.000000
0.493336 0.669887 0.000000
0.549928 0.668911 0.000000
0.607452 0.667936 0.000000
0.666962 0.666962 0.000000
0.729515 0.665989 0.000000
0.796166 0.665016 0.000000
0.867971 0.664044 0.000000
0.945985 0.663073 0.000000
1.000000 0.662103 0.000000
0.000000 0.738457 0.000000
0.030092 0.737417 0.000000
0.110104 0.736379 0.000000
0.183599 0.735341 0.000000
0.251636 0.734305 0.000000
0.315268 0.733270 0.000000
0.375551 0.732236 0.000000
0.433542 0.731203 0.000000
0.490296 0.730171 0.000000
0.546868 0.729140 0.000000
0.604314 0.728110 0.000000
0.663691 0.727081 0.000000
0.726053 0.726053 0.000000
0.792457 0.725026 0.000000
0.863957 0.724000 0.000000
0.941610 0.722976 0.000000
1.000000 0.721952 0.000000
0.000000 0.803121 0.000000
0.025580 0.802009 0.000000
0.105972 0.800898 0.000000
0.179792 0.799788 0.000000
0.248095 0.798679 0.000000
0.311937 0.797572 0.000000
0.372374 0.796466 0.000000
0.430461 0.795362 0.000000
0.487255 0.794259 0.000000
0.543810 0.793157 0.000000
0.601183 0.792056 0.000000
0.660428 0.790957 0.000000
0.722603 0.789859 0.000000
0.788762 0.788762 0.000000
0.859961 0.787667 0.000000
0.937256 0.786572 0.000000
1.000000 0.785480 0.000000
0.000000 0.872656 0.000000
0.021046 0.871454 0.000000
0.101822 0.870255 0.000000
0.175969 0.869057 0.000000
0.244542 0.867860 0.000000
0.308597 0.866666 0.000000
0.369190 0.865472 0.000000
0.427377 0.864281 0.000000
0.484213 0.863091 0.000000
0.540754 0.861902 0.000000
0.598056 0.860715 0.000000
0.657174 0.859530 0.000000
0.719164 0.858346 0.000000
0.785082 0.857164 0.000000
0.855983 0.855983 0.000000
0.932923 0.854804 0.000000
1.000000 0.853626 0.000000
0.000000 0.947999 0.000000
0.016490 0.946694 0.000000
0.097652 0.945390 0.000000
0.172129 0.944089 0.000000
0.240975 0.942789 0.000000
0.305247 0.941491 0.000000
0.366000 0.940194 0.000000
0.424289 0.938900 0.000000
0.481171 0.937607 0.000000
0.537701 0.936317 0.000000
0.594935 0.935028 0.000000
0.653929 0.933741 0.000000
0.715737 0.932456 0.000000
0.781417 0.931172 0.000000
0.852023 0.929891 0.000000
0.928611 0.928611 0.000000
1.000000 0.927333 0.000000
0.000000 1.000000 0.000000
0.011911 1.000000 0.000000
0.093464 1.000000 0.000000
0.168273 1.000000 0.000000
0.237395 1.000000 0.000000
0.301886 1.000000 0.000000
0.362802 1.000000 0.000000
0.421197 1.000000 0.000000
0.478128 1.000000 0.000000
0.534650 1.000000 0.000000
0.591819 1.000000 0.000000
0.650691 1.000000 0.000000
0.712321 1.000000 0.000000
0.777765 1.000000 0.000000
0.848079 1.000000 0.000000
0.924319 1.000000 0.000000
1.000000 1.000000 0.000000
0.000000 0.000000 0.083405
0.082142 0.000000 0.082142
0.157859 0.000000 0.080878
0.227737 0.000000 0.079611
0.292831 0.000000 0.078343
0.354196 0.000000 0.077073
0.412890 0.000000 0.075801
0.469967 0.000000 0.074528
0.526483 0.000000 0.073252
0.583494 0.000000 0.071975
0.642055 0.000000 0.070696
0.703222 0.000000 0.069415
0.768051 0.000000 0.068133
0.837597 0.000000 0.066848
0.912917 0.000000 0.065562
0.995065 0.000000 0.064274
1.000000 0.000000 0.062984
0.000000 0.079150 0.079150
0.077881 0.077881 0.077881
0.153942 0.076610 0.076610
0.224107 0.075338 0.075338
0.289431 0.074063 0.074063
0.350971 0.072787 0.072787
0.409781 0.071510 0.071510
0.466918 0.070230 0.070230
0.523438 0.068949 0.068949
0.580395 0.067665 0.067665
0.638846 0.066380 0.066380
0.699846 0.065093 0.065093
0.764451 0.063805 0.063805
0.833716 0.062514 0.062514
0.908698 0.061222 0.061222
0.990452 0.059927 0.059927
1.000000 0.058631 0.058631
0.000000 0.152349 0.074874
0.073599 0.151179 0.073599
0.150008 0.150008 0.072322
0.220463 0.148835 0.071044
0.286021 0.147660 0.069764
0.347737 0.146484 0.068482
0.406668 0.145307 0.067198
0.463868 0.144128 0.065912
0.520394 0.142947 0.064624
0.577301 0.141765 0.063335
0.635644 0.140582 0.062044
0.696480 0.139396 0.060751
0.760864 0.138210 0.059456
0.829852 0.137021 0.058159
0.904499 0.135831 0.056861
0.985862 0.134640 0.055560
1.000000 0.133447 0.054258
0.000000 0.220068 0.070578
0.069297 0.218981 0.069297
0.146056 0.217894 0.068014
0.216805 0.216805 0.066730
0.282600 0.215715 0.065443
0.344496 0.214623 0.064155
0.403550 0.213530 0.062865
0.460816 0.212436 0.061573
0.517351 0.211341 0.060279
0.574210 0.210245 0.058984
0.632450 0.209147 0.057687
0.693125 0.208047 0.056387
0.757291 0.206947 0.055086
0.826004 0.205845 0.053783
0.900320 0.204742 0.052478
0.981294 0.203638 0.051172
1.000000 0.202532 0.049863
0.000000 0.283247 0.066262
0.064975 0.282229 0.064975
0.142087 0.281209 0.063686
0.213132 0.280188 0.062395
0.279167 0.279167 0.061102
0.341246 0.278144 0.059808
0.400426 0.277121 0.058512
0.457762 0.276096 0.057214
0.514309 0.275070 0.055914
0.571124 0.274044 0.054612
0.629262 0.273016 0.053308
0.689779 0.271987 0.052003
0.753731 0.270957 0.050696
0.822172 0.269926 0.049386
0.896160 0.268894 0.048075
0.976749 0.267862 0.046762
1.000000 0.266827 0.045447
0.000000 0.342828 0.061925
0.060631 0.341861 0.060631
0.138100 0.340894 0.059336
0.209445 0.339926 0.058039
0.275723 0.338957 0.056741
0.337988 0.337988 0.055440
0.397297 0.337018 0.054138
0.454705 0.336047 0.052833
0.511268 0.335075 0.051527
0.568042 0.334103 0.050219
0.626082 0.333130 0.048909
0.686444 0.332156 0.047598
0.750184 0.331181 0.046284
0.818357 0.330205 0.044968
0.892019 0.329229 0.043651
0.972225 0.328252 0.042332
1.000000 0.327274 0.041010
0.000000 0.399749 0.057567
0.056267 0.398819 0.056267
0.134096 0.397889 0.054966
0.205744 0.396958 0.053663
0.272267 0.396027 0.052358
0.334721 0.395095 0.051051
0.394162 0.394162 0.049743
0.451646 0.393230 0.048432
0.508228 0.392296 0.047119
0.564963 0.391362 0.045805
0.622908 0.390428 0.044489
0.683118 0.389493 0.043171
0.746649 0.388558 0.041851
0.814557 0.387622 0.040529
0.887896 0.386685 0.039205
0.967724 0.385748 0.037879
1.000000 0.384811 0.036552
0.000000 0.454952 0.053188
0.051883 0.454043 0.051883
0.130073 0.453134 0.050575
0.202027 0.452224 0.049266
0.268799 0.451315 0.047954
0.331446 0.450405 0.046641
0.391022 0.449495 0.045326
0.448584 0.448584 0.044009
0.505188 0.447674 0.042690
0.561888 0.446763 0.041370
0.619741 0.445852 0.040047
0.679802 0.444940 0.038723
0.743128 0.444029 0.037396
0.810773 0.443117 0.036068
0.883793 0.442204 0.034738
0.963245 0.441292 0.033405
1.000000 0.440379 0.032071
0.000000 0.509377 0.048788
0.047476 0.508473 0.047476
0.126033 0.507570 0.046163
0.198295 0.506666 0.044847
0.265320 0.505762 0.043529
0.328161 0.504859 0.042210
0.387876 0.503955 0.040888
0.445520 0.503052 0.039565
0.502148 0.502148 0.038240
0.558816 0.501244 0.036913
0.616580 0.500341 0.035584
0.676496 0.499437 0.034253
0.739619 0.498534 0.032920
0.807004 0.497630 0.031585
0.879709 0.496727 0.030248
0.958787 0.495823 0.028910
1.000000 0.494919 0.027569
0.000000 0.563964 0.044367
0.043049 0.563050 0.043049
0.121974 0.562136 0.041729
0.194549 0.561223 0.040407
0.261828 0.560310 0.039083
0.324868 0.559397 0.037757
0.384724 0.558484 0.036429
0.442452 0.557572 0.035099
0.499108 0.556659 0.033768
0.555748 0.555748 0.032434
0.613426 0.554836 0.031099
0.673199 0.553925 0.029761
0.736122 0.553014 0.028422
0.803251 0.552103 0.027080
0.875642 0.551192 0.025737
0.954351 0.550282 0.024392
1.000000 0.549372 0.023045
0.000000 0.619654 0.039925
0.038600 0.618714 0.038600
0.117897 0.617775 0.037274
0.190787 0.616835 0.035945
0.258324 0.615897 0.034615
0.321565 0.614959 0.033282
0.381566 0.614022 0.031948
0.439382 0.613085 0.030612
0.496069 0.612148 0.029274
0.552682 0.611213 0.027934
0.610277 0.610277 0.026592
0.669911 0.609343 0.025248
0.732637 0.608408 0.023902
0.799513 0.607475 0.022554
0.871594 0.606541 0.021204
0.949936 0.605609 0.019852
1.000000 0.604676 0.018498
0.000000 0.677387 0.035461
0.034130 0.676405 0.034130
0.113802 0.675424 0.032797
0.187009 0.674444 0.031462
0.254808 0.673465 0.030125
0.318253 0.672486 0.028786
0.378402 0.671508 0.027445
0.436308 0.670531 0.026103
0.493029 0.669555 0.024758
0.549619 0.668580 0.023411
0.607135 0.667605 0.022063
0.666631 0.666631 0.020712
0.729165 0.665658 0.019359
0.795791 0.664686 0.018005
0.867565 0.663715 0.016648
0.945542 0.662744 0.015290
1.000000 0.661774 0.013929
0.000000 0.738103 0.030975
0.029638 0.737064 0.029638
0.109687 0.736026 0.028298
0.183216 0.734989 0.026957
0.251279 0.733953 0.025613
0.314932 0.732919 0.024268
0.375231 0.731885 0.022920
0.433231 0.730852 0.021571
0.489989 0.729820 0.020220
0.546559 0.728790 0.018866
0.603998 0.727760 0.017511
0.663361 0.726732 0.016154
0.725704 0.725704 0.014795
0.792083 0.724678 0.013434
0.863553 0.723652 0.012070
0.941170 0.722628 0.010705
1.000000 0.721605 0.009338
0.000000 0.802743 0.026468
0.025124 0.801631 0.025124
0.105554 0.800521 0.023777
0.179407 0.799411 0.022429
0.247737 0.798303 0.021079
0.311600 0.797196 0.019727
0.372053 0.796091 0.018373
0.430150 0.794987 0.017017
0.486948 0.793884 0.015659
0.543501 0.792783 0.014299
0.600867 0.791683 0.012938
0.660099 0.790584 0.011574
0.722255 0.789486 0.010208
0.788390 0.788390 0.008840
0.859559 0.787295 0.007470
0.936818 0.786201 0.006098
1.000000 0.785109 0.004724
0.000000 0.872247 0.021938
0.020587 0.871047 0.020587
0.101402 0.869848 0.019235
0.175582 0.868650 0.017880
0.244182 0.867454 0.016523
0.308259 0.866260 0.015165
0.368869 0.865068 0.013804
0.427066 0.863876 0.012441
0.483906 0.862687 0.011077
0.540446 0.861499 0.009710
0.597741 0.860313 0.008341
0.656846 0.859128 0.006971
0.718818 0.857944 0.005598
0.784711 0.856763 0.004223
0.855583 0.855583 0.002847
0.932487 0.854404 0.001468
1.000000 0.853227 0.000087
0.000000 0.947556 0.017386
0.016029 0.946251 0.016029
0.097230 0.944948 0.014669
0.171740 0.943647 0.013308
0.240614 0.942348 0.011945
0.304908 0.941050 0.010579
0.365677 0.939755 0.009212
0.423977 0.938461 0.007843
0.480864 0.937169 0.006471
0.537393 0.935879 0.005098
0.594620 0.934591 0.003722
0.653601 0.933304 0.002345
0.715392 0.932020 0.000965
0.781047 0.930737 0.000000
0.851624 0.929456 0.000000
0.928176 0.928176 0.000000
1.000000 0.926899 0.000000
0.000000 1.000000 0.012812
0.011448 1.000000 0.011448
0.093040 1.000000 0.010082
0.167883 1.000000 0.008714
0.237033 1.000000 0.007343
0.301547 1.000000 0.005971
0.362478 1.000000 0.004597
0.420885 1.000000 0.003221
0.477821 1.000000 0.001843
0.534342 1.000000 0.000463
0.591505 1.000000 0.000000
0.650365 1.000000 0.000000
0.711977 1.000000 0.000000
0.777398 1.000000 0.000000
0.847682 1.000000 0.000000
0.923886 1.000000 0.000000
1.000000 1.000000 0.000000
0.000000 0.000000 0.159787
0.081713 0.000000 0.158626
0.157465 0.000000 0.157465
0.227371 0.000000 0.156301
0.292488 0.000000 0.155137
0.353871 0.000000 0.153970
0.412576 0.000000 0.152803
0.469659 0.000000 0.151634
0.526175 0.000000 0.150463
0.583181 0.000000 0.149291
0.641730 0.000000 0.148117
0.702881 0.000000 0.146941
0.767687 0.000000 0.145765
0.837205 0.000000 0.144586
0.912490 0.000000 0.143406
0.994598 0.000000 0.142225
1.000000 0.000000 0.141042
0.000000 0.078719 0.155878
0.077450 0.077450 0.154712
0.153546 0.076178 0.153546
0.223740 0.074905 0.152377
0.289088 0.073630 0.151207
0.350645 0.072354 0.150036
0.409467 0.071075 0.148863
0.466611 0.069795 0.147689
0.523130 0.068513 0.146513
0.580082 0.067229 0.145336
0.638522 0.065943 0.144157
0.699505 0.064656 0.142976
0.764088 0.063367 0.141794
0.833325 0.062075 0.140611
0.908273 0.060782 0.139425
0.989988 0.059488 0.138239
1.000000 0.058191 0.137050
0.000000 0.151952 0.151952
0.073166 0.150781 0.150781
0.149609 0.149609 0.149609
0.220094 0.148436 0.148436
0.285676 0.147261 0.147261
0.347411 0.146085 0.146085
0.406353 0.144907 0.144907
0.463560 0.143727 0.143727
0.520087 0.142546 0.142546
0.576988 0.141363 0.141363
0.635321 0.140179 0.140179
0.696141 0.138993 0.138993
0.760503 0.137806 0.137806
0.829463 0.136617 0.136617
0.904077 0.135427 0.135427
0.985400 0.134235 0.134235
1.000000 0.133041 0.133041
0.000000 0.219699 0.148008
0.068862 0.218612 0.146833
0.145656 0.217524 0.145656
0.216435 0.216435 0.144477
0.282254 0.215344 0.143297
0.344168 0.214252 0.142116
0.403234 0.213159 0.140932
0.460508 0.212065 0.139748
0.517044 0.210969 0.138561
0.573899 0.209872 0.137374
0.632128 0.208774 0.136184
0.692786 0.207674 0.134993
0.756931 0.206573 0.133800
0.825616 0.205471 0.132606
0.899899 0.204367 0.131410
0.980834 0.203262 0.130213
1.000000 0.202156 0.129014
0.000000 0.282901 0.144048
0.064537 0.281882 0.142867
0.141685 0.280863 0.141685
0.212761 0.279842 0.140501
0.278820 0.278820 0.139316
0.340918 0.277797 0.138129
0.400110 0.276773 0.136941
0.457453 0.275748 0.135751
0.514002 0.274722 0.134559
0.570813 0.273695 0.133366
0.628941 0.272667 0.132171
0.689442 0.271637 0.130975
0.753372 0.270607 0.129777
0.821786 0.269576 0.128577
0.895741 0.268544 0.127376
0.976291 0.267510 0.126173
1.000000 0.266476 0.124969
0.000000 0.342499 0.140070
0.060192 0.341533 0.138884
0.137697 0.340565 0.137697
0.209072 0.339597 0.136508
0.275374 0.338628 0.135317
0.337659 0.337659 0.134125
0.396981 0.336688 0.132931
0.454396 0.335717 0.131736
0.510961 0.334745 0.130539
0.567731 0.333772 0.129340
0.625761 0.332799 0.128140
0.686108 0.331825 0.126938
0.749826 0.330849 0.125735
0.817972 0.329874 0.124530
0.891602 0.328897 0.123324
0.971770 0.327920 0.122115
1.000000 0.326941 0.120906
0.000000 0.399433 0.136074
0.055826 0.398503 0.134883
0.133690 0.397573 0.133690
0.205369 0.396642 0.132496
0.271917 0.395710 0.131300
0.334391 0.394778 0.130103
0.393846 0.393846 0.128904
0.451337 0.392913 0.127703
0.507921 0.391979 0.126501
0.564653 0.391045 0.125297
0.622588 0.390111 0.124091
0.682783 0.389175 0.122884
0.746293 0.388240 0.121675
0.814174 0.387304 0.120465
0.887481 0.386367 0.119253
0.967271 0.385430 0.118039
1.000000 0.384492 0.116824
0.000000 0.454643 0.132061
0.051439 0.453734 0.130864
0.129666 0.452825 0.129666
0.201651 0.451916 0.128467
0.268449 0.451006 0.127265
0.331115 0.450096 0.126062
0.390705 0.449186 0.124858
0.448275 0.448275 0.123652
0.504881 0.447364 0.122444
0.561578 0.446453 0.121235
0.619422 0.445542 0.120024
0.679468 0.444631 0.118811
0.742773 0.443719 0.117597
0.810392 0.442807 0.116381
0.883380 0.441895 0.115163
0.962794 0.440982 0.113944
1.000000 0.440069 0.112723
0.000000 0.509070 0.128029
0.047031 0.508166 0.126828
0.125624 0.507263 0.125624
0.197918 0.506359 0.124419
0.264968 0.505455 0.123212
0.327829 0.504552 0.122004
0.387558 0.503648 0.120794
0.445210 0.502745 0.119582
0.501841 0.501841 0.118369
0.558506 0.500938 0.117154
0.616262 0.500034 0.115938
0.676163 0.499130 0.114720
0.739265 0.498227 0.113500
0.806625 0.497323 0.112278
0.879297 0.496420 0.111055
0.958338 0.495516 0.109830
1.000000 0.494613 0.108604
0.000000 0.563654 0.123980
0.042601 0.562740 0.122773
0.121564 0.561826 0.121564
0.194170 0.560913 0.120353
0.261475 0.560000 0.119141
0.324535 0.559087 0.117927
0.384406 0.558174 0.116712
0.442143 0.557262 0.115494
0.498801 0.556350 0.114276
0.555438 0.555438 0.113055
0.613108 0.554526 0.111833
0.672866 0.553615 0.110609
0.735770 0.552704 0.109384
0.802873 0.551793 0.108157
0.875233 0.550883 0.106928
0.953904 0.549973 0.105698
1.000000 0.549063 0.104466
0.000000 0.619335 0.119912
0.038150 0.618395 0.118699
0.117485 0.617456 0.117485
0.190406 0.616517 0.116269
0.257970 0.615578 0.115051
0.321231 0.614641 0.113832
0.381247 0.613703 0.112611
0.439072 0.612767 0.111388
0.495762 0.611831 0.110164
0.552373 0.610895 0.108938
0.609960 0.609960 0.107710
0.669579 0.609025 0.106480
0.732286 0.608091 0.105249
0.799137 0.607158 0.104017
0.871187 0.606225 0.102782
0.949491 0.605292 0.101546
1.000000 0.604360 0.100308
0.000000 0.677054 0.115825
0.033677 0.676072 0.114607
0.113387 0.675091 0.113387
0.186627 0.674111 0.112166
0.254452 0.673132 0.110942
0.317918 0.672154 0.109717
0.378082 0.671177 0.108491
0.435998 0.670200 0.107262
0.492722 0.669224 0.106033
0.549310 0.668249 0.104801
0.606818 0.667274 0.103568
0.666301 0.666301 0.102333
0.728815 0.665328 0.101096
0.795416 0.664356 0.099857
0.867159 0.663385 0.098617
0.945100 0.662414 0.097375
1.000000 0.661445 0.096132
0.000000 0.737750 0.111720
0.029183 0.736712 0.110497
0.109271 0.735674 0.109271
0.182832 0.734637 0.108044
0.250922 0.733602 0.106815
0.314596 0.732567 0.105584
0.374910 0.731534 0.104352
0.432920 0.730502 0.103118
0.489682 0.729470 0.101882
0.546250 0.728440 0.100645
0.603682 0.727411 0.099406
0.663031 0.726383 0.098165
0.725356 0.725356 0.096923
0.791709 0.724329 0.095679
0.863149 0.723304 0.094433
0.940729 0.722280 0.093185
1.000000 0.721257 0.091936
0.000000 0.802366 0.107597
0.024667 0.801254 0.106367
0.105136 0.800144 0.105136
0.179021 0.799035 0.103903
0.247379 0.797927 0.102668
0.311264 0.796821 0.101432
0.371732 0.795716 0.100194
0.429839 0.794612 0.098955
0.486641 0.793510 0.097713
0.543193 0.792409 0.096470
0.600551 0.791309 0.095225
0.659771 0.790211 0.093979
0.721908 0.789114 0.092731
0.788018 0.788018 0.091481
0.859157 0.786923 0.090229
0.936380 0.785830 0.088975
1.000000 0.784738 0.087720
0.000000 0.871840 0.103454
0.020128 0.870639 0.102219
0.100982 0.869441 0.100982
0.175195 0.868244 0.099743
0.243823 0.867049 0.098503
0.307921 0.865855 0.097261
0.368547 0.864663 0.096017
0.426754 0.863472 0.094772
0.483599 0.862283 0.093525
0.540138 0.861096 0.092276
0.597426 0.859910 0.091025
0.656518 0.858726 0.089773
0.718471 0.857543 0.088519
0.784341 0.856362 0.087263
0.855182 0.855182 0.086005
0.932051 0.854004 0.084746
1.000000 0.852827 0.083485
0.000000 0.947113 0.099292
0.015567 0.945808 0.098051
0.096808 0.944506 0.096808
0.171352 0.943205 0.095564
0.240254 0.941907 0.094318
0.304569 0.940610 0.093070
0.365355 0.939315 0.091821
0.423665 0.938022 0.090569
0.480557 0.936731 0.089316
0.537085 0.935441 0.088062
0.594306 0.934153 0.086805
0.653274 0.932868 0.085547
0.715047 0.931584 0.084287
0.780678 0.930301 0.083025
0.851225 0.929021 0.081762
0.927742 0.927742 0.080497
1.000000 0.926466 0.079230
0.000000 1.000000 0.095110
0.010984 1.000000 0.093864
0.092615 1.000000 0.092615
0.167493 1.000000 0.091365
0.236671 1.000000 0.090113
0.301207 1.000000 0.088860
0.362155 1.000000 0.087604
0.420572 1.000000 0.086347
0.477513 1.000000 0.085089
0.534034 1.000000 0.083828
0.591191 1.000000 0.082566
0.650038 1.000000 0.081302
0.711633 1.000000 0.080036
0.777030 1.000000 0.078768
0.847285 1.000000 0.077499
0.923454 1.000000 0.076227
1.000000 1.000000 0.074954
0.000000 0.000000 0.230233
0.081284 0.000000 0.229158
0.157070 0.000000 0.228082
0.227005 0.000000 0.227005
0.292145 0.000000 0.225927
0.353546 0.000000 0.224847
0.412263 0.000000 0.223766
0.469352 0.000000 0.222684
0.525868 0.000000 0.221601
0.582868 0.000000 0.220516
0.641406 0.000000 0.219430
0.702539 0.000000 0.218343
0.767323 0.000000 0.217255
0.836812 0.000000 0.216165
0.912063 0.000000 0.215074
0.994132 0.000000 0.213982
1.000000 0.000000 0.212888
0.000000 0.078288 0.226613
