app/luts/neutral.cube
# neutral LUT — Protect Timelapse
LUT_3D_SIZE 5
DOMAIN_MIN 0.0 0.0 0.0
DOMAIN_MAX 1.0 1.0 1.0
0.000000 0.000000 0.000000
0.293173 0.000000 0.000000
0.526790 0.000000 0.000000
0.768415 0.000000 0.000000
1.000000 0.000000 0.000000
0.000000 0.283593 0.000000
0.279514 0.279514 0.000000
0.514616 0.275419 0.000000
0.754089 0.271307 0.000000
1.000000 0.267179 0.000000
0.000000 0.509684 0.000000
0.265672 0.506069 0.000000
0.502455 0.502455 0.000000
0.739972 0.498841 0.000000
1.000000 0.495226 0.000000
0.000000 0.738457 0.000000
0.251636 0.734305 0.000000
0.490296 0.730171 0.000000
0.726053 0.726053 0.000000
1.000000 0.721952 0.000000
0.000000 1.000000 0.000000
0.237395 1.000000 0.000000
0.478128 1.000000 0.000000
0.712321 1.000000 0.000000
1.000000 1.000000 0.000000
0.000000 0.000000 0.295834
0.291802 0.000000 0.291802
0.525560 0.000000 0.287755
0.766959 0.000000 0.283692
1.000000 0.000000 0.279614
0.000000 0.282209 0.282209
0.278125 0.278125 0.278125
0.513388 0.274024 0.274024
0.752655 0.269907 0.269907
1.000000 0.265773 0.265773
0.000000 0.508456 0.268404
0.264264 0.504842 0.264264
0.501227 0.501227 0.260106
0.738558 0.497613 0.255931
1.000000 0.493999 0.251738
0.000000 0.737045 0.254407
0.250207 0.732899 0.250207
0.489068 0.728770 0.245990
0.724658 0.724658 0.241754
1.000000 0.720563 0.237500
0.000000 1.000000 0.240208
0.235946 1.000000 0.235946
0.476899 1.000000 0.231666
0.710945 1.000000 0.227366
1.000000 1.000000 0.223047
0.000000 0.000000 0.531576
0.290430 0.000000 0.527952
0.524331 0.000000 0.524331
0.765505 0.000000 0.520711
1.000000 0.000000 0.517093
0.000000 0.280824 0.519394
0.276734 0.276734 0.515776
0.512160 0.272628 0.512160
0.751223 0.268505 0.508545
1.000000 0.264365 0.504930
0.000000 0.507229 0.507229
0.262854 0.503614 0.503614
0.500000 0.500000 0.500000
0.737146 0.496386 0.496386
1.000000 0.492771 0.492771
0.000000 0.735635 0.495070
0.248777 0.731495 0.491455
0.487840 0.727372 0.487840
0.723266 0.723266 0.484224
1.000000 0.719176 0.480606
0.000000 1.000000 0.482907
0.234495 1.000000 0.479289
0.475669 1.000000 0.475669
0.709570 1.000000 0.472048
1.000000 1.000000 0.468424
0.000000 0.000000 0.776953
0.289055 0.000000 0.772634
0.523101 0.000000 0.768334
0.764054 0.000000 0.764054
1.000000 0.000000 0.759792
0.000000 0.279437 0.762500
0.275342 0.275342 0.758246
0.510932 0.271230 0.754010
0.749793 0.267101 0.749793
1.000000 0.262955 0.745593
0.000000 0.506001 0.748262
0.261442 0.502387 0.744069
0.498773 0.498773 0.739894
0.735736 0.495158 0.735736
1.000000 0.491544 0.731596
0.000000 0.734227 0.734227
0.247345 0.730093 0.730093
0.486612 0.725976 0.725976
0.721875 0.721875 0.721875
1.000000 0.717791 0.717791
0.000000 1.000000 0.720386
0.233041 1.000000 0.716308
0.474440 1.000000 0.712245
0.708198 1.000000 0.708198
1.000000 1.000000 0.704166
0.000000 0.000000 1.000000
0.287679 0.000000 1.000000
0.521872 0.000000 1.000000
0.762605 0.000000 1.000000
1.000000 0.000000 1.000000
0.000000 0.278048 1.000000
0.273947 0.273947 1.000000
0.509704 0.269829 1.000000
0.748364 0.265695 1.000000
1.000000 0.261543 1.000000
0.000000 0.504774 1.000000
0.260028 0.501159 1.000000
0.497545 0.497545 1.000000
0.734328 0.493931 1.000000
1.000000 0.490316 1.000000
0.000000 0.732821 1.000000
0.245911 0.728693 1.000000
0.485384 0.724581 1.000000
0.720486 0.720486 1.000000
1.000000 0.716407 1.000000
0.000000 1.000000 1.000000
0.231585 1.000000 1.000000
0.473210 1.000000 1.000000
0.706827 1.000000 1.000000
1.000000 1.000000 1.000000
