app/luts/warm.cube
# warm LUT — Protect Timelapse
LUT_3D_SIZE 9
DOMAIN_MIN 0.0 0.0 0.0
DOMAIN_MAX 1.0 1.0 1.0
0.000000 0.000000 0.000000
0.141832 0.000000 0.000000
0.270304 0.000000 0.000000
0.390013 0.000000 0.000000
0.505740 0.000000 0.000000
0.622452 0.000000 0.000000
0.745305 0.000000 0.000000
0.879644 0.000000 0.000000
1.000000 0.000000 0.000000
0.000000 0.138597 0.000000
0.143264 0.138737 0.000000
0.272914 0.138877 0.000000
0.393702 0.139017 0.000000
0.510568 0.139157 0.000000
0.628641 0.139297 0.000000
0.753242 0.139437 0.000000
0.889888 0.139577 0.000000
1.000000 0.139717 0.000000
0.000000 0.266751 0.000000
0.144694 0.267012 0.000000
0.275520 0.267272 0.000000
0.397387 0.267532 0.000000
0.515397 0.267792 0.000000
0.634845 0.268052 0.000000
0.761221 0.268312 0.000000
0.900217 0.268572 0.000000
1.000000 0.268832 0.000000
0.000000 0.388135 0.000000
0.146123 0.388507 0.000000
0.278122 0.388879 0.000000
0.401068 0.389251 0.000000
0.520228 0.389624 0.000000
0.641064 0.389996 0.000000
0.769244 0.390368 0.000000
0.910633 0.390740 0.000000
1.000000 0.391112 0.000000
0.000000 0.506580 0.000000
0.147550 0.507069 0.000000
0.280720 0.507558 0.000000
0.404744 0.508047 0.000000
0.525059 0.508536 0.000000
0.647301 0.509025 0.000000
0.777311 0.509514 0.000000
0.921139 0.510003 0.000000
1.000000 0.510492 0.000000
0.000000 0.626089 0.000000
0.148976 0.626712 0.000000
0.283313 0.627335 0.000000
0.408417 0.627959 0.000000
0.529893 0.628582 0.000000
0.653555 0.629206 0.000000
0.785425 0.629829 0.000000
0.931737 0.630453 0.000000
1.000000 0.631077 0.000000
0.000000 0.750834 0.000000
0.150400 0.751621 0.000000
0.285903 0.752410 0.000000
0.412085 0.753198 0.000000
0.534729 0.753987 0.000000
0.659827 0.754776 0.000000
0.793586 0.755565 0.000000
0.942427 0.756355 0.000000
1.000000 0.757145 0.000000
0.000000 0.885159 0.000000
0.151822 0.886155 0.000000
0.288488 0.887153 0.000000
0.415749 0.888151 0.000000
0.539567 0.889150 0.000000
0.666118 0.890149 0.000000
0.801795 0.891149 0.000000
0.953213 0.892150 0.000000
1.000000 0.893151 0.000000
0.000000 1.000000 0.000000
0.153243 1.000000 0.000000
0.291070 1.000000 0.000000
0.419410 1.000000 0.000000
0.544409 1.000000 0.000000
0.672429 1.000000 0.000000
0.810055 1.000000 0.000000
0.964097 1.000000 0.000000
1.000000 1.000000 0.000000
0.000000 0.000000 0.138206
0.141977 0.000000 0.137726
0.270568 0.000000 0.137246
0.390386 0.000000 0.136766
0.506228 0.000000 0.136285
0.623077 0.000000 0.135805
0.746104 0.000000 0.135324
0.880674 0.000000 0.134844
1.000000 0.000000 0.134363
0.000000 0.138644 0.136591
0.143409 0.138784 0.136111
0.273177 0.138924 0.135630
0.394075 0.139064 0.135149
0.511056 0.139205 0.134669
0.629266 0.139345 0.134188
0.754045 0.139485 0.133707
0.890926 0.139625 0.133226
1.000000 0.139765 0.132745
0.000000 0.266840 0.134974
0.144839 0.267100 0.134494
0.275783 0.267360 0.134013
0.397759 0.267620 0.133532
0.515885 0.267880 0.133051
0.635472 0.268140 0.132570
0.762029 0.268400 0.132089
0.901264 0.268660 0.131607
1.000000 0.268920 0.131126
0.000000 0.388261 0.133357
0.146267 0.388633 0.132876
0.278384 0.389006 0.132395
0.401439 0.389378 0.131913
0.520715 0.389750 0.131432
0.641693 0.390122 0.130950
0.770056 0.390494 0.130469
0.911690 0.390866 0.129987
1.000000 0.391238 0.129506
0.000000 0.506746 0.131738
0.147694 0.507235 0.131257
0.280982 0.507724 0.130775
0.405115 0.508213 0.130294
0.525547 0.508702 0.129812
0.647931 0.509191 0.129330
0.778128 0.509680 0.128848
0.922205 0.510169 0.128366
1.000000 0.510658 0.127884
0.000000 0.626301 0.130118
0.149120 0.626924 0.129637
0.283575 0.627547 0.129155
0.408787 0.628170 0.128673
0.530381 0.628794 0.128191
0.654187 0.629418 0.127709
0.786246 0.630041 0.127226
0.932812 0.630665 0.126744
1.000000 0.631289 0.126262
0.000000 0.751101 0.128497
0.150543 0.751889 0.128015
0.286164 0.752677 0.127533
0.412455 0.753466 0.127051
0.535217 0.754255 0.126568
0.660461 0.755044 0.126086
0.794412 0.755834 0.125603
0.943512 0.756624 0.125121
1.000000 0.757414 0.124638
0.000000 0.885497 0.126875
0.151965 0.886494 0.126393
0.288749 0.887492 0.125910
0.416119 0.888490 0.125428
0.540056 0.889489 0.124945
0.666754 0.890488 0.124462
0.802627 0.891489 0.123979
0.954307 0.892490 0.123496
1.000000 0.893491 0.123013
0.000000 1.000000 0.125252
0.153386 1.000000 0.124769
0.291330 1.000000 0.124287
0.419780 1.000000 0.123804
0.544898 1.000000 0.123321
0.673067 1.000000 0.122837
0.810891 1.000000 0.122354
0.965201 1.000000 0.121871
1.000000 1.000000 0.121387
0.000000 0.000000 0.268613
0.142121 0.000000 0.267697
0.270831 0.000000 0.266781
0.390758 0.000000 0.265864
0.506715 0.000000 0.264947
0.623701 0.000000 0.264030
0.746904 0.000000 0.263113
0.881705 0.000000 0.262195
1.000000 0.000000 0.261278
0.000000 0.138692 0.265530
0.143553 0.138832 0.264614
0.273441 0.138972 0.263696
0.394447 0.139112 0.262779
0.511543 0.139252 0.261861
0.629892 0.139392 0.260943
0.754849 0.139532 0.260025
0.891966 0.139672 0.259107
1.000000 0.139812 0.258188
0.000000 0.266928 0.262445
0.144983 0.267188 0.261527
0.276046 0.267449 0.260609
0.398131 0.267709 0.259691
0.516373 0.267969 0.258772
0.636099 0.268229 0.257854
0.762837 0.268489 0.256934
0.902313 0.268749 0.256015
1.000000 0.269009 0.255096
0.000000 0.388387 0.259356
0.146411 0.388760 0.258438
0.278647 0.389132 0.257519
0.401811 0.389504 0.256600
0.521203 0.389876 0.255680
0.642322 0.390249 0.254761
0.770869 0.390621 0.253841
0.912747 0.390993 0.252921
1.000000 0.391365 0.252000
0.000000 0.506912 0.256265
0.147838 0.507401 0.255346
0.281244 0.507890 0.254426
0.405486 0.508379 0.253506
0.526035 0.508868 0.252585
0.648562 0.509357 0.251665
0.778945 0.509846 0.250744
0.923271 0.510335 0.249823
1.000000 0.510824 0.248902
0.000000 0.626512 0.253171
0.149263 0.627135 0.252250
0.283836 0.627759 0.251330
0.409158 0.628382 0.250409
0.530869 0.629006 0.249488
0.654820 0.629629 0.248566
0.787069 0.630253 0.247644
0.933887 0.630877 0.246722
1.000000 0.631501 0.245800
0.000000 0.751369 0.250073
0.150687 0.752157 0.249152
0.286425 0.752945 0.248231
0.412825 0.753734 0.247309
0.535705 0.754523 0.246387
0.661096 0.755312 0.245464
0.795239 0.756102 0.244541
0.944597 0.756892 0.243619
1.000000 0.757682 0.242695
0.000000 0.885836 0.246973
0.152109 0.886833 0.246051
0.289010 0.887831 0.245128
0.416489 0.888829 0.244205
0.540545 0.889828 0.243282
0.667391 0.890828 0.242359
0.803459 0.891829 0.241436
0.955403 0.892830 0.240512
1.000000 0.893832 0.239587
0.000000 1.000000 0.243869
0.153529 1.000000 0.242946
0.291590 1.000000 0.242023
0.420149 1.000000 0.241099
0.545387 1.000000 0.240175
0.673705 1.000000 0.239251
0.811728 1.000000 0.238326
0.966306 1.000000 0.237402
1.000000 1.000000 0.236477
0.000000 0.000000 0.393873
0.142266 0.000000 0.392537
0.271095 0.000000 0.391201
0.391131 0.000000 0.389864
0.507202 0.000000 0.388528
0.624325 0.000000 0.387191
0.747704 0.000000 0.385853
0.882737 0.000000 0.384516
1.000000 0.000000 0.383178
0.000000 0.138739 0.389378
0.143697 0.138879 0.388041
0.273704 0.139020 0.386704
0.394819 0.139160 0.385366
0.512031 0.139300 0.384029
0.630518 0.139440 0.382691
0.755654 0.139580 0.381352
0.893007 0.139720 0.380014
1.000000 0.139860 0.378675
0.000000 0.267017 0.384879
0.145127 0.267277 0.383542
0.276309 0.267537 0.382203
0.398503 0.267797 0.380865
0.516860 0.268057 0.379526
0.636727 0.268317 0.378188
0.763646 0.268577 0.376848
0.903362 0.268837 0.375509
1.000000 0.269097 0.374169
0.000000 0.388514 0.380378
0.146555 0.388886 0.379039
0.278909 0.389258 0.377700
0.402182 0.389631 0.376361
0.521691 0.390003 0.375021
0.642951 0.390375 0.373681
0.771682 0.390747 0.372341
0.913806 0.391119 0.371000
1.000000 0.391491 0.369659
0.000000 0.507078 0.375873
0.147982 0.507567 0.374533
0.281506 0.508056 0.373193
0.405857 0.508545 0.371853
0.526523 0.509034 0.370512
0.649193 0.509523 0.369171
0.779763 0.510012 0.367830
0.924339 0.510501 0.366488
1.000000 0.510990 0.365146
0.000000 0.626724 0.371365
0.149407 0.627347 0.370024
0.284098 0.627970 0.368683
0.409528 0.628594 0.367341
0.531357 0.629218 0.365999
0.655452 0.629841 0.364657
0.787891 0.630465 0.363315
0.934964 0.631089 0.361972
1.000000 0.631713 0.360629
0.000000 0.751636 0.366853
0.150831 0.752424 0.365511
0.286686 0.753213 0.364169
0.413195 0.754002 0.362826
0.536194 0.754791 0.361483
0.661730 0.755580 0.360140
0.796067 0.756370 0.358796
0.945684 0.757160 0.357452
1.000000 0.757951 0.356108
0.000000 0.886174 0.362337
0.152252 0.887172 0.360994
0.289270 0.888170 0.359651
0.416858 0.889168 0.358307
0.541033 0.890168 0.356963
0.668027 0.891168 0.355619
0.804291 0.892168 0.354274
0.956499 0.893170 0.352929
1.000000 0.894172 0.351583
0.000000 1.000000 0.357818
0.153673 1.000000 0.356474
0.291851 1.000000 0.355129
0.420518 1.000000 0.353784
0.545876 1.000000 0.352439
0.674344 1.000000 0.351093
0.812566 1.000000 0.349747
0.967412 1.000000 0.348401
1.000000 1.000000 0.347054
0.000000 0.000000 0.516600
0.142411 0.000000 0.514833
0.271358 0.000000 0.513065
0.391503 0.000000 0.511298
0.507690 0.000000 0.509531
0.624950 0.000000 0.507763
0.748505 0.000000 0.505996
0.883770 0.000000 0.504229
1.000000 0.000000 0.502461
0.000000 0.138787 0.510655
0.143842 0.138927 0.508887
0.273967 0.139067 0.507120
0.395191 0.139207 0.505353
0.512518 0.139347 0.503585
0.631144 0.139487 0.501818
0.756458 0.139627 0.500051
0.894048 0.139767 0.498284
1.000000 0.139907 0.496516
0.000000 0.267105 0.504709
0.145272 0.267365 0.502942
0.276571 0.267625 0.501175
0.398874 0.267885 0.499407
0.517348 0.268145 0.497640
0.637354 0.268405 0.495873
0.764455 0.268665 0.494106
0.904412 0.268925 0.492338
1.000000 0.269185 0.490571
0.000000 0.388640 0.498764
0.146700 0.389013 0.496997
0.279171 0.389385 0.495230
0.402553 0.389757 0.493462
0.522178 0.390129 0.491695
0.643581 0.390501 0.489928
0.772496 0.390873 0.488160
0.914865 0.391245 0.486393
1.000000 0.391617 0.484625
0.000000 0.507244 0.492819
0.148126 0.507733 0.491052
0.281767 0.508222 0.489284
0.406228 0.508711 0.487517
0.527011 0.509200 0.485749
0.649824 0.509689 0.483982
0.780582 0.510178 0.482214
0.925407 0.510667 0.480447
1.000000 0.511156 0.478679
0.000000 0.626936 0.486873
0.149551 0.627559 0.485106
0.284359 0.628182 0.483338
0.409898 0.628806 0.481571
0.531845 0.629429 0.479803
0.656085 0.630053 0.478035
0.788714 0.630677 0.476267
0.936042 0.631301 0.474499
1.000000 0.631925 0.472731
0.000000 0.751904 0.480927
0.150974 0.752692 0.479159
0.286947 0.753481 0.477392
0.413565 0.754270 0.475624
0.536682 0.755059 0.473856
0.662365 0.755849 0.472087
0.796895 0.756638 0.470319
0.946771 0.757429 0.468551
1.000000 0.758219 0.466782
0.000000 0.886513 0.474980
0.152396 0.887510 0.473212
0.289531 0.888509 0.471444
0.417228 0.889508 0.469675
0.541522 0.890507 0.467907
0.668664 0.891508 0.466138
0.805124 0.892508 0.464370
0.957596 0.893510 0.462601
1.000000 0.894512 0.460832
0.000000 1.000000 0.469032
0.153816 1.000000 0.467263
0.292111 1.000000 0.465494
0.420888 1.000000 0.463726
0.546365 1.000000 0.461957
0.674983 1.000000 0.460188
0.813404 1.000000 0.458418
0.968519 1.000000 0.456649
1.000000 1.000000 0.454879
0.000000 0.000000 0.639372
0.142555 0.000000 0.637134
0.271622 0.000000 0.634896
0.391876 0.000000 0.632660
0.508177 0.000000 0.630424
0.625574 0.000000 0.628190
0.749306 0.000000 0.625956
0.884804 0.000000 0.623723
1.000000 0.000000 0.621491
0.000000 0.138834 0.631846
0.143986 0.138975 0.629611
0.274230 0.139115 0.627376
0.395563 0.139255 0.625143
0.513006 0.139395 0.622910
0.631770 0.139535 0.620678
0.757264 0.139675 0.618447
0.895091 0.139815 0.616217
1.000000 0.139955 0.613988
0.000000 0.267193 0.624330
0.145416 0.267453 0.622097
0.276834 0.267713 0.619866
0.399246 0.267974 0.617635
0.517835 0.268234 0.615405
0.637982 0.268494 0.613176
0.765265 0.268754 0.610948
0.905464 0.269013 0.608720
1.000000 0.269273 0.606493
0.000000 0.388767 0.616823
0.146844 0.389139 0.614594
0.279434 0.389511 0.612365
0.402924 0.389883 0.610137
0.522666 0.390256 0.607909
0.644210 0.390628 0.605683
0.773310 0.391000 0.603457
0.915925 0.391372 0.601232
1.000000 0.391744 0.599007
0.000000 0.507410 0.609326
0.148270 0.507899 0.607099
0.282029 0.508388 0.604872
0.406598 0.508877 0.602647
0.527499 0.509366 0.600422
0.650455 0.509855 0.598198
0.781401 0.510344 0.595974
0.926477 0.510834 0.593751
1.000000 0.511323 0.591529
0.000000 0.627147 0.601837
0.149695 0.627770 0.599612
0.284621 0.628394 0.597388
0.410269 0.629017 0.595165
0.532333 0.629641 0.592942
0.656718 0.630265 0.590720
0.789538 0.630889 0.588499
0.937121 0.631513 0.586278
1.000000 0.632137 0.584058
0.000000 0.752172 0.594355
0.151118 0.752960 0.592133
0.287208 0.753749 0.589911
0.413935 0.754538 0.587690
0.537171 0.755327 0.585469
0.663000 0.756117 0.583249
0.797723 0.756907 0.581030
0.947859 0.757697 0.578811
1.000000 0.758488 0.576593
0.000000 0.886852 0.586882
0.152539 0.887849 0.584661
0.289792 0.888848 0.582441
0.417598 0.889847 0.580222
0.542011 0.890847 0.578003
0.669301 0.891847 0.575785
0.805958 0.892849 0.573568
0.958694 0.893850 0.571350
1.000000 0.894853 0.569134
0.000000 1.000000 0.579414
0.153959 1.000000 0.577196
0.292371 1.000000 0.574978
0.421257 1.000000 0.572760
0.546854 1.000000 0.570543
0.675622 1.000000 0.568327
0.814243 1.000000 0.566111
0.969628 1.000000 0.563895
1.000000 1.000000 0.561680
0.000000 0.000000 0.764727
0.142700 0.000000 0.761951
0.271885 0.000000 0.759178
0.392248 0.000000 0.756408
0.508665 0.000000 0.753640
0.626199 0.000000 0.750874
0.750107 0.000000 0.748111
0.885838 0.000000 0.745350
1.000000 0.000000 0.742592
0.000000 0.138882 0.755400
0.144131 0.139022 0.752633
0.274493 0.139162 0.749868
0.395935 0.139302 0.747106
0.513493 0.139442 0.744346
0.632397 0.139582 0.741588
0.758069 0.139722 0.738833
0.896134 0.139863 0.736080
1.000000 0.140003 0.733330
0.000000 0.267282 0.746101
0.145560 0.267542 0.743342
0.277097 0.267802 0.740585
0.399617 0.268062 0.737831
0.518323 0.268322 0.735079
0.638610 0.268582 0.732329
0.766075 0.268842 0.729582
0.906516 0.269102 0.726836
1.000000 0.269362 0.724093
0.000000 0.388893 0.736829
0.146988 0.389265 0.734077
0.279696 0.389638 0.731329
0.403295 0.390010 0.728582
0.523154 0.390382 0.725837
0.644840 0.390754 0.723095
0.774125 0.391126 0.720355
0.916986 0.391498 0.717617
1.000000 0.391870 0.714882
0.000000 0.507576 0.727582
0.148414 0.508065 0.724839
0.282291 0.508554 0.722097
0.406969 0.509043 0.719358
0.527987 0.509532 0.716621
0.651087 0.510022 0.713886
0.782220 0.510511 0.711153
0.927547 0.511000 0.708422
1.000000 0.511489 0.705693
0.000000 0.627359 0.718361
0.149838 0.627982 0.715625
0.284882 0.628606 0.712891
0.410639 0.629229 0.710159
0.532822 0.629853 0.707429
0.657352 0.630477 0.704700
0.790362 0.631101 0.701974
0.938201 0.631725 0.699250
1.000000 0.632349 0.696528
0.000000 0.752439 0.709164
0.151261 0.753228 0.706435
0.287469 0.754017 0.703708
0.414305 0.754806 0.700982
0.537659 0.755595 0.698259
0.663635 0.756385 0.695537
0.798552 0.757175 0.692818
0.948949 0.757966 0.690100
1.000000 0.758756 0.687384
0.000000 0.887190 0.699991
0.152683 0.888188 0.697268
0.290052 0.889187 0.694547
0.417967 0.890187 0.691828
0.542499 0.891187 0.689111
0.669938 0.892187 0.686396
0.806792 0.893189 0.683682
0.959794 0.894191 0.680971
1.000000 0.895193 0.678261
0.000000 1.000000 0.690839
0.154102 1.000000 0.688122
0.292631 1.000000 0.685408
0.421626 1.000000 0.682695
0.547343 1.000000 0.679984
0.676261 1.000000 0.677275
0.815082 1.000000 0.674567
0.970737 1.000000 0.671862
1.000000 1.000000 0.669158
0.000000 0.000000 0.895166
0.142844 0.000000 0.891760
0.272149 0.000000 0.888359
0.392621 0.000000 0.884963
0.509152 0.000000 0.881572
0.626824 0.000000 0.878186
0.750909 0.000000 0.874805
0.886874 0.000000 0.871428
1.000000 0.000000 0.868057
0.000000 0.138930 0.883728
0.144275 0.139070 0.880339
0.274756 0.139210 0.876954
0.396307 0.139350 0.873575
0.513981 0.139490 0.870200
0.633023 0.139630 0.866830
0.758876 0.139770 0.863465
0.897178 0.139910 0.860105
1.000000 0.140050 0.856749
0.000000 0.267370 0.872346
0.145704 0.267630 0.868973
0.277359 0.267890 0.865605
0.399989 0.268150 0.862241
0.518810 0.268410 0.858883
0.639238 0.268670 0.855529
0.766885 0.268930 0.852180
0.907569 0.269190 0.848835
1.000000 0.269450 0.845495
0.000000 0.389020 0.861018
0.147132 0.389392 0.857661
0.279958 0.389764 0.854309
0.403666 0.390136 0.850961
0.523642 0.390508 0.847618
0.645470 0.390880 0.844280
0.774940 0.391252 0.840946
0.918048 0.391624 0.837616
1.000000 0.391996 0.834291
0.000000 0.507742 0.849744
0.148558 0.508231 0.846403
0.282553 0.508720 0.843066
0.407340 0.509210 0.839733
0.528475 0.509699 0.836405
0.651718 0.510188 0.833082
0.783040 0.510677 0.829763
0.928618 0.511166 0.826448
1.000000 0.511655 0.823137
0.000000 0.627571 0.838521
0.149982 0.628194 0.835195
0.285144 0.628817 0.831873
0.411009 0.629441 0.828555
0.533310 0.630065 0.825242
0.657985 0.630689 0.821933
0.791187 0.631313 0.818628
0.939281 0.631937 0.815327
1.000000 0.632561 0.812031
0.000000 0.752707 0.827349
0.151405 0.753496 0.824037
0.287730 0.754285 0.820729
0.414675 0.755074 0.817426
0.538148 0.755863 0.814127
0.664271 0.756653 0.810832
0.799382 0.757444 0.807541
0.950039 0.758234 0.804254
1.000000 0.759025 0.800971
0.000000 0.887529 0.816224
0.152826 0.888528 0.812927
0.290313 0.889526 0.809633
0.418337 0.890526 0.806344
0.542988 0.891526 0.803058
0.670575 0.892527 0.799776
0.807627 0.893529 0.796499
0.960894 0.894531 0.793225
1.000000 0.895534 0.789955
0.000000 1.000000 0.805147
0.154246 1.000000 0.801863
0.292892 1.000000 0.798583
0.421995 1.000000 0.795307
0.547832 1.000000 0.792034
0.676900 1.000000 0.788766
0.815922 1.000000 0.785501
0.971847 1.000000 0.782240
1.000000 1.000000 0.778983
0.000000 0.000000 1.000000
0.142989 0.000000 1.000000
0.272412 0.000000 1.000000
0.392993 0.000000 1.000000
0.509639 0.000000 1.000000
0.627449 0.000000 1.000000
0.751711 0.000000 1.000000
0.887910 0.000000 1.000000
1.000000 0.000000 1.000000
0.000000 0.138977 1.000000
0.144419 0.139117 1.000000
0.275019 0.139257 1.000000
0.396679 0.139397 1.000000
0.514468 0.139538 1.000000
0.633650 0.139678 0.998651
0.759682 0.139818 0.994566
0.898223 0.139958 0.990488
1.000000 0.140098 0.986419
0.000000 0.267458 1.000000
0.145848 0.267718 1.000000
0.277622 0.267978 0.997163
0.400360 0.268238 0.993080
0.519298 0.268498 0.989006
0.639867 0.268758 0.984939
0.767697 0.269018 0.980881
0.908622 0.269278 0.976831
1.000000 0.269538 0.972789
0.000000 0.389146 0.991596
0.147276 0.389518 0.987524
0.280220 0.389890 0.983461
0.404037 0.390263 0.979406
0.524130 0.390635 0.975358
0.646100 0.391007 0.971319
0.775755 0.391379 0.967287
0.919111 0.391751 0.963264
1.000000 0.392123 0.959248
0.000000 0.507909 0.977931
0.148702 0.508398 0.973887
0.282815 0.508887 0.969850
0.407710 0.509376 0.965822
0.528963 0.509865 0.961801
0.652350 0.510354 0.957787
0.783860 0.510843 0.953782
0.929691 0.511332 0.949784
1.000000 0.511821 0.945794
0.000000 0.627782 0.964357
0.150126 0.628406 0.960339
0.285405 0.629029 0.956328
0.411379 0.629653 0.952326
0.533798 0.630277 0.948330
0.658619 0.630901 0.944343
0.792012 0.631525 0.940362
0.940363 0.632149 0.936390
1.000000 0.632773 0.932424
0.000000 0.752975 0.950870
0.151548 0.753764 0.946878
0.287991 0.754553 0.942893
0.415045 0.755342 0.938915
0.538636 0.756132 0.934945
0.664906 0.756922 0.930982
0.800212 0.757712 0.927027
0.951131 0.758503 0.923078
1.000000 0.759294 0.919137
0.000000 0.887868 0.937469
0.152969 0.888867 0.933502
0.290573 0.889866 0.929541
0.418706 0.890866 0.925588
0.543477 0.891866 0.921643
0.671213 0.892867 0.917704
0.808462 0.893869 0.913772
0.961995 0.894872 0.909848
1.000000 0.895875 0.905930
0.000000 1.000000 0.924151
0.154389 1.000000 0.920208
0.293152 1.000000 0.916272
0.422364 1.000000 0.912343
0.548321 1.000000 0.908420
0.677540 1.000000 0.904505
0.816762 1.000000 0.900597
0.972958 1.000000 0.896695
1.000000 1.000000 0.892800
