app/luts/warm.cube
# warm LUT — Protect Timelapse
LUT_3D_SIZE 17
DOMAIN_MIN 0.0 0.0 0.0
DOMAIN_MAX 1.0 1.0 1.0
0.000000 0.000000 0.000000
0.072866 0.000000 0.000000
0.141832 0.000000 0.000000
0.207455 0.000000 0.000000
0.270304 0.000000 0.000000
0.330959 0.000000 0.000000
0.390013 0.000000 0.000000
0.448068 0.000000 0.000000
0.505740 0.000000 0.000000
0.563656 0.000000 0.000000
0.622452 0.000000 0.000000
0.682781 0.000000 0.000000
0.745305 0.000000 0.000000
0.810697 0.000000 0.000000
0.879644 0.000000 0.000000
0.952845 0.000000 0.000000
1.000000 0.000000 0.000000
0.000000 0.070826 0.000000
0.073245 0.070863 0.000000
0.142548 0.070900 0.000000
0.208477 0.070936 0.000000
0.271610 0.070973 0.000000
0.332536 0.071010 0.000000
0.391858 0.071046 0.000000
0.450189 0.071083 0.000000
0.508154 0.071120 0.000000
0.566390 0.071156 0.000000
0.625545 0.071193 0.000000
0.686280 0.071230 0.000000
0.749268 0.071266 0.000000
0.815194 0.071303 0.000000
0.884755 0.071340 0.000000
0.958662 0.071376 0.000000
1.000000 0.071413 0.000000
0.000000 0.138597 0.000000
0.073624 0.138667 0.000000
0.143264 0.138737 0.000000
0.209498 0.138807 0.000000
0.272914 0.138877 0.000000
0.334112 0.138947 0.000000
0.393702 0.139017 0.000000
0.452310 0.139087 0.000000
0.510568 0.139157 0.000000
0.569126 0.139227 0.000000
0.628641 0.139297 0.000000
0.689785 0.139367 0.000000
0.753242 0.139437 0.000000
0.819706 0.139507 0.000000
0.889888 0.139577 0.000000
0.964506 0.139647 0.000000
1.000000 0.139717 0.000000
0.000000 0.203754 0.000000
0.074002 0.203855 0.000000
0.143979 0.203956 0.000000
0.210519 0.204057 0.000000
0.274218 0.204157 0.000000
0.335686 0.204258 0.000000
0.395546 0.204359 0.000000
0.454429 0.204460 0.000000
0.512983 0.204561 0.000000
0.571863 0.204662 0.000000
0.631741 0.204763 0.000000
0.693297 0.204864 0.000000
0.757226 0.204965 0.000000
0.824234 0.205066 0.000000
0.895041 0.205167 0.000000
0.970379 0.205267 0.000000
1.000000 0.205368 0.000000
0.000000 0.266751 0.000000
0.074380 0.266882 0.000000
0.144694 0.267012 0.000000
0.211538 0.267142 0.000000
0.275520 0.267272 0.000000
0.337259 0.267402 0.000000
0.397387 0.267532 0.000000
0.456548 0.267662 0.000000
0.515397 0.267792 0.000000
0.574603 0.267922 0.000000
0.634845 0.268052 0.000000
0.696816 0.268182 0.000000
0.761221 0.268312 0.000000
0.828778 0.268442 0.000000
0.900217 0.268572 0.000000
0.976281 0.268702 0.000000
1.000000 0.268832 0.000000
0.000000 0.328054 0.000000
0.074758 0.328212 0.000000
0.145409 0.328370 0.000000
0.212557 0.328528 0.000000
0.276822 0.328687 0.000000
0.338831 0.328845 0.000000
0.399228 0.329003 0.000000
0.458667 0.329161 0.000000
0.517812 0.329319 0.000000
0.577344 0.329478 0.000000
0.637953 0.329636 0.000000
0.700341 0.329794 0.000000
0.765227 0.329952 0.000000
0.833337 0.330110 0.000000
0.905414 0.330268 0.000000
0.982212 0.330426 0.000000
1.000000 0.330584 0.000000
0.000000 0.388135 0.000000
0.075137 0.388321 0.000000
0.146123 0.388507 0.000000
0.213576 0.388693 0.000000
0.278122 0.388879 0.000000
0.340402 0.389065 0.000000
0.401068 0.389251 0.000000
0.460784 0.389438 0.000000
0.520228 0.389624 0.000000
0.580087 0.389810 0.000000
0.641064 0.389996 0.000000
0.703874 0.390182 0.000000
0.769244 0.390368 0.000000
0.837912 0.390554 0.000000
0.910633 0.390740 0.000000
0.988173 0.390926 0.000000
1.000000 0.391112 0.000000
0.000000 0.447478 0.000000
0.075514 0.447693 0.000000
0.146837 0.447908 0.000000
0.214593 0.448122 0.000000
0.279421 0.448337 0.000000
0.341972 0.448552 0.000000
0.402907 0.448766 0.000000
0.462901 0.448981 0.000000
0.522643 0.449195 0.000000
0.582832 0.449410 0.000000
0.644181 0.449625 0.000000
0.707414 0.449839 0.000000
0.773272 0.450054 0.000000
0.842504 0.450268 0.000000
0.915875 0.450483 0.000000
0.994163 0.450698 0.000000
1.000000 0.450912 0.000000
0.000000 0.506580 0.000000
0.075892 0.506824 0.000000
0.147550 0.507069 0.000000
0.215610 0.507313 0.000000
0.280720 0.507558 0.000000
0.343540 0.507802 0.000000
0.404744 0.508047 0.000000
0.465018 0.508292 0.000000
0.525059 0.508536 0.000000
0.585579 0.508781 0.000000
0.647301 0.509025 0.000000
0.710962 0.509270 0.000000
0.777311 0.509514 0.000000
0.847112 0.509759 0.000000
0.921139 0.510003 0.000000
1.000000 0.510248 0.000000
1.000000 0.510492 0.000000
0.000000 0.565945 0.000000
0.076270 0.566221 0.000000
0.148263 0.566498 0.000000
0.216626 0.566774 0.000000
0.282017 0.567051 0.000000
0.345107 0.567328 0.000000
0.406581 0.567604 0.000000
0.467134 0.567881 0.000000
0.527476 0.568157 0.000000
0.588328 0.568434 0.000000
0.650426 0.568711 0.000000
0.714517 0.568987 0.000000
0.781362 0.569264 0.000000
0.851736 0.569541 0.000000
0.926426 0.569817 0.000000
1.000000 0.570094 0.000000
1.000000 0.570371 0.000000
0.000000 0.626089 0.000000
0.076648 0.626401 0.000000
0.148976 0.626712 0.000000
0.217641 0.627024 0.000000
0.283313 0.627335 0.000000
0.346674 0.627647 0.000000
0.408417 0.627959 0.000000
0.469250 0.628270 0.000000
0.529893 0.628582 0.000000
0.591079 0.628894 0.000000
0.653555 0.629206 0.000000
0.718079 0.629518 0.000000
0.785425 0.629829 0.000000
0.856377 0.630141 0.000000
0.931737 0.630453 0.000000
1.000000 0.630765 0.000000
1.000000 0.631077 0.000000
0.000000 0.687539 0.000000
0.077025 0.687890 0.000000
0.149688 0.688240 0.000000
0.218656 0.688591 0.000000
0.284608 0.688941 0.000000
0.348239 0.689292 0.000000
0.410251 0.689642 0.000000
0.471365 0.689993 0.000000
0.532310 0.690344 0.000000
0.593833 0.690695 0.000000
0.656689 0.691046 0.000000
0.721649 0.691396 0.000000
0.789499 0.691747 0.000000
0.861036 0.692098 0.000000
0.937070 0.692449 0.000000
1.000000 0.692801 0.000000
1.000000 0.693152 0.000000
0.000000 0.750834 0.000000
0.077402 0.751228 0.000000
0.150400 0.751621 0.000000
0.219670 0.752015 0.000000
0.285903 0.752410 0.000000
0.349802 0.752804 0.000000
0.412085 0.753198 0.000000
0.473480 0.753592 0.000000
0.534729 0.753987 0.000000
0.596588 0.754381 0.000000
0.659827 0.754776 0.000000
0.725228 0.755171 0.000000
0.793586 0.755565 0.000000
0.865711 0.755960 0.000000
0.942427 0.756355 0.000000
1.000000 0.756750 0.000000
1.000000 0.757145 0.000000
0.000000 0.816520 0.000000
0.077780 0.816963 0.000000
0.151111 0.817406 0.000000
0.220683 0.817849 0.000000
0.287196 0.818292 0.000000
0.351365 0.818736 0.000000
0.413918 0.819179 0.000000
0.475594 0.819623 0.000000
0.537148 0.820067 0.000000
0.599346 0.820510 0.000000
0.662970 0.820954 0.000000
0.728814 0.821398 0.000000
0.797684 0.821843 0.000000
0.870404 0.822287 0.000000
0.947808 0.822731 0.000000
1.000000 0.823176 0.000000
1.000000 0.823621 0.000000
0.000000 0.885159 0.000000
0.078157 0.885657 0.000000
0.151822 0.886155 0.000000
0.221695 0.886654 0.000000
0.288488 0.887153 0.000000
0.352927 0.887652 0.000000
0.415749 0.888151 0.000000
0.477708 0.888650 0.000000
0.539567 0.889150 0.000000
0.602107 0.889649 0.000000
0.666118 0.890149 0.000000
0.732408 0.890649 0.000000
0.801795 0.891149 0.000000
0.875115 0.891649 0.000000
0.953213 0.892150 0.000000
1.000000 0.892650 0.000000
1.000000 0.893151 0.000000
0.000000 0.957320 0.000000
0.078534 0.957881 0.000000
0.152532 0.958442 0.000000
0.222707 0.959003 0.000000
0.289779 0.959565 0.000000
0.354487 0.960127 0.000000
0.417580 0.960689 0.000000
0.479821 0.961251 0.000000
0.541988 0.961813 0.000000
0.604869 0.962376 0.000000
0.669271 0.962939 0.000000
0.736010 0.963502 0.000000
0.805919 0.964066 0.000000
0.879843 0.964629 0.000000
0.958643 0.965193 0.000000
1.000000 0.965757 0.000000
1.000000 0.966321 0.000000
0.000000 1.000000 0.000000
0.078911 1.000000 0.000000
0.153243 1.000000 0.000000
0.223718 1.000000 0.000000
0.291070 1.000000 0.000000
0.356047 1.000000 0.000000
0.419410 1.000000 0.000000
0.481935 1.000000 0.000000
0.544409 1.000000 0.000000
0.607635 1.000000 0.000000
0.672429 1.000000 0.000000
0.739621 1.000000 0.000000
0.810055 1.000000 0.000000
0.884589 1.000000 0.000000
0.964097 1.000000 0.000000
1.000000 1.000000 0.000000
1.000000 1.000000 0.000000
0.000000 0.000000 0.070245
0.072905 0.000000 0.070122
0.141905 0.000000 0.069998
0.207558 0.000000 0.069874
0.270436 0.000000 0.069751
0.331119 0.000000 0.069627
0.390199 0.000000 0.069503
0.448282 0.000000 0.069380
0.505984 0.000000 0.069256
0.563931 0.000000 0.069132
0.622764 0.000000 0.069009
0.683134 0.000000 0.068885
0.745704 0.000000 0.068761
0.811150 0.000000 0.068637
0.880159 0.000000 0.068514
0.953431 0.000000 0.068390
1.000000 0.000000 0.068266
0.000000 0.070839 0.069829
0.073283 0.070876 0.069706
0.142621 0.070912 0.069582
0.208580 0.070949 0.069458
0.271741 0.070986 0.069335
0.332695 0.071022 0.069211
0.392045 0.071059 0.069087
0.450403 0.071096 0.068963
0.508398 0.071132 0.068840
0.566666 0.071169 0.068716
0.625857 0.071205 0.068592
0.686633 0.071242 0.068469
0.749669 0.071279 0.068345
0.815649 0.071315 0.068221
0.885272 0.071352 0.068097
0.959250 0.071389 0.067973
1.000000 0.071425 0.067850
0.000000 0.138620 0.069413
0.073662 0.138690 0.069290
0.143336 0.138760 0.069166
0.209601 0.138831 0.069042
0.273046 0.138901 0.068918
0.334271 0.138971 0.068795
0.393889 0.139041 0.068671
0.452524 0.139111 0.068547
0.510812 0.139181 0.068423
0.569402 0.139251 0.068300
0.628954 0.139321 0.068176
0.690139 0.139391 0.068052
0.753643 0.139461 0.067928
0.820163 0.139531 0.067805
0.890407 0.139601 0.067681
0.965098 0.139671 0.067557
1.000000 0.139741 0.067433
0.000000 0.203788 0.068997
0.074040 0.203889 0.068873
0.144052 0.203990 0.068750
0.210622 0.204091 0.068626
0.274349 0.204192 0.068502
0.335845 0.204293 0.068378
0.395732 0.204394 0.068255
0.454643 0.204495 0.068131
0.513227 0.204595 0.068007
0.572140 0.204696 0.067883
0.632054 0.204797 0.067760
0.693652 0.204898 0.067636
0.757629 0.204999 0.067512
0.824692 0.205100 0.067388
0.895563 0.205201 0.067264
0.970974 0.205302 0.067140
1.000000 0.205403 0.067017
0.000000 0.266796 0.068581
0.074418 0.266926 0.068457
0.144767 0.267056 0.068333
0.211641 0.267186 0.068210
0.275652 0.267316 0.068086
0.337418 0.267446 0.067962
0.397573 0.267576 0.067838
0.456762 0.267706 0.067714
0.515641 0.267836 0.067591
0.574879 0.267966 0.067467
0.635158 0.268096 0.067343
0.697171 0.268226 0.067219
0.761625 0.268356 0.067095
0.829237 0.268486 0.066972
0.900740 0.268616 0.066848
0.976879 0.268746 0.066724
1.000000 0.268876 0.066600
0.000000 0.328108 0.068165
0.074797 0.328266 0.068041
0.145481 0.328424 0.067917
0.212660 0.328582 0.067793
0.276953 0.328740 0.067669
0.338990 0.328899 0.067546
0.399414 0.329057 0.067422
0.458880 0.329215 0.067298
0.518056 0.329373 0.067174
0.577621 0.329531 0.067050
0.638266 0.329689 0.066926
0.700698 0.329848 0.066803
0.765632 0.330006 0.066679
0.833798 0.330164 0.066555
0.905940 0.330322 0.066431
0.982813 0.330480 0.066307
1.000000 0.330638 0.066183
0.000000 0.388198 0.067748
0.075175 0.388384 0.067624
0.146195 0.388570 0.067500
0.213678 0.388756 0.067377
0.278253 0.388942 0.067253
0.340561 0.389129 0.067129
0.401254 0.389315 0.067005
0.460998 0.389501 0.066881
0.520471 0.389687 0.066757
0.580364 0.389873 0.066634
0.641379 0.390059 0.066510
0.704231 0.390245 0.066386
0.769650 0.390431 0.066262
0.838375 0.390617 0.066138
0.911161 0.390803 0.066014
0.988776 0.390989 0.065890
1.000000 0.391175 0.065766
0.000000 0.447551 0.067332
0.075553 0.447766 0.067208
0.146909 0.447981 0.067084
0.214696 0.448195 0.066960
0.279552 0.448410 0.066836
0.342130 0.448624 0.066712
0.403092 0.448839 0.066589
0.463115 0.449054 0.066465
0.522887 0.449268 0.066341
0.583109 0.449483 0.066217
0.644495 0.449697 0.066093
0.707772 0.449912 0.065969
0.773679 0.450127 0.065845
0.842968 0.450341 0.065721
0.916405 0.450556 0.065597
0.994769 0.450770 0.065473
1.000000 0.450985 0.065350
0.000000 0.506663 0.066915
0.075930 0.506907 0.066791
0.147622 0.507152 0.066667
0.215712 0.507397 0.066543
0.280851 0.507641 0.066420
0.343698 0.507886 0.066296
0.404930 0.508130 0.066172
0.465232 0.508375 0.066048
0.525303 0.508619 0.065924
0.585856 0.508864 0.065800
0.647616 0.509108 0.065676
0.711320 0.509353 0.065552
0.777720 0.509597 0.065428
0.847578 0.509842 0.065304
0.921672 0.510086 0.065180
1.000000 0.510331 0.065057
1.000000 0.510575 0.064933
0.000000 0.566039 0.066498
0.076308 0.566315 0.066374
0.148335 0.566592 0.066251
0.216728 0.566868 0.066127
0.282148 0.567145 0.066003
0.345266 0.567422 0.065879
0.406766 0.567698 0.065755
0.467348 0.567975 0.065631
0.527720 0.568251 0.065507
0.588606 0.568528 0.065383
0.650741 0.568805 0.065259
0.714876 0.569081 0.065135
0.781772 0.569358 0.065011
0.852204 0.569635 0.064887
0.926961 0.569911 0.064763
1.000000 0.570188 0.064639
1.000000 0.570465 0.064516
0.000000 0.626195 0.066082
0.076686 0.626506 0.065958
0.149048 0.626818 0.065834
0.217744 0.627130 0.065710
0.283444 0.627441 0.065586
0.346832 0.627753 0.065462
0.408602 0.628065 0.065338
0.469463 0.628376 0.065214
0.530137 0.628688 0.065090
0.591357 0.629000 0.064966
0.653871 0.629312 0.064842
0.718439 0.629624 0.064718
0.785836 0.629935 0.064594
0.856847 0.630247 0.064470
0.932274 0.630559 0.064346
1.000000 0.630871 0.064222
1.000000 0.631183 0.064098
0.000000 0.687658 0.065665
0.077063 0.688009 0.065541
0.149760 0.688359 0.065417
0.218758 0.688710 0.065293
0.284739 0.689060 0.065169
0.348396 0.689411 0.065045
0.410436 0.689762 0.064921
0.471578 0.690112 0.064797
0.532555 0.690463 0.064673
0.594111 0.690814 0.064549
0.657005 0.691165 0.064425
0.722010 0.691516 0.064301
0.789911 0.691867 0.064177
0.861507 0.692218 0.064053
0.937610 0.692569 0.063929
1.000000 0.692920 0.063805
1.000000 0.693271 0.063681
0.000000 0.750967 0.065248
0.077440 0.751361 0.065124
0.150471 0.751755 0.065000
0.219772 0.752149 0.064876
0.286033 0.752543 0.064752
0.349960 0.752938 0.064628
0.412270 0.753332 0.064504
0.473693 0.753726 0.064380
0.534973 0.754121 0.064256
0.596867 0.754515 0.064132
0.660144 0.754910 0.064008
0.725589 0.755305 0.063884
0.793999 0.755700 0.063760
0.866184 0.756094 0.063636
0.942969 0.756489 0.063512
1.000000 0.756884 0.063388
1.000000 0.757280 0.063264
0.000000 0.816671 0.064831
0.077818 0.817114 0.064707
0.151183 0.817557 0.064583
0.220785 0.818000 0.064459
0.287326 0.818443 0.064335
0.351523 0.818886 0.064211
0.414103 0.819330 0.064087
0.475807 0.819774 0.063963
0.537392 0.820217 0.063839
0.599625 0.820661 0.063715
0.663288 0.821105 0.063591
0.729176 0.821549 0.063467
0.798099 0.821994 0.063343
0.870879 0.822438 0.063219
0.948353 0.822882 0.063095
1.000000 0.823327 0.062971
1.000000 0.823772 0.062847
0.000000 0.885328 0.064414
0.078195 0.885826 0.064290
0.151894 0.886325 0.064166
0.221797 0.886823 0.064042
0.288619 0.887322 0.063918
0.353084 0.887821 0.063794
0.415934 0.888320 0.063670
0.477921 0.888820 0.063546
0.539812 0.889319 0.063422
0.602385 0.889819 0.063298
0.666436 0.890319 0.063174
0.732771 0.890819 0.063049
0.802211 0.891319 0.062925
0.875591 0.891819 0.062801
0.953760 0.892320 0.062677
1.000000 0.892820 0.062553
1.000000 0.893321 0.062429
0.000000 0.957510 0.063997
0.078572 0.958071 0.063873
0.152604 0.958633 0.063749
0.222809 0.959194 0.063625
0.289910 0.959756 0.063501
0.354645 0.960318 0.063377
0.417765 0.960880 0.063252
0.480035 0.961442 0.063128
0.542232 0.962004 0.063004
0.605148 0.962567 0.062880
0.669589 0.963130 0.062756
0.736374 0.963693 0.062632
0.806336 0.964257 0.062508
0.880321 0.964821 0.062384
0.959192 0.965384 0.062260
1.000000 0.965949 0.062136
1.000000 0.966513 0.062012
0.000000 1.000000 0.063579
0.078949 1.000000 0.063455
0.153314 1.000000 0.063331
0.223820 1.000000 0.063207
0.291200 1.000000 0.063083
0.356204 1.000000 0.062959
0.419595 1.000000 0.062835
0.482148 1.000000 0.062711
0.544653 1.000000 0.062587
0.607914 1.000000 0.062463
0.672748 1.000000 0.062339
0.739986 1.000000 0.062215
0.810473 1.000000 0.062090
0.885069 1.000000 0.061966
0.964649 1.000000 0.061842
1.000000 1.000000 0.061718
1.000000 1.000000 0.061594
0.000000 0.000000 0.138206
0.072943 0.000000 0.137966
0.141977 0.000000 0.137726
0.207661 0.000000 0.137486
0.270568 0.000000 0.137246
0.331278 0.000000 0.137006
0.390386 0.000000 0.136766
0.448497 0.000000 0.136526
0.506228 0.000000 0.136285
0.564207 0.000000 0.136045
0.623077 0.000000 0.135805
0.683487 0.000000 0.135565
0.746104 0.000000 0.135324
0.811603 0.000000 0.135084
0.880674 0.000000 0.134844
0.954017 0.000000 0.134603
1.000000 0.000000 0.134363
0.000000 0.070851 0.137399
0.073322 0.070888 0.137159
0.142693 0.070925 0.136919
0.208683 0.070961 0.136678
0.271873 0.070998 0.136438
0.332854 0.071035 0.136198
0.392231 0.071071 0.135958
0.450618 0.071108 0.135717
0.508642 0.071145 0.135477
0.566942 0.071181 0.135237
0.626170 0.071218 0.134997
0.686987 0.071255 0.134756
0.750069 0.071291 0.134516
0.816104 0.071328 0.134275
0.885790 0.071365 0.134035
0.959839 0.071401 0.133795
1.000000 0.071438 0.133554
0.000000 0.138644 0.136591
0.073700 0.138714 0.136351
0.143409 0.138784 0.136111
0.209704 0.138854 0.135870
0.273177 0.138924 0.135630
0.334430 0.138994 0.135390
0.394075 0.139064 0.135149
0.452738 0.139135 0.134909
0.511056 0.139205 0.134669
0.569678 0.139275 0.134428
0.629266 0.139345 0.134188
0.690494 0.139415 0.133947
0.754045 0.139485 0.133707
0.820619 0.139555 0.133467
0.890926 0.139625 0.133226
0.965690 0.139695 0.132985
1.000000 0.139765 0.132745
0.000000 0.203822 0.135783
0.074078 0.203923 0.135543
0.144124 0.204024 0.135302
0.210725 0.204125 0.135062
0.274481 0.204226 0.134822
0.336004 0.204327 0.134581
0.395918 0.204428 0.134341
0.454857 0.204529 0.134100
0.513470 0.204630 0.133860
0.572416 0.204731 0.133619
0.632367 0.204832 0.133379
0.694007 0.204932 0.133138
0.758032 0.205033 0.132898
0.825150 0.205134 0.132657
0.896085 0.205235 0.132417
0.971568 0.205336 0.132176
1.000000 0.205437 0.131935
0.000000 0.266840 0.134974
0.074457 0.266970 0.134734
0.144839 0.267100 0.134494
0.211744 0.267230 0.134253
0.275783 0.267360 0.134013
0.337577 0.267490 0.133772
0.397759 0.267620 0.133532
0.456976 0.267750 0.133291
0.515885 0.267880 0.133051
0.575156 0.268010 0.132810
0.635472 0.268140 0.132570
0.697527 0.268270 0.132329
0.762029 0.268400 0.132089
0.829697 0.268530 0.131848
0.901264 0.268660 0.131607
0.977476 0.268790 0.131366
1.000000 0.268920 0.131126
0.000000 0.328161 0.134166
0.074835 0.328319 0.133925
0.145553 0.328478 0.133685
0.212763 0.328636 0.133444
0.277084 0.328794 0.133204
0.339149 0.328952 0.132963
0.399600 0.329111 0.132723
0.459094 0.329269 0.132482
0.518300 0.329427 0.132242
0.577898 0.329585 0.132001
0.638580 0.329743 0.131760
0.701054 0.329901 0.131520
0.766037 0.330059 0.131279
0.834259 0.330218 0.131038
0.906466 0.330376 0.130797
0.983413 0.330534 0.130557
1.000000 0.330692 0.130316
0.000000 0.388261 0.133357
0.075213 0.388447 0.133116
0.146267 0.388633 0.132876
0.213781 0.388819 0.132635
0.278384 0.389006 0.132395
0.340719 0.389192 0.132154
0.401439 0.389378 0.131913
0.461212 0.389564 0.131673
0.520715 0.389750 0.131432
0.580641 0.389936 0.131191
0.641693 0.390122 0.130950
0.704588 0.390308 0.130710
0.770056 0.390494 0.130469
0.838838 0.390680 0.130228
0.911690 0.390866 0.129987
0.989380 0.391052 0.129746
1.000000 0.391238 0.129506
0.000000 0.447624 0.132548
0.075591 0.447839 0.132307
0.146981 0.448053 0.132066
0.214798 0.448268 0.131826
0.279684 0.448483 0.131585
0.342288 0.448697 0.131344
0.403278 0.448912 0.131104
0.463329 0.449127 0.130863
0.523131 0.449341 0.130622
0.583386 0.449556 0.130381
0.644810 0.449770 0.130140
0.708130 0.449985 0.129900
0.774086 0.450200 0.129659
0.843433 0.450414 0.129418
0.916936 0.450629 0.129177
0.995376 0.450843 0.128936
1.000000 0.451058 0.128695
0.000000 0.506746 0.131738
0.075969 0.506991 0.131497
0.147694 0.507235 0.131257
0.215815 0.507480 0.131016
0.280982 0.507724 0.130775
0.343857 0.507969 0.130534
0.405115 0.508213 0.130294
0.465445 0.508458 0.130053
0.525547 0.508702 0.129812
0.586134 0.508947 0.129571
0.647931 0.509191 0.129330
0.711679 0.509436 0.129089
0.778128 0.509680 0.128848
0.848044 0.509925 0.128607
0.922205 0.510169 0.128366
1.000000 0.510414 0.128125
1.000000 0.510658 0.127884
0.000000 0.566133 0.130928
0.076346 0.566409 0.130688
0.148407 0.566686 0.130447
0.216831 0.566962 0.130206
0.282279 0.567239 0.129965
0.345424 0.567515 0.129724
0.406952 0.567792 0.129483
0.467561 0.568069 0.129242
0.527964 0.568345 0.129001
0.588883 0.568622 0.128760
0.651057 0.568899 0.128520
0.715235 0.569175 0.128278
0.782181 0.569452 0.128037
0.852672 0.569729 0.127796
0.927497 0.570005 0.127555
1.000000 0.570282 0.127314
1.000000 0.570559 0.127073
0.000000 0.626301 0.130118
0.076724 0.626612 0.129877
0.149120 0.626924 0.129637
0.217846 0.627235 0.129396
0.283575 0.627547 0.129155
0.346990 0.627859 0.128914
0.408787 0.628170 0.128673
0.469677 0.628482 0.128432
0.530381 0.628794 0.128191
0.591635 0.629106 0.127950
0.654187 0.629418 0.127709
0.718799 0.629729 0.127468
0.786246 0.630041 0.127226
0.857317 0.630353 0.126985
0.932812 0.630665 0.126744
1.000000 0.630977 0.126503
1.000000 0.631289 0.126262
0.000000 0.687777 0.129308
0.077101 0.688128 0.129067
0.149832 0.688478 0.128826
0.218860 0.688829 0.128585
0.284870 0.689179 0.128344
0.348554 0.689530 0.128103
0.410622 0.689881 0.127862
0.471792 0.690231 0.127621
0.532799 0.690582 0.127380
0.594389 0.690933 0.127139
0.657322 0.691284 0.126897
0.722371 0.691635 0.126656
0.790323 0.691986 0.126415
0.861978 0.692337 0.126174
0.938150 0.692688 0.125933
1.000000 0.693039 0.125691
1.000000 0.693390 0.125450
0.000000 0.751101 0.128497
0.077478 0.751495 0.128256
0.150543 0.751889 0.128015
0.219874 0.752283 0.127774
0.286164 0.752677 0.127533
0.350118 0.753072 0.127292
0.412455 0.753466 0.127051
0.473906 0.753860 0.126810
0.535217 0.754255 0.126568
0.597145 0.754649 0.126327
0.660461 0.755044 0.126086
0.725951 0.755439 0.125845
0.794412 0.755834 0.125603
0.866657 0.756229 0.125362
0.943512 0.756624 0.125121
1.000000 0.757019 0.124879
1.000000 0.757414 0.124638
0.000000 0.816821 0.127686
0.077856 0.817264 0.127445
0.151255 0.817707 0.127204
0.220887 0.818150 0.126963
0.287457 0.818594 0.126722
0.351681 0.819037 0.126481
0.414288 0.819481 0.126239
0.476021 0.819924 0.125998
0.537636 0.820368 0.125757
0.599903 0.820812 0.125516
0.663605 0.821256 0.125274
0.729539 0.821700 0.125033
0.798513 0.822144 0.124792
0.871354 0.822589 0.124550
0.948898 0.823033 0.124309
1.000000 0.823478 0.124067
1.000000 0.823923 0.123826
0.000000 0.885497 0.126875
0.078233 0.885996 0.126634
0.151965 0.886494 0.126393
0.221899 0.886993 0.126152
0.288749 0.887492 0.125910
0.353242 0.887991 0.125669
0.416119 0.888490 0.125428
0.478135 0.888989 0.125186
0.540056 0.889489 0.124945
0.602664 0.889989 0.124704
0.666754 0.890488 0.124462
0.733134 0.890988 0.124221
0.802627 0.891489 0.123979
0.876068 0.891989 0.123738
0.954307 0.892490 0.123496
1.000000 0.892990 0.123255
1.000000 0.893491 0.123013
0.000000 0.957701 0.126064
0.078610 0.958262 0.125823
0.152676 0.958823 0.125581
0.222911 0.959385 0.125340
0.290040 0.959946 0.125099
0.354802 0.960508 0.124857
0.417950 0.961071 0.124616
0.480248 0.961633 0.124374
0.542476 0.962196 0.124133
0.605428 0.962758 0.123892
0.669908 0.963321 0.123650
0.736738 0.963885 0.123409
0.806753 0.964448 0.123167
0.880800 0.965012 0.122925
0.959742 0.965576 0.122684
1.000000 0.966140 0.122442
1.000000 0.966705 0.122201
0.000000 1.000000 0.125252
0.078987 1.000000 0.125011
0.153386 1.000000 0.124769
0.223922 1.000000 0.124528
0.291330 1.000000 0.124287
0.356362 1.000000 0.124045
0.419780 1.000000 0.123804
0.482361 1.000000 0.123562
0.544898 1.000000 0.123321
0.608193 1.000000 0.123079
0.673067 1.000000 0.122837
0.740351 1.000000 0.122596
0.810891 1.000000 0.122354
0.885550 1.000000 0.122113
0.965201 1.000000 0.121871
1.000000 1.000000 0.121629
1.000000 1.000000 0.121387
0.000000 0.000000 0.204218
0.072981 0.000000 0.203867
0.142049 0.000000 0.203516
0.207765 0.000000 0.203165
0.270699 0.000000 0.202814
0.331437 0.000000 0.202463
0.390572 0.000000 0.202112
0.448711 0.000000 0.201761
0.506471 0.000000 0.201410
0.564483 0.000000 0.201058
0.623389 0.000000 0.200707
0.683840 0.000000 0.200356
0.746504 0.000000 0.200004
0.812057 0.000000 0.199653
0.881190 0.000000 0.199301
0.954604 0.000000 0.198950
1.000000 0.000000 0.198598
0.000000 0.070864 0.203037
