app/luts/warm.cube
# warm LUT — Protect Timelapse
LUT_3D_SIZE 5
DOMAIN_MIN 0.0 0.0 0.0
DOMAIN_MAX 1.0 1.0 1.0
0.000000 0.000000 0.000000
0.270304 0.000000 0.000000
0.505740 0.000000 0.000000
0.745305 0.000000 0.000000
1.000000 0.000000 0.000000
0.000000 0.266751 0.000000
0.275520 0.267272 0.000000
0.515397 0.267792 0.000000
0.761221 0.268312 0.000000
1.000000 0.268832 0.000000
0.000000 0.506580 0.000000
0.280720 0.507558 0.000000
0.525059 0.508536 0.000000
0.777311 0.509514 0.000000
1.000000 0.510492 0.000000
0.000000 0.750834 0.000000
0.285903 0.752410 0.000000
0.534729 0.753987 0.000000
0.793586 0.755565 0.000000
1.000000 0.757145 0.000000
0.000000 1.000000 0.000000
0.291070 1.000000 0.000000
0.544409 1.000000 0.000000
0.810055 1.000000 0.000000
1.000000 1.000000 0.000000
0.000000 0.000000 0.268613
0.270831 0.000000 0.266781
0.506715 0.000000 0.264947
0.746904 0.000000 0.263113
1.000000 0.000000 0.261278
0.000000 0.266928 0.262445
0.276046 0.267449 0.260609
0.516373 0.267969 0.258772
0.762837 0.268489 0.256934
1.000000 0.269009 0.255096
0.000000 0.506912 0.256265
0.281244 0.507890 0.254426
0.526035 0.508868 0.252585
0.778945 0.509846 0.250744
1.000000 0.510824 0.248902
0.000000 0.751369 0.250073
0.286425 0.752945 0.248231
0.535705 0.754523 0.246387
0.795239 0.756102 0.244541
1.000000 0.757682 0.242695
0.000000 1.000000 0.243869
0.291590 1.000000 0.242023
0.545387 1.000000 0.240175
0.811728 1.000000 0.238326
1.000000 1.000000 0.236477
0.000000 0.000000 0.516600
0.271358 0.000000 0.513065
0.507690 0.000000 0.509531
0.748505 0.000000 0.505996
1.000000 0.000000 0.502461
0.000000 0.267105 0.504709
0.276571 0.267625 0.501175
0.517348 0.268145 0.497640
0.764455 0.268665 0.494106
1.000000 0.269185 0.490571
0.000000 0.507244 0.492819
0.281767 0.508222 0.489284
0.527011 0.509200 0.485749
0.780582 0.510178 0.482214
1.000000 0.511156 0.478679
0.000000 0.751904 0.480927
0.286947 0.753481 0.477392
0.536682 0.755059 0.473856
0.796895 0.756638 0.470319
1.000000 0.758219 0.466782
0.000000 1.000000 0.469032
0.292111 1.000000 0.465494
0.546365 1.000000 0.461957
0.813404 1.000000 0.458418
1.000000 1.000000 0.454879
0.000000 0.000000 0.764727
0.271885 0.000000 0.759178
0.508665 0.000000 0.753640
0.750107 0.000000 0.748111
1.000000 0.000000 0.742592
0.000000 0.267282 0.746101
0.277097 0.267802 0.740585
0.518323 0.268322 0.735079
0.766075 0.268842 0.729582
1.000000 0.269362 0.724093
0.000000 0.507576 0.727582
0.282291 0.508554 0.722097
0.527987 0.509532 0.716621
0.782220 0.510511 0.711153
1.000000 0.511489 0.705693
0.000000 0.752439 0.709164
0.287469 0.754017 0.703708
0.537659 0.755595 0.698259
0.798552 0.757175 0.692818
1.000000 0.758756 0.687384
0.000000 1.000000 0.690839
0.292631 1.000000 0.685408
0.547343 1.000000 0.679984
0.815082 1.000000 0.674567
1.000000 1.000000 0.669158
0.000000 0.000000 1.000000
0.272412 0.000000 1.000000
0.509639 0.000000 1.000000
0.751711 0.000000 1.000000
1.000000 0.000000 1.000000
0.000000 0.267458 1.000000
0.277622 0.267978 0.997163
0.519298 0.268498 0.989006
0.767697 0.269018 0.980881
1.000000 0.269538 0.972789
0.000000 0.507909 0.977931
0.282815 0.508887 0.969850
0.528963 0.509865 0.961801
0.783860 0.510843 0.953782
1.000000 0.511821 0.945794
0.000000 0.752975 0.950870
0.287991 0.754553 0.942893
0.538636 0.756132 0.934945
0.800212 0.757712 0.927027
1.000000 0.759294 0.919137
0.000000 1.000000 0.924151
0.293152 1.000000 0.916272
0.548321 1.000000 0.908420
0.816762 1.000000 0.900597
1.000000 1.000000 0.892800
